; HEADER_BLOCK_START
; generated by OrcaSlicer 2.2.0 on 2025-12-08 at 18:20:54
; total layer number: 1
; filament_density: 1.04
; filament_diameter: 1.75
; max_z_height: 0.20
; HEADER_BLOCK_END

; THUMBNAIL_BLOCK_START

;
; THUMBNAIL_BLOCK_END

; external perimeters extrusion width = 0.40mm
; perimeters extrusion width = 0.40mm
; infill extrusion width = 0.40mm
; solid infill extrusion width = 0.40mm
; top infill extrusion width = 0.40mm
; support material extrusion width = 0.40mm
; first layer extrusion width = 0.40mm

; EXECUTABLE_BLOCK_START
EXCLUDE_OBJECT_DEFINE NAME=Assembly_id_0_copy_0 CENTER=125,121 POLYGON=[[4,0],[246,0],[246,242],[4,242],[4,0]]
M73 P0 R2
;TYPE:Custom
PRINT_START EXTRUDER_TEMP=270 BED_TEMP=110
G90
G21
M83 ; use relative distances for extrusion
; Filament gcode
SET_PRESSURE_ADVANCE ADVANCE=0.01; Override pressure advance value
M106 S0
;LAYER_CHANGE
;Z:0.2
;HEIGHT:0.2
;BEFORE_LAYER_CHANGE
;0.2
G92 E0

G1 E-.5 F2100
;AFTER_LAYER_CHANGE
;0.2
;_SET_FAN_SPEED_CHANGING_LAYER
SET_VELOCITY_LIMIT ACCEL=10000
SET_VELOCITY_LIMIT SQUARE_CORNER_VELOCITY=10
; printing object Assembly id:0 copy 0
EXCLUDE_OBJECT_START NAME=Assembly_id_0_copy_0
G1 X9.65 Y236.35 F36000
G1 Z.2
G1 E.5 F2100
;TYPE:Outer wall
;WIDTH:0.4
G1 F13500
G1 X9.65 Y5.65 E6.50729
M73 P1 R2
G1 X240.35 Y5.65 E6.50729
M73 P1 R2
M73 P2 R2
G1 X240.35 Y236.35 E6.50729
M73 P2 R2
G1 X9.69 Y236.35 E6.50616
M73 P3 R2
G1 E-.35 F2100
M73 P3 R2
;WIPE_START
G1 F13500
G1 X9.69 Y235.35 E-.15
;WIPE_END
G1 X4.35 Y241.65 F36000
G1 E.5 F2100
G1 F13500
G1 X4.35 Y.35 E6.80628
M73 P4 R2
G1 X245.65 Y.35 E6.80628
M73 P4 R2
M73 P5 R2
G1 X245.65 Y241.65 E6.80628
M73 P5 R2
M73 P6 R2
G1 X4.39 Y241.65 E6.80516
M73 P6 R2
M73 P7 R2
G1 E-.35 F2100
M73 P7 R2
;WIPE_START
G1 F13500
G1 X4.39 Y240.65 E-.15
;WIPE_END
G1 X4.536 Y240.504 F36000
G1 X245.464 Y241.464
M73 P7 R1
G1 X245.464 Y.536
M73 P7 R1
M73 P8 R1
G1 X244.742 Y.536
M73 P8 R1
G1 X244.82 Y.457
G1 E.5 F2100
;TYPE:Bottom surface
;WIDTH:0.400359
G1 F13500
G1 X245.382 Y1.019 E.02244
G1 X245.382 Y1.525 E.01427
G1 X244.475 Y.618 E.03621
G1 X243.97 Y.618 E.01427
G1 X245.382 Y2.03 E.05639
G1 X245.382 Y2.536 E.01427
G1 X243.464 Y.618 E.07658
G1 X242.959 Y.618 E.01427
G1 X245.382 Y3.041 E.09676
G1 X245.382 Y3.547 E.01427
G1 X242.453 Y.618 E.11694
G1 X241.948 Y.618 E.01427
G1 X245.382 Y4.052 E.13713
G1 X245.382 Y4.558 E.01427
G1 X241.442 Y.618 E.15731
G1 X240.937 Y.618 E.01427
G1 X245.382 Y5.063 E.1775
G1 X245.382 Y5.568 E.01427
G1 X240.432 Y.618 E.19768
G1 X239.926 Y.618 E.01427
G1 X245.382 Y6.074 E.21787
G1 X245.382 Y6.579 E.01427
G1 X239.421 Y.618 E.23805
G1 X238.915 Y.618 E.01427
G1 X245.382 Y7.085 E.25824
G1 X245.382 Y7.59 E.01427
G1 X238.41 Y.618 E.27842
G1 X237.904 Y.618 E.01427
G1 X245.382 Y8.096 E.29861
G1 X245.382 Y8.601 E.01427
G1 X237.399 Y.618 E.31879
G1 X236.893 Y.618 E.01427
G1 X245.382 Y9.107 E.33898
G1 X245.382 Y9.612 E.01427
G1 X236.388 Y.618 E.35916
G1 X235.882 Y.618 E.01427
G1 X245.382 Y10.118 E.37935
M73 P9 R1
G1 X245.382 Y10.623 E.01427
M73 P9 R1
G1 X240.618 Y5.859 E.19024
G1 X240.618 Y5.382 E.01346
G1 X240.141 Y5.382 E.01346
G1 X235.377 Y.618 E.19024
G1 X234.871 Y.618 E.01427
G1 X239.635 Y5.382 E.19024
G1 X239.13 Y5.382 E.01427
G1 X234.366 Y.618 E.19024
G1 X233.86 Y.618 E.01427
G1 X238.624 Y5.382 E.19024
G1 X238.119 Y5.382 E.01427
G1 X233.355 Y.618 E.19024
G1 X232.849 Y.618 E.01427
G1 X237.613 Y5.382 E.19024
G1 X237.108 Y5.382 E.01427
G1 X232.344 Y.618 E.19024
G1 X231.838 Y.618 E.01427
G1 X236.602 Y5.382 E.19024
G1 X236.097 Y5.382 E.01427
G1 X231.333 Y.618 E.19024
G1 X230.827 Y.618 E.01427
G1 X235.591 Y5.382 E.19024
G1 X235.086 Y5.382 E.01427
G1 X230.322 Y.618 E.19024
G1 X229.816 Y.618 E.01427
G1 X234.58 Y5.382 E.19024
G1 X234.075 Y5.382 E.01427
G1 X229.311 Y.618 E.19024
G1 X228.805 Y.618 E.01427
G1 X233.569 Y5.382 E.19024
G1 X233.064 Y5.382 E.01427
G1 X228.3 Y.618 E.19024
G1 X227.794 Y.618 E.01427
G1 X232.559 Y5.382 E.19024
G1 X232.053 Y5.382 E.01427
G1 X227.289 Y.618 E.19024
G1 X226.783 Y.618 E.01427
G1 X231.548 Y5.382 E.19024
G1 X231.042 Y5.382 E.01427
G1 X226.278 Y.618 E.19024
G1 X225.772 Y.618 E.01427
G1 X230.537 Y5.382 E.19024
M73 P10 R1
G1 X230.031 Y5.382 E.01427
M73 P10 R1
G1 X225.267 Y.618 E.19024
G1 X224.761 Y.618 E.01427
G1 X229.526 Y5.382 E.19024
G1 X229.02 Y5.382 E.01427
G1 X224.256 Y.618 E.19024
G1 X223.75 Y.618 E.01427
G1 X228.515 Y5.382 E.19024
G1 X228.009 Y5.382 E.01427
G1 X223.245 Y.618 E.19024
G1 X222.739 Y.618 E.01427
G1 X227.504 Y5.382 E.19024
G1 X226.998 Y5.382 E.01427
G1 X222.234 Y.618 E.19024
G1 X221.728 Y.618 E.01427
G1 X226.493 Y5.382 E.19024
G1 X225.987 Y5.382 E.01427
G1 X221.223 Y.618 E.19024
G1 X220.717 Y.618 E.01427
G1 X225.482 Y5.382 E.19024
G1 X224.976 Y5.382 E.01427
G1 X220.212 Y.618 E.19024
G1 X219.706 Y.618 E.01427
G1 X224.471 Y5.382 E.19024
G1 X223.965 Y5.382 E.01427
G1 X219.201 Y.618 E.19024
G1 X218.695 Y.618 E.01427
G1 X223.46 Y5.382 E.19024
G1 X222.954 Y5.382 E.01427
G1 X218.19 Y.618 E.19024
G1 X217.684 Y.618 E.01427
G1 X222.449 Y5.382 E.19024
G1 X221.943 Y5.382 E.01427
G1 X217.179 Y.618 E.19024
G1 X216.673 Y.618 E.01427
G1 X221.438 Y5.382 E.19024
G1 X220.932 Y5.382 E.01427
G1 X216.168 Y.618 E.19024
G1 X215.662 Y.618 E.01427
G1 X220.427 Y5.382 E.19024
M73 P11 R1
G1 X219.921 Y5.382 E.01427
M73 P11 R1
G1 X215.157 Y.618 E.19024
G1 X214.651 Y.618 E.01427
G1 X219.416 Y5.382 E.19024
G1 X218.91 Y5.382 E.01427
G1 X214.146 Y.618 E.19024
G1 X213.64 Y.618 E.01427
G1 X218.405 Y5.382 E.19024
G1 X217.899 Y5.382 E.01427
G1 X213.135 Y.618 E.19024
G1 X212.629 Y.618 E.01427
G1 X217.394 Y5.382 E.19024
G1 X216.888 Y5.382 E.01427
G1 X212.124 Y.618 E.19024
G1 X211.618 Y.618 E.01427
G1 X216.383 Y5.382 E.19024
G1 X215.877 Y5.382 E.01427
G1 X211.113 Y.618 E.19024
G1 X210.607 Y.618 E.01427
G1 X215.372 Y5.382 E.19024
G1 X214.866 Y5.382 E.01427
G1 X210.102 Y.618 E.19024
G1 X209.596 Y.618 E.01427
G1 X214.361 Y5.382 E.19024
G1 X213.855 Y5.382 E.01427
G1 X209.091 Y.618 E.19024
G1 X208.585 Y.618 E.01427
G1 X213.35 Y5.382 E.19024
G1 X212.844 Y5.382 E.01427
G1 X208.08 Y.618 E.19024
G1 X207.574 Y.618 E.01427
G1 X212.339 Y5.382 E.19024
G1 X211.833 Y5.382 E.01427
G1 X207.069 Y.618 E.19024
G1 X206.563 Y.618 E.01427
G1 X211.328 Y5.382 E.19024
G1 X210.822 Y5.382 E.01427
G1 X206.058 Y.618 E.19024
G1 X205.552 Y.618 E.01427
G1 X210.317 Y5.382 E.19024
G1 X209.811 Y5.382 E.01427
G1 X205.047 Y.618 E.19024
M73 P12 R1
G1 X204.541 Y.618 E.01427
M73 P12 R1
G1 X209.306 Y5.382 E.19024
G1 X208.8 Y5.382 E.01427
G1 X204.036 Y.618 E.19024
G1 X203.53 Y.618 E.01427
G1 X208.295 Y5.382 E.19024
G1 X207.789 Y5.382 E.01427
G1 X203.025 Y.618 E.19024
G1 X202.519 Y.618 E.01427
G1 X207.284 Y5.382 E.19024
G1 X206.778 Y5.382 E.01427
G1 X202.014 Y.618 E.19024
G1 X201.508 Y.618 E.01427
G1 X206.273 Y5.382 E.19024
G1 X205.767 Y5.382 E.01427
G1 X201.003 Y.618 E.19024
G1 X200.497 Y.618 E.01427
G1 X205.262 Y5.382 E.19024
G1 X204.756 Y5.382 E.01427
G1 X199.992 Y.618 E.19024
G1 X199.486 Y.618 E.01427
G1 X204.251 Y5.382 E.19024
G1 X203.745 Y5.382 E.01427
G1 X198.981 Y.618 E.19024
G1 X198.475 Y.618 E.01427
G1 X203.24 Y5.382 E.19024
G1 X202.734 Y5.382 E.01427
G1 X197.97 Y.618 E.19024
G1 X197.464 Y.618 E.01427
G1 X202.229 Y5.382 E.19024
G1 X201.723 Y5.382 E.01427
G1 X196.959 Y.618 E.19024
G1 X196.453 Y.618 E.01427
G1 X201.218 Y5.382 E.19024
G1 X200.712 Y5.382 E.01427
G1 X195.948 Y.618 E.19024
G1 X195.442 Y.618 E.01427
G1 X200.207 Y5.382 E.19024
G1 X199.701 Y5.382 E.01427
G1 X194.937 Y.618 E.19024
M73 P13 R1
G1 X194.431 Y.618 E.01427
M73 P13 R1
G1 X199.196 Y5.382 E.19024
G1 X198.69 Y5.382 E.01427
G1 X193.926 Y.618 E.19024
G1 X193.42 Y.618 E.01427
G1 X198.185 Y5.382 E.19024
G1 X197.679 Y5.382 E.01427
G1 X192.915 Y.618 E.19024
G1 X192.409 Y.618 E.01427
G1 X197.174 Y5.382 E.19024
G1 X196.668 Y5.382 E.01427
G1 X191.904 Y.618 E.19024
G1 X191.398 Y.618 E.01427
G1 X196.163 Y5.382 E.19024
G1 X195.657 Y5.382 E.01427
G1 X190.893 Y.618 E.19024
G1 X190.387 Y.618 E.01427
G1 X195.152 Y5.382 E.19024
G1 X194.646 Y5.382 E.01427
G1 X189.882 Y.618 E.19024
G1 X189.376 Y.618 E.01427
G1 X194.141 Y5.382 E.19024
G1 X193.635 Y5.382 E.01427
G1 X188.871 Y.618 E.19024
G1 X188.366 Y.618 E.01427
G1 X193.13 Y5.382 E.19024
G1 X192.624 Y5.382 E.01427
G1 X187.86 Y.618 E.19024
G1 X187.355 Y.618 E.01427
G1 X192.119 Y5.382 E.19024
G1 X191.613 Y5.382 E.01427
G1 X186.849 Y.618 E.19024
G1 X186.344 Y.618 E.01427
G1 X191.108 Y5.382 E.19024
G1 X190.602 Y5.382 E.01427
G1 X185.838 Y.618 E.19024
G1 X185.333 Y.618 E.01427
G1 X190.097 Y5.382 E.19024
G1 X189.591 Y5.382 E.01427
G1 X184.827 Y.618 E.19024
G1 X184.322 Y.618 E.01427
G1 X189.086 Y5.382 E.19024
M73 P14 R1
G1 X188.58 Y5.382 E.01427
M73 P14 R1
G1 X183.816 Y.618 E.19024
G1 X183.311 Y.618 E.01427
G1 X188.075 Y5.382 E.19024
G1 X187.569 Y5.382 E.01427
G1 X182.805 Y.618 E.19024
G1 X182.3 Y.618 E.01427
G1 X187.064 Y5.382 E.19024
G1 X186.558 Y5.382 E.01427
G1 X181.794 Y.618 E.19024
G1 X181.289 Y.618 E.01427
G1 X186.053 Y5.382 E.19024
G1 X185.547 Y5.382 E.01427
G1 X180.783 Y.618 E.19024
G1 X180.278 Y.618 E.01427
G1 X185.042 Y5.382 E.19024
G1 X184.536 Y5.382 E.01427
G1 X179.772 Y.618 E.19024
G1 X179.267 Y.618 E.01427
G1 X184.031 Y5.382 E.19024
G1 X183.525 Y5.382 E.01427
G1 X178.761 Y.618 E.19024
G1 X178.256 Y.618 E.01427
G1 X183.02 Y5.382 E.19024
G1 X182.514 Y5.382 E.01427
G1 X177.75 Y.618 E.19024
G1 X177.245 Y.618 E.01427
G1 X182.009 Y5.382 E.19024
G1 X181.504 Y5.382 E.01427
G1 X176.739 Y.618 E.19024
G1 X176.234 Y.618 E.01427
G1 X180.998 Y5.382 E.19024
G1 X180.493 Y5.382 E.01427
G1 X175.728 Y.618 E.19024
G1 X175.223 Y.618 E.01427
G1 X179.987 Y5.382 E.19024
G1 X179.482 Y5.382 E.01427
G1 X174.717 Y.618 E.19024
G1 X174.212 Y.618 E.01427
G1 X178.976 Y5.382 E.19024
M73 P15 R1
G1 X178.471 Y5.382 E.01427
M73 P15 R1
G1 X173.706 Y.618 E.19024
G1 X173.201 Y.618 E.01427
G1 X177.965 Y5.382 E.19024
G1 X177.46 Y5.382 E.01427
G1 X172.695 Y.618 E.19024
G1 X172.19 Y.618 E.01427
G1 X176.954 Y5.382 E.19024
G1 X176.449 Y5.382 E.01427
G1 X171.684 Y.618 E.19024
G1 X171.179 Y.618 E.01427
G1 X175.943 Y5.382 E.19024
G1 X175.438 Y5.382 E.01427
G1 X170.673 Y.618 E.19024
G1 X170.168 Y.618 E.01427
G1 X174.932 Y5.382 E.19024
G1 X174.427 Y5.382 E.01427
G1 X169.662 Y.618 E.19024
G1 X169.157 Y.618 E.01427
G1 X173.921 Y5.382 E.19024
G1 X173.416 Y5.382 E.01427
G1 X168.651 Y.618 E.19024
G1 X168.146 Y.618 E.01427
G1 X172.91 Y5.382 E.19024
G1 X172.405 Y5.382 E.01427
G1 X167.64 Y.618 E.19024
G1 X167.135 Y.618 E.01427
G1 X171.899 Y5.382 E.19024
G1 X171.394 Y5.382 E.01427
G1 X166.629 Y.618 E.19024
G1 X166.124 Y.618 E.01427
G1 X170.888 Y5.382 E.19024
G1 X170.383 Y5.382 E.01427
G1 X165.618 Y.618 E.19024
G1 X165.113 Y.618 E.01427
G1 X169.877 Y5.382 E.19024
G1 X169.372 Y5.382 E.01427
G1 X164.607 Y.618 E.19024
G1 X164.102 Y.618 E.01427
G1 X168.866 Y5.382 E.19024
G1 X168.361 Y5.382 E.01427
G1 X163.596 Y.618 E.19024
M73 P16 R1
G1 X163.091 Y.618 E.01427
M73 P16 R1
G1 X167.855 Y5.382 E.19024
G1 X167.35 Y5.382 E.01427
G1 X162.585 Y.618 E.19024
G1 X162.08 Y.618 E.01427
G1 X166.844 Y5.382 E.19024
G1 X166.339 Y5.382 E.01427
G1 X161.574 Y.618 E.19024
G1 X161.069 Y.618 E.01427
G1 X165.833 Y5.382 E.19024
G1 X165.328 Y5.382 E.01427
G1 X160.563 Y.618 E.19024
G1 X160.058 Y.618 E.01427
G1 X164.822 Y5.382 E.19024
G1 X164.317 Y5.382 E.01427
G1 X159.552 Y.618 E.19024
G1 X159.047 Y.618 E.01427
G1 X163.811 Y5.382 E.19024
G1 X163.306 Y5.382 E.01427
G1 X158.541 Y.618 E.19024
G1 X158.036 Y.618 E.01427
G1 X162.8 Y5.382 E.19024
G1 X162.295 Y5.382 E.01427
G1 X157.53 Y.618 E.19024
G1 X157.025 Y.618 E.01427
G1 X161.789 Y5.382 E.19024
G1 X161.284 Y5.382 E.01427
G1 X156.519 Y.618 E.19024
G1 X156.014 Y.618 E.01427
G1 X160.778 Y5.382 E.19024
G1 X160.273 Y5.382 E.01427
G1 X155.508 Y.618 E.19024
G1 X155.003 Y.618 E.01427
G1 X159.767 Y5.382 E.19024
G1 X159.262 Y5.382 E.01427
G1 X154.497 Y.618 E.19024
G1 X153.992 Y.618 E.01427
G1 X158.756 Y5.382 E.19024
G1 X158.251 Y5.382 E.01427
G1 X153.486 Y.618 E.19024
M73 P17 R1
G1 X152.981 Y.618 E.01427
M73 P17 R1
G1 X157.745 Y5.382 E.19024
G1 X157.24 Y5.382 E.01427
G1 X152.475 Y.618 E.19024
G1 X151.97 Y.618 E.01427
G1 X156.734 Y5.382 E.19024
G1 X156.229 Y5.382 E.01427
G1 X151.464 Y.618 E.19024
G1 X150.959 Y.618 E.01427
G1 X155.723 Y5.382 E.19024
G1 X155.218 Y5.382 E.01427
G1 X150.453 Y.618 E.19024
G1 X149.948 Y.618 E.01427
G1 X154.712 Y5.382 E.19024
G1 X154.207 Y5.382 E.01427
G1 X149.442 Y.618 E.19024
G1 X148.937 Y.618 E.01427
G1 X153.701 Y5.382 E.19024
G1 X153.196 Y5.382 E.01427
G1 X148.431 Y.618 E.19024
G1 X147.926 Y.618 E.01427
G1 X152.69 Y5.382 E.19024
G1 X152.185 Y5.382 E.01427
G1 X147.42 Y.618 E.19024
G1 X146.915 Y.618 E.01427
G1 X151.679 Y5.382 E.19024
G1 X151.174 Y5.382 E.01427
G1 X146.409 Y.618 E.19024
G1 X145.904 Y.618 E.01427
G1 X150.668 Y5.382 E.19024
G1 X150.163 Y5.382 E.01427
G1 X145.398 Y.618 E.19024
G1 X144.893 Y.618 E.01427
G1 X149.657 Y5.382 E.19024
G1 X149.152 Y5.382 E.01427
G1 X144.387 Y.618 E.19024
G1 X143.882 Y.618 E.01427
G1 X148.646 Y5.382 E.19024
G1 X148.141 Y5.382 E.01427
G1 X143.376 Y.618 E.19024
G1 X142.871 Y.618 E.01427
G1 X147.635 Y5.382 E.19024
M73 P18 R1
G1 X147.13 Y5.382 E.01427
M73 P18 R1
G1 X142.365 Y.618 E.19024
G1 X141.86 Y.618 E.01427
G1 X146.624 Y5.382 E.19024
G1 X146.119 Y5.382 E.01427
G1 X141.354 Y.618 E.19024
G1 X140.849 Y.618 E.01427
G1 X145.613 Y5.382 E.19024
G1 X145.108 Y5.382 E.01427
G1 X140.343 Y.618 E.19024
G1 X139.838 Y.618 E.01427
G1 X144.602 Y5.382 E.19024
G1 X144.097 Y5.382 E.01427
G1 X139.332 Y.618 E.19024
G1 X138.827 Y.618 E.01427
G1 X143.591 Y5.382 E.19024
G1 X143.086 Y5.382 E.01427
G1 X138.321 Y.618 E.19024
G1 X137.816 Y.618 E.01427
G1 X142.58 Y5.382 E.19024
G1 X142.075 Y5.382 E.01427
G1 X137.311 Y.618 E.19024
G1 X136.805 Y.618 E.01427
G1 X141.569 Y5.382 E.19024
G1 X141.064 Y5.382 E.01427
G1 X136.3 Y.618 E.19024
G1 X135.794 Y.618 E.01427
G1 X140.558 Y5.382 E.19024
G1 X140.053 Y5.382 E.01427
G1 X135.289 Y.618 E.19024
G1 X134.783 Y.618 E.01427
G1 X139.547 Y5.382 E.19024
G1 X139.042 Y5.382 E.01427
G1 X134.278 Y.618 E.19024
G1 X133.772 Y.618 E.01427
G1 X138.536 Y5.382 E.19024
G1 X138.031 Y5.382 E.01427
G1 X133.267 Y.618 E.19024
G1 X132.761 Y.618 E.01427
G1 X137.525 Y5.382 E.19024
M73 P19 R1
G1 X137.02 Y5.382 E.01427
M73 P19 R1
G1 X132.256 Y.618 E.19024
G1 X131.75 Y.618 E.01427
G1 X136.514 Y5.382 E.19024
G1 X136.009 Y5.382 E.01427
G1 X131.245 Y.618 E.19024
G1 X130.739 Y.618 E.01427
G1 X135.503 Y5.382 E.19024
G1 X134.998 Y5.382 E.01427
G1 X130.234 Y.618 E.19024
G1 X129.728 Y.618 E.01427
G1 X134.492 Y5.382 E.19024
G1 X133.987 Y5.382 E.01427
G1 X129.223 Y.618 E.19024
G1 X128.717 Y.618 E.01427
G1 X133.481 Y5.382 E.19024
G1 X132.976 Y5.382 E.01427
G1 X128.212 Y.618 E.19024
G1 X127.706 Y.618 E.01427
G1 X132.47 Y5.382 E.19024
G1 X131.965 Y5.382 E.01427
G1 X127.201 Y.618 E.19024
G1 X126.695 Y.618 E.01427
G1 X131.459 Y5.382 E.19024
G1 X130.954 Y5.382 E.01427
G1 X126.19 Y.618 E.19024
G1 X125.684 Y.618 E.01427
G1 X130.449 Y5.382 E.19024
G1 X129.943 Y5.382 E.01427
G1 X125.179 Y.618 E.19024
G1 X124.673 Y.618 E.01427
G1 X129.438 Y5.382 E.19024
G1 X128.932 Y5.382 E.01427
G1 X124.168 Y.618 E.19024
G1 X123.662 Y.618 E.01427
G1 X128.427 Y5.382 E.19024
G1 X127.921 Y5.382 E.01427
G1 X123.157 Y.618 E.19024
G1 X122.651 Y.618 E.01427
G1 X127.416 Y5.382 E.19024
G1 X126.91 Y5.382 E.01427
G1 X122.146 Y.618 E.19024
M73 P20 R1
G1 X121.64 Y.618 E.01427
M73 P20 R1
G1 X126.405 Y5.382 E.19024
G1 X125.899 Y5.382 E.01427
G1 X121.135 Y.618 E.19024
G1 X120.629 Y.618 E.01427
G1 X125.394 Y5.382 E.19024
G1 X124.888 Y5.382 E.01427
G1 X120.124 Y.618 E.19024
G1 X119.618 Y.618 E.01427
G1 X124.383 Y5.382 E.19024
G1 X123.877 Y5.382 E.01427
G1 X119.113 Y.618 E.19024
G1 X118.607 Y.618 E.01427
G1 X123.372 Y5.382 E.19024
G1 X122.866 Y5.382 E.01427
G1 X118.102 Y.618 E.19024
G1 X117.596 Y.618 E.01427
G1 X122.361 Y5.382 E.19024
G1 X121.855 Y5.382 E.01427
G1 X117.091 Y.618 E.19024
G1 X116.585 Y.618 E.01427
G1 X121.35 Y5.382 E.19024
G1 X120.844 Y5.382 E.01427
G1 X116.08 Y.618 E.19024
G1 X115.574 Y.618 E.01427
G1 X120.339 Y5.382 E.19024
G1 X119.833 Y5.382 E.01427
G1 X115.069 Y.618 E.19024
G1 X114.563 Y.618 E.01427
G1 X119.328 Y5.382 E.19024
G1 X118.822 Y5.382 E.01427
