; HEADER_BLOCK_START
; generated by OrcaSlicer 2.2.0 on 2025-11-21 at 10:04:46
; total layer number: 50
; filament_density: 1.04
; filament_diameter: 1.75
; max_z_height: 10.00
; HEADER_BLOCK_END

; THUMBNAIL_BLOCK_START

;
; THUMBNAIL_BLOCK_END

; external perimeters extrusion width = 0.40mm
; perimeters extrusion width = 0.40mm
; infill extrusion width = 0.40mm
; solid infill extrusion width = 0.40mm
; top infill extrusion width = 0.40mm
; first layer extrusion width = 0.40mm

; external perimeters extrusion width = 0.40mm
; perimeters extrusion width = 0.40mm
; infill extrusion width = 0.40mm
; solid infill extrusion width = 0.40mm
; top infill extrusion width = 0.40mm
; first layer extrusion width = 0.40mm

; EXECUTABLE_BLOCK_START
EXCLUDE_OBJECT_DEFINE NAME=axis-knob-kurling-10x24mm.stl_id_0_copy_0 CENTER=131.216,133.883 POLYGON=[[119.216,133.887],[119.338,132.179],[119.702,130.506],[120.3,128.902],[121.121,127.399],[122.147,126.029],[123.357,124.818],[124.728,123.792],[126.231,122.971],[127.835,122.373],[129.508,122.009],[131.199,121.878],[132.923,122.009],[134.596,122.373],[136.201,122.971],[137.703,123.792],[139.074,124.818],[140.285,126.029],[141.311,127.399],[142.131,128.902],[142.73,130.506],[143.094,132.179],[143.216,133.887],[143.094,135.595],[142.73,137.268],[142.131,138.872],[141.311,140.375],[140.285,141.745],[139.074,142.956],[137.703,143.982],[136.201,144.803],[134.596,145.401],[132.923,145.765],[131.213,145.888],[129.508,145.765],[127.835,145.401],[126.231,144.803],[124.728,143.982],[123.357,142.956],[122.147,141.745],[121.121,140.375],[120.3,138.872],[119.702,137.268],[119.338,135.595],[119.216,133.887]]
EXCLUDE_OBJECT_DEFINE NAME=axis-knob-kurling-10x24mm.stl_id_1_copy_0 CENTER=118.784,111.117 POLYGON=[[106.784,111.121],[106.906,109.413],[107.27,107.74],[107.869,106.136],[108.689,104.633],[109.715,103.263],[110.926,102.052],[112.297,101.026],[113.799,100.206],[115.404,99.6072],[117.077,99.2432],[118.768,99.1117],[120.492,99.2432],[122.165,99.6072],[123.769,100.206],[125.272,101.026],[126.643,102.052],[127.853,103.263],[128.879,104.633],[129.7,106.136],[130.298,107.74],[130.662,109.413],[130.784,111.121],[130.662,112.829],[130.298,114.502],[129.7,116.106],[128.879,117.609],[127.853,118.979],[126.643,120.19],[125.272,121.216],[123.769,122.037],[122.165,122.635],[120.492,122.999],[118.781,123.122],[117.077,122.999],[115.404,122.635],[113.799,122.037],[112.297,121.216],[110.926,120.19],[109.715,118.979],[108.689,117.609],[107.869,116.106],[107.27,114.502],[106.906,112.829],[106.784,111.121]]
M73 P0 R10
;TYPE:Custom
PRINT_START EXTRUDER_TEMP=260 BED_TEMP=110
G90
G21
M83 ; use relative distances for extrusion
; Filament gcode
SET_PRESSURE_ADVANCE ADVANCE=0.015; Override pressure advance value
M106 S0
;LAYER_CHANGE
;Z:0.2
;HEIGHT:0.2
;BEFORE_LAYER_CHANGE
;0.2
G92 E0

G1 E-.5 F2100
;AFTER_LAYER_CHANGE
;0.2
;_SET_FAN_SPEED_CHANGING_LAYER
SET_VELOCITY_LIMIT ACCEL=7500
SET_VELOCITY_LIMIT SQUARE_CORNER_VELOCITY=12
; printing object axis-knob-kurling-10x24mm.stl id:0 copy 0
EXCLUDE_OBJECT_START NAME=axis-knob-kurling-10x24mm.stl_id_0_copy_0
G1 X129.794 Y143.339 F36000
G1 Z.2
G1 E.5 F2100
;TYPE:Inner wall
;WIDTH:0.4
G1 F18000
G1 X129.36 Y142.713 E.02149
G1 X128.699 Y143.105 E.02167
G1 X128.349 Y143.002 E.01029
G1 X128.006 Y142.315 E.02167
G1 X127.302 Y142.607 E.02149
G1 X127.188 Y142.555 E.00352
G1 X126.948 Y141.832 E.02149
G1 X126.204 Y142.023 E.02167
G1 X125.897 Y141.825 E.0103
G1 X125.761 Y141.069 E.02167
G1 X125.004 Y141.151 E.02148
G1 X124.909 Y141.07 E.00352
G1 X124.883 Y140.308 E.02149
G1 X124.115 Y140.281 E.02167
G1 X123.876 Y140.005 E.0103
G1 X123.958 Y139.242 E.02166
G1 X123.209 Y139.107 E.02148
G1 X123.141 Y139.002 E.00352
G1 X123.33 Y138.264 E.02149
G1 X122.601 Y138.022 E.02167
G1 X122.45 Y137.69 E.0103
G1 X122.744 Y136.98 E.02167
G1 X122.063 Y136.64 E.02148
G1 X122.043 Y136.58 E.00176
G1 X122.027 Y136.52 E.00176
G1 X122.417 Y135.865 E.02149
G1 X121.785 Y135.427 E.02167
G1 X121.733 Y135.066 E.0103
G1 X122.215 Y134.468 E.02167
G1 X121.658 Y133.949 E.02148
G1 X121.658 Y133.825 E.00352
G1 X122.216 Y133.306 E.02149
G1 X121.733 Y132.708 E.02167
G1 X121.753 Y132.526 E.00515
G1 X121.785 Y132.347 E.00515
G1 X122.417 Y131.909 E.02167
G1 X122.027 Y131.254 E.02149
G1 X122.063 Y131.134 E.00352
G1 X122.744 Y130.794 E.02149
G1 X122.45 Y130.084 E.02167
G1 X122.601 Y129.752 E.01029
G1 X123.33 Y129.51 E.02167
G1 X123.141 Y128.772 E.02149
G1 X123.173 Y128.718 E.00176
G1 X123.209 Y128.667 E.00176
G1 X123.959 Y128.532 E.02149
G1 X123.876 Y127.769 E.02167
G1 X124.115 Y127.493 E.01029
G1 X124.883 Y127.466 E.02167
G1 X124.909 Y126.704 E.02149
G1 X125.004 Y126.623 E.00352
G1 X125.761 Y126.705 E.02149
G1 X125.897 Y125.949 E.02167
G1 X126.204 Y125.751 E.01029
G1 X126.948 Y125.942 E.02167
G1 X127.188 Y125.219 E.02149
G1 X127.302 Y125.167 E.00352
G1 X128.006 Y125.459 E.02149
G1 X128.349 Y124.772 E.02167
G1 X128.522 Y124.714 E.00515
G1 X128.699 Y124.669 E.00515
G1 X129.36 Y125.061 E.02167
G1 X129.794 Y124.435 E.02149
G1 X129.855 Y124.424 E.00176
G1 X129.917 Y124.418 E.00176
G1 X130.51 Y124.896 E.02149
G1 X131.028 Y124.339 E.02146
G1 X131.396 Y124.331 E.01037
G1 X131.921 Y124.896 E.02177
G1 X132.514 Y124.418 E.02149
G1 X132.638 Y124.435 E.00352
G1 X133.072 Y125.061 E.02149
G1 X133.732 Y124.669 E.02167
G1 X134.082 Y124.772 E.0103
G1 X134.426 Y125.459 E.02167
G1 X135.129 Y125.167 E.02148
G1 X135.187 Y125.191 E.00176
G1 X135.243 Y125.219 E.00176
G1 X135.483 Y125.942 E.02149
G1 X136.227 Y125.751 E.02167
G1 X136.534 Y125.949 E.0103
G1 X136.671 Y126.705 E.02167
G1 X137.428 Y126.623 E.02148
G1 X137.522 Y126.704 E.00352
G1 X137.549 Y127.466 E.02149
G1 X138.316 Y127.493 E.02167
G1 X138.441 Y127.626 E.00515
G1 X138.555 Y127.769 E.00515
G1 X138.473 Y128.532 E.02167
G1 X139.223 Y128.667 E.02148
G1 X139.29 Y128.772 E.00352
G1 X139.101 Y129.51 E.02149
G1 X139.83 Y129.752 E.02167
G1 X139.982 Y130.084 E.0103
G1 X139.688 Y130.794 E.02166
G1 X140.369 Y131.134 E.02148
G1 X140.388 Y131.194 E.00176
G1 X140.404 Y131.254 E.00176
G1 X140.015 Y131.909 E.02149
G1 X140.646 Y132.347 E.02167
G1 X140.698 Y132.708 E.0103
G1 X140.216 Y133.306 E.02167
G1 X140.774 Y133.825 E.02148
G1 X140.774 Y133.949 E.00352
G1 X140.216 Y134.468 E.02149
G1 X140.698 Y135.066 E.02167
G1 X140.678 Y135.248 E.00515
G1 X140.646 Y135.427 E.00515
G1 X140.015 Y135.865 E.02167
G1 X140.404 Y136.52 E.02149
G1 X140.369 Y136.64 E.00352
G1 X139.687 Y136.98 E.02149
G1 X139.982 Y137.69 E.02167
G1 X139.83 Y138.022 E.01029
G1 X139.101 Y138.264 E.02167
G1 X139.29 Y139.002 E.02149
G1 X139.258 Y139.056 E.00176
G1 X139.223 Y139.107 E.00176
G1 X138.473 Y139.242 E.02149
G1 X138.555 Y140.005 E.02167
G1 X138.316 Y140.281 E.0103
G1 X137.549 Y140.308 E.02167
G1 X137.522 Y141.07 E.02149
G1 X137.428 Y141.151 E.00352
G1 X136.67 Y141.069 E.02149
G1 X136.534 Y141.825 E.02167
G1 X136.227 Y142.023 E.01029
G1 X135.483 Y141.832 E.02167
G1 X135.243 Y142.555 E.02149
G1 X135.129 Y142.607 E.00352
G1 X134.426 Y142.315 E.02149
G1 X134.082 Y143.002 E.02167
G1 X133.732 Y143.105 E.01029
G1 X133.072 Y142.713 E.02167
G1 X132.638 Y143.339 E.02149
G1 X132.514 Y143.356 E.00352
G1 X131.921 Y142.878 E.02149
G1 X131.398 Y143.441 E.02167
G1 X131.033 Y143.441 E.01029
G1 X130.51 Y142.878 E.02167
G1 X129.917 Y143.356 E.02149
G1 X129.855 Y143.35 E.00176
G1 X129.833 Y143.346 E.00063
G1 X129.716 Y143.683 F36000
G1 F18000
G1 X129.585 Y143.664 E.00375
G1 X129.256 Y143.19 E.01628
G1 X128.754 Y143.488 E.01645
G1 X128.422 Y143.403 E.00968
G1 X128.096 Y143.294 E.00969
G1 X127.835 Y142.772 E.01645
G1 X127.302 Y142.994 E.01628
G1 X127.096 Y142.908 E.00629
G1 X126.896 Y142.808 E.00629
G1 X126.714 Y142.261 E.01628
G1 X126.149 Y142.405 E.01645
G1 X125.854 Y142.23 E.00968
G1 X125.572 Y142.034 E.00969
G1 X125.468 Y141.46 E.01645
G1 X124.895 Y141.522 E.01627
G1 X124.721 Y141.382 E.00629
G1 X124.558 Y141.23 E.00629
G1 X124.538 Y140.653 E.01628
G1 X123.955 Y140.633 E.01645
G1 X123.721 Y140.382 E.00968
G1 X123.505 Y140.114 E.00969
G1 X123.568 Y139.534 E.01645
G1 X123 Y139.432 E.01627
G1 X122.759 Y139.057 E.01258
G1 X122.902 Y138.498 E.01628
G1 X122.348 Y138.314 E.01645
G1 X122.195 Y138.007 E.00968
G1 X122.063 Y137.69 E.00969
G1 X122.286 Y137.151 E.01645
G1 X121.77 Y136.893 E.01627
G1 X121.7 Y136.681 E.00629
G1 X121.645 Y136.465 E.00629
G1 X121.94 Y135.969 E.01628
G1 X121.46 Y135.636 E.01645
G1 X121.399 Y135.299 E.00968
G1 X121.362 Y134.957 E.00969
G1 X121.729 Y134.503 E.01645
G1 X121.306 Y134.11 E.01627
G1 X121.298 Y133.887 E.00629
G1 X121.306 Y133.664 E.00629
G1 X121.729 Y133.271 E.01628
G1 X121.362 Y132.817 E.01645
G1 X121.399 Y132.476 E.00969
G1 X121.46 Y132.138 E.00969
G1 X121.94 Y131.805 E.01645
G1 X121.645 Y131.309 E.01628
G1 X121.77 Y130.881 E.01258
G1 X122.287 Y130.623 E.01628
G1 X122.063 Y130.084 E.01645
G1 X122.194 Y129.767 E.00969
G1 X122.348 Y129.46 E.00969
G1 X122.902 Y129.276 E.01645
G1 X122.759 Y128.717 E.01628
G1 X123 Y128.342 E.01258
G1 X123.568 Y128.24 E.01628
G1 X123.505 Y127.66 E.01645
G1 X123.721 Y127.392 E.00969
G1 X123.955 Y127.141 E.00969
G1 X124.538 Y127.121 E.01645
G1 X124.558 Y126.544 E.01628
G1 X124.895 Y126.252 E.01258
G1 X125.469 Y126.314 E.01628
G1 X125.572 Y125.74 E.01645
G1 X125.854 Y125.544 E.00969
G1 X126.149 Y125.369 E.00969
G1 X126.714 Y125.513 E.01645
G1 X126.896 Y124.966 E.01628
G1 X127.096 Y124.866 E.00629
G1 X127.302 Y124.78 E.00629
G1 X127.835 Y125.002 E.01628
G1 X128.096 Y124.48 E.01645
G1 X128.421 Y124.371 E.00968
G1 X128.754 Y124.286 E.00969
G1 X129.256 Y124.584 E.01645
G1 X129.585 Y124.11 E.01628
G1 X130.026 Y124.047 E.01258
G1 X130.475 Y124.409 E.01628
G1 X130.869 Y123.985 E.01633
G1 X131.559 Y123.982 E.01945
G1 X131.956 Y124.409 E.01645
G1 X132.405 Y124.047 E.01628
G1 X132.627 Y124.071 E.00629
G1 X132.847 Y124.11 E.00629
G1 X133.175 Y124.584 E.01628
G1 X133.677 Y124.286 E.01645
G1 X134.01 Y124.371 E.00968
G1 X134.336 Y124.48 E.00969
G1 X134.597 Y125.001 E.01645
G1 X135.129 Y124.78 E.01627
G1 X135.335 Y124.866 E.00629
G1 X135.535 Y124.966 E.00629
G1 X135.717 Y125.513 E.01628
G1 X136.282 Y125.369 E.01645
G1 X136.577 Y125.544 E.00969
G1 X136.859 Y125.74 E.00969
G1 X136.963 Y126.314 E.01645
G1 X137.536 Y126.252 E.01627
G1 X137.71 Y126.392 E.00629
G1 X137.873 Y126.544 E.00629
G1 X137.894 Y127.121 E.01628
G1 X138.477 Y127.141 E.01645
G1 X138.711 Y127.392 E.00969
G1 X138.926 Y127.66 E.00969
G1 X138.864 Y128.24 E.01645
G1 X139.431 Y128.342 E.01627
G1 X139.673 Y128.717 E.01258
G1 X139.53 Y129.276 E.01628
G1 X140.083 Y129.46 E.01645
G1 X140.237 Y129.767 E.00969
G1 X140.368 Y130.084 E.00969
G1 X140.145 Y130.623 E.01645
G1 X140.661 Y130.881 E.01627
G1 X140.731 Y131.093 E.00629
G1 X140.787 Y131.309 E.00629
G1 X140.492 Y131.805 E.01628
G1 X140.971 Y132.138 E.01645
G1 X141.032 Y132.476 E.00969
G1 X141.069 Y132.817 E.00969
G1 X140.703 Y133.271 E.01645
G1 X141.125 Y133.664 E.01627
G1 X141.133 Y133.887 E.00629
G1 X141.125 Y134.11 E.00629
G1 X140.703 Y134.503 E.01628
G1 X141.069 Y134.957 E.01645
G1 X141.032 Y135.298 E.00969
G1 X140.971 Y135.636 E.00969
G1 X140.492 Y135.969 E.01645
G1 X140.786 Y136.465 E.01628
G1 X140.731 Y136.681 E.00629
G1 X140.661 Y136.893 E.00629
G1 X140.145 Y137.151 E.01628
G1 X140.368 Y137.69 E.01645
G1 X140.237 Y138.007 E.00969
G1 X140.083 Y138.314 E.00969
G1 X139.53 Y138.498 E.01645
G1 X139.673 Y139.057 E.01628
G1 X139.431 Y139.432 E.01258
G1 X138.863 Y139.534 E.01628
G1 X138.926 Y140.114 E.01645
G1 X138.711 Y140.382 E.00969
G1 X138.477 Y140.633 E.00969
G1 X137.894 Y140.653 E.01645
G1 X137.873 Y141.23 E.01628
G1 X137.71 Y141.382 E.00629
G1 X137.536 Y141.522 E.00629
G1 X136.963 Y141.46 E.01628
G1 X136.859 Y142.034 E.01645
G1 X136.577 Y142.23 E.00969
G1 X136.282 Y142.405 E.00968
G1 X135.717 Y142.261 E.01645
G1 X135.535 Y142.808 E.01628
G1 X135.335 Y142.908 E.00629
G1 X135.129 Y142.994 E.00629
G1 X134.596 Y142.772 E.01628
G1 X134.336 Y143.294 E.01645
G1 X134.01 Y143.403 E.00969
G1 X133.677 Y143.488 E.00969
G1 X133.175 Y143.19 E.01645
G1 X132.847 Y143.664 E.01628
G1 X132.405 Y143.727 E.01258
G1 X131.956 Y143.365 E.01628
G1 X131.559 Y143.792 E.01645
G1 X131.216 Y143.804 E.00969
G1 X130.872 Y143.792 E.00969
G1 X130.475 Y143.365 E.01645
G1 X130.026 Y143.727 E.01628
G1 X129.756 Y143.688 E.0077
G1 X129.664 Y144.041 F36000
;TYPE:Outer wall
G1 F18000
G1 X129.376 Y143.989 E.00828
G1 X129.152 Y143.667 E.01106
G1 X128.809 Y143.87 E.01124
G1 X128.321 Y143.746 E.01422
G1 X127.843 Y143.586 E.01422
G1 X127.664 Y143.23 E.01124
G1 X127.302 Y143.38 E.01106
G1 X126.947 Y143.233 E.01083
G1 X126.604 Y143.061 E.01083
G1 X126.48 Y142.689 E.01106
G1 X126.094 Y142.788 E.01124
G1 X125.661 Y142.531 E.01422
G1 X125.247 Y142.243 E.01422
G1 X125.176 Y141.851 E.01124
G1 X124.786 Y141.893 E.01106
G1 X124.487 Y141.652 E.01083
G1 X124.206 Y141.39 E.01083
G1 X124.192 Y140.998 E.01106
G1 X123.794 Y140.984 E.01124
G1 X123.451 Y140.616 E.01422
G1 X123.134 Y140.223 E.01422
G1 X123.177 Y139.827 E.01124
G1 X122.791 Y139.757 E.01106
G1 X122.572 Y139.442 E.01083
G1 X122.376 Y139.112 E.01083
G1 X122.473 Y138.732 E.01106
G1 X122.095 Y138.606 E.01124
G1 X121.87 Y138.155 E.01422
G1 X121.677 Y137.69 E.01422
G1 X121.829 Y137.321 E.01124
G1 X121.478 Y137.146 E.01106
G1 X121.357 Y136.782 E.01083
G1 X121.262 Y136.41 E.01083
G1 X121.463 Y136.073 E.01106
G1 X121.135 Y135.845 E.01124
G1 X121.046 Y135.349 E.01422
G1 X120.992 Y134.848 E.01422
G1 X121.242 Y134.538 E.01124
G1 X120.955 Y134.271 E.01106
G1 X120.941 Y133.887 E.01083
G1 X120.955 Y133.503 E.01083
G1 X121.242 Y133.236 E.01106
G1 X120.992 Y132.926 E.01124
G1 X121.046 Y132.425 E.01422
G1 X121.135 Y131.929 E.01422
G1 X121.463 Y131.702 E.01124
G1 X121.262 Y131.364 E.01106
G1 X121.357 Y130.992 E.01083
G1 X121.478 Y130.628 E.01083
G1 X121.829 Y130.453 E.01106
G1 X121.677 Y130.085 E.01124
G1 X121.869 Y129.619 E.01422
G1 X122.095 Y129.168 E.01422
G1 X122.473 Y129.042 E.01124
G1 X122.376 Y128.662 E.01106
G1 X122.572 Y128.332 E.01083
G1 X122.791 Y128.017 E.01083
G1 X123.177 Y127.947 E.01106
G1 X123.134 Y127.551 E.01124
G1 X123.451 Y127.159 E.01422
G1 X123.794 Y126.79 E.01422
G1 X124.192 Y126.776 E.01124
G1 X124.206 Y126.384 E.01106
G1 X124.487 Y126.122 E.01083
G1 X124.786 Y125.881 E.01083
G1 X125.176 Y125.923 E.01106
G1 X125.247 Y125.531 E.01124
G1 X125.661 Y125.243 E.01422
G1 X126.094 Y124.986 E.01422
G1 X126.48 Y125.085 E.01124
G1 X126.604 Y124.713 E.01106
G1 X126.947 Y124.541 E.01083
G1 X127.302 Y124.394 E.01083
G1 X127.664 Y124.544 E.01106
G1 X127.843 Y124.188 E.01124
G1 X128.321 Y124.029 E.01422
G1 X128.809 Y123.904 E.01422
G1 X129.152 Y124.107 E.01124
G1 X129.376 Y123.785 E.01106
G1 X129.753 Y123.717 E.01083
G1 X130.135 Y123.676 E.01083
G1 X130.44 Y123.922 E.01106
G1 X130.711 Y123.631 E.0112
G1 X131.355 Y123.617 E.01819
G1 X131.719 Y123.63 E.01028
G1 X131.991 Y123.922 E.01124
G1 X132.296 Y123.676 E.01106
G1 X132.678 Y123.717 E.01083
G1 X133.056 Y123.785 E.01083
G1 X133.279 Y124.107 E.01106
G1 X133.622 Y123.904 E.01124
G1 X134.11 Y124.028 E.01422
G1 X134.589 Y124.188 E.01422
G1 X134.767 Y124.544 E.01124
G1 X135.129 Y124.394 E.01106
G1 X135.484 Y124.541 E.01083
G1 X135.827 Y124.713 E.01083
G1 X135.951 Y125.085 E.01106
G1 X136.337 Y124.986 E.01124
G1 X136.771 Y125.243 E.01422
G1 X137.185 Y125.531 E.01422
G1 X137.255 Y125.923 E.01124
G1 X137.645 Y125.881 E.01106
G1 X137.944 Y126.122 E.01083
G1 X138.225 Y126.384 E.01083
G1 X138.239 Y126.776 E.01106
G1 X138.637 Y126.79 E.01124
G1 X138.981 Y127.159 E.01422
G1 X139.297 Y127.551 E.01422
G1 X139.254 Y127.947 E.01124
G1 X139.64 Y128.017 E.01106
G1 X139.859 Y128.332 E.01083
G1 X140.055 Y128.662 E.01083
G1 X139.958 Y129.042 E.01106
G1 X140.336 Y129.168 E.01124
G1 X140.562 Y129.619 E.01422
G1 X140.755 Y130.084 E.01422
G1 X140.602 Y130.453 E.01124
G1 X140.953 Y130.628 E.01106
G1 X141.074 Y130.992 E.01083
G1 X141.169 Y131.364 E.01083
G1 X140.969 Y131.702 E.01106
G1 X141.296 Y131.929 E.01124
G1 X141.386 Y132.425 E.01422
G1 X141.44 Y132.926 E.01422
G1 X141.189 Y133.236 E.01124
G1 X141.477 Y133.503 E.01106
G1 X141.49 Y133.887 E.01083
G1 X141.477 Y134.271 E.01083
G1 X141.189 Y134.538 E.01106
G1 X141.44 Y134.848 E.01124
G1 X141.386 Y135.349 E.01422
