; HEADER_BLOCK_START
; generated by OrcaSlicer 2.2.0 on 2025-11-02 at 11:05:52
; total layer number: 1
; filament_density: 1.24
; filament_diameter: 1.75
; max_z_height: 0.20
; HEADER_BLOCK_END

; THUMBNAIL_BLOCK_START

;
; THUMBNAIL_BLOCK_END

; THUMBNAIL_BLOCK_START

;
; THUMBNAIL_BLOCK_END

; external perimeters extrusion width = 0.40mm
; perimeters extrusion width = 0.40mm
; infill extrusion width = 0.40mm
; solid infill extrusion width = 0.40mm
; top infill extrusion width = 0.40mm
; first layer extrusion width = 0.40mm

; EXECUTABLE_BLOCK_START
EXCLUDE_OBJECT_DEFINE NAME=Cube_id_0_copy_0 CENTER=125,122.5 POLYGON=[[105,102.5],[145,102.5],[145,142.5],[105,142.5],[105,102.5]]
M73 P0 R0
;TYPE:Custom
PRINT_START EXTRUDER_TEMP=245 BED_TEMP=65
G90
G21
M83 ; use relative distances for extrusion
; filament start gcode
M106 P3 S255


SET_PRESSURE_ADVANCE ADVANCE=0.02; Override pressure advance value
M106 S0
;LAYER_CHANGE
;Z:0.2
;HEIGHT:0.2
;BEFORE_LAYER_CHANGE
;0.2
G92 E0

G1 E-.5 F2100
;AFTER_LAYER_CHANGE
;0.2
;_SET_FAN_SPEED_CHANGING_LAYER
SET_VELOCITY_LIMIT ACCEL=5000
SET_VELOCITY_LIMIT SQUARE_CORNER_VELOCITY=12
; printing object Cube id:0 copy 0
EXCLUDE_OBJECT_START NAME=Cube_id_0_copy_0
G1 X144.65 Y142.15 F36000
M73 P1 R0
G1 Z.2
M73 P1 R0
G1 E.5 F2100
;TYPE:Outer wall
;WIDTH:0.4
G1 F15000
G1 X105.35 Y142.15 E1.08052
M73 P2 R0
G1 X105.35 Y102.85 E1.08052
M73 P2 R0
M73 P3 R0
G1 X144.65 Y102.85 E1.08052
M73 P3 R0
M73 P4 R0
G1 X144.65 Y142.11 E1.07942
M73 P4 R0
G1 E-.36 F2100
;WIPE_START
G1 F15000
G1 X143.65 Y142.111 E-.14
;WIPE_END
M73 P5 R0
G1 X144.543 Y103.684 F36000
M73 P5 R0
G1 E.5 F2100
;TYPE:Bottom surface
;WIDTH:0.40218
G1 F15000
G1 X143.977 Y103.118 E.02213
G1 X143.469 Y103.118 E.01405
G1 X144.382 Y104.031 E.03572
M73 P6 R0
G1 X144.382 Y104.539 E.01405
M73 P6 R0
G1 X142.961 Y103.118 E.0556
G1 X142.453 Y103.118 E.01405
G1 X144.382 Y105.047 E.07547
G1 X144.382 Y105.555 E.01405
G1 X141.945 Y103.118 E.09535
G1 X141.437 Y103.118 E.01405
G1 X144.382 Y106.063 E.11523
G1 X144.382 Y106.571 E.01405
G1 X140.929 Y103.118 E.1351
M73 P7 R0
G1 X140.421 Y103.118 E.01405
M73 P7 R0
G1 X144.382 Y107.079 E.15498
G1 X144.382 Y107.587 E.01405
G1 X139.913 Y103.118 E.17485
G1 X139.404 Y103.118 E.01405
G1 X144.382 Y108.096 E.19473
M73 P8 R0
G1 X144.382 Y108.604 E.01405
M73 P8 R0
G1 X138.896 Y103.118 E.2146
G1 X138.388 Y103.118 E.01405
G1 X144.382 Y109.112 E.23448
G1 X144.382 Y109.62 E.01405
G1 X137.88 Y103.118 E.25436
M73 P9 R0
G1 X137.372 Y103.118 E.01405
M73 P9 R0
G1 X144.382 Y110.128 E.27423
G1 X144.382 Y110.636 E.01405
G1 X136.864 Y103.118 E.29411
G1 X136.356 Y103.118 E.01405
G1 X144.382 Y111.144 E.31398
M73 P10 R0
G1 X144.382 Y111.652 E.01405
M73 P10 R0
G1 X135.848 Y103.118 E.33386
G1 X135.34 Y103.118 E.01405
G1 X144.382 Y112.16 E.35373
M73 P11 R0
G1 X144.382 Y112.668 E.01405
M73 P11 R0
G1 X134.832 Y103.118 E.37361
G1 X134.324 Y103.118 E.01405
G1 X144.382 Y113.176 E.39349
G1 X144.382 Y113.684 E.01405
G1 X133.816 Y103.118 E.41336
M73 P12 R0
G1 X133.308 Y103.118 E.01405
M73 P12 R0
G1 X144.382 Y114.192 E.43324
G1 X144.382 Y114.7 E.01405
G1 X132.8 Y103.118 E.45311
M73 P13 R0
G1 X132.291 Y103.118 E.01405
M73 P13 R0
G1 X144.382 Y115.209 E.47299
G1 X144.382 Y115.717 E.01405
G1 X131.783 Y103.118 E.49286
M73 P14 R0
G1 X131.275 Y103.118 E.01405
M73 P14 R0
G1 X144.382 Y116.225 E.51274
G1 X144.382 Y116.733 E.01405
G1 X130.767 Y103.118 E.53262
M73 P15 R0
G1 X130.259 Y103.118 E.01405
M73 P15 R0
G1 X144.382 Y117.241 E.55249
G1 X144.382 Y117.749 E.01405
G1 X129.751 Y103.118 E.57237
M73 P16 R0
G1 X129.243 Y103.118 E.01405
M73 P16 R0
G1 X144.382 Y118.257 E.59224
G1 X144.382 Y118.765 E.01405
G1 X128.735 Y103.118 E.61212
M73 P17 R0
G1 X128.227 Y103.118 E.01405
M73 P17 R0
G1 X144.382 Y119.273 E.63199
G1 X144.382 Y119.781 E.01405
G1 X127.719 Y103.118 E.65187
M73 P18 R0
G1 X127.211 Y103.118 E.01405
M73 P18 R0
G1 X144.382 Y120.289 E.67175
M73 P19 R0
G1 X144.382 Y120.797 E.01405
M73 P19 R0
G1 X126.703 Y103.118 E.69162
G1 X126.195 Y103.118 E.01405
G1 X144.382 Y121.305 E.7115
M73 P20 R0
G1 X144.382 Y121.813 E.01405
M73 P20 R0
G1 X125.687 Y103.118 E.73137
G1 X125.178 Y103.118 E.01405
G1 X144.382 Y122.322 E.75125
M73 P21 R0
G1 X144.382 Y122.83 E.01405
M73 P21 R0
G1 X124.67 Y103.118 E.77112
M73 P22 R0
G1 X124.162 Y103.118 E.01405
M73 P22 R0
G1 X144.382 Y123.338 E.791
G1 X144.382 Y123.846 E.01405
G1 X123.654 Y103.118 E.81088
M73 P23 R0
G1 X123.146 Y103.118 E.01405
M73 P23 R0
G1 X144.382 Y124.354 E.83075
M73 P24 R0
G1 X144.382 Y124.862 E.01405
M73 P24 R0
G1 X122.638 Y103.118 E.85063
G1 X122.13 Y103.118 E.01405
G1 X144.382 Y125.37 E.8705
M73 P25 R0
G1 X144.382 Y125.878 E.01405
M73 P25 R0
G1 X121.622 Y103.118 E.89038
M73 P26 R0
G1 X121.114 Y103.118 E.01405
M73 P26 R0
G1 X144.382 Y126.386 E.91025
G1 X144.382 Y126.894 E.01405
G1 X120.606 Y103.118 E.93013
M73 P27 R0
G1 X120.098 Y103.118 E.01405
M73 P27 R0
G1 X144.382 Y127.402 E.95001
M73 P28 R0
G1 X144.382 Y127.91 E.01405
M73 P28 R0
G1 X119.59 Y103.118 E.96988
G1 X119.082 Y103.118 E.01405
M73 P29 R0
G1 X144.382 Y128.418 E.98976
M73 P29 R0
G1 X144.382 Y128.926 E.01405
G1 X118.574 Y103.118 E1.00963
M73 P30 R0
G1 X118.066 Y103.118 E.01405
M73 P30 R0
G1 X144.382 Y129.434 E1.02951
M73 P31 R0
G1 X144.382 Y129.943 E.01405
M73 P31 R0
G1 X117.557 Y103.118 E1.04938
M73 P32 R0
G1 X117.049 Y103.118 E.01405
M73 P32 R0
G1 X144.382 Y130.451 E1.06926
G1 X144.382 Y130.959 E.01405
G1 X116.541 Y103.118 E1.08914
M73 P33 R0
G1 X116.033 Y103.118 E.01405
M73 P33 R0
G1 X144.382 Y131.467 E1.10901
M73 P34 R0
G1 X144.382 Y131.975 E.01405
M73 P34 R0
G1 X115.525 Y103.118 E1.12889
M73 P35 R0
G1 X115.017 Y103.118 E.01405
M73 P35 R0
G1 X144.382 Y132.483 E1.14876
M73 P36 R0
G1 X144.382 Y132.991 E.01405
M73 P36 R0
G1 X114.509 Y103.118 E1.16864
G1 X114.001 Y103.118 E.01405
G1 X144.382 Y133.499 E1.18851
M73 P37 R0
G1 X144.382 Y134.007 E.01405
M73 P37 R0
G1 X113.493 Y103.118 E1.20839
M73 P38 R0
G1 X112.985 Y103.118 E.01405
M73 P38 R0
G1 X144.382 Y134.515 E1.22827
M73 P39 R0
G1 X144.382 Y135.023 E.01405
M73 P39 R0
G1 X112.477 Y103.118 E1.24814
M73 P40 R0
G1 X111.969 Y103.118 E.01405
M73 P40 R0
G1 X144.382 Y135.531 E1.26802
M73 P41 R0
G1 X144.382 Y136.039 E.01405
M73 P41 R0
G1 X111.461 Y103.118 E1.28789
M73 P42 R0
G1 X110.953 Y103.118 E.01405
M73 P42 R0
G1 X144.382 Y136.547 E1.30777
M73 P43 R0
G1 X144.382 Y137.056 E.01405
M73 P43 R0
G1 X110.444 Y103.118 E1.32764
G1 X109.936 Y103.118 E.01405
M73 P44 R0
G1 X144.382 Y137.564 E1.34752
M73 P44 R0
G1 X144.382 Y138.072 E.01405
G1 X109.428 Y103.118 E1.3674
M73 P45 R0
G1 X108.92 Y103.118 E.01405
M73 P45 R0
G1 X144.382 Y138.58 E1.38727
M73 P46 R0
G1 X144.382 Y139.088 E.01405
M73 P46 R0
G1 X108.412 Y103.118 E1.40715
M73 P47 R0
G1 X107.904 Y103.118 E.01405
M73 P47 R0
G1 X144.382 Y139.596 E1.42702
M73 P48 R0
G1 X144.382 Y140.104 E.01405
M73 P48 R0
G1 X107.396 Y103.118 E1.4469
M73 P49 R0
G1 X106.888 Y103.118 E.01405
M73 P49 R0
G1 X144.382 Y140.612 E1.46677
M73 P50 R0
G1 X144.382 Y141.12 E.01405
M73 P50 R0
G1 X106.38 Y103.118 E1.48665
M73 P51 R0
G1 X105.872 Y103.118 E.01405
M73 P51 R0
G1 X144.382 Y141.628 E1.50653
M73 P52 R0
G1 X144.382 Y141.882 E.00703
M73 P52 R0
G1 X144.128 Y141.882 E.00703
G1 X105.618 Y103.372 E1.50652
M73 P53 R0
G1 X105.618 Y103.88 E.01405
M73 P53 R0
G1 X143.62 Y141.882 E1.48665
M73 P54 R0
G1 X143.112 Y141.882 E.01405
M73 P54 R0
G1 X105.618 Y104.388 E1.46677
M73 P55 R0
G1 X105.618 Y104.896 E.01405
M73 P55 R0
G1 X142.604 Y141.882 E1.4469
M73 P56 R0
G1 X142.096 Y141.882 E.01405
M73 P56 R0
G1 X105.618 Y105.404 E1.42702
M73 P57 R0
G1 X105.618 Y105.912 E.01405
M73 P57 R0
G1 X141.588 Y141.882 E1.40715
M73 P58 R0
G1 X141.08 Y141.882 E.01405
M73 P58 R0
G1 X105.618 Y106.42 E1.38727
M73 P59 R0
G1 X105.618 Y106.928 E.01405
M73 P59 R0
G1 X140.572 Y141.882 E1.36739
M73 P60 R0
G1 X140.064 Y141.882 E.01405
M73 P60 R0
G1 X105.618 Y107.436 E1.34752
M73 P61 R0
G1 X105.618 Y107.945 E.01405
M73 P61 R0
G1 X139.555 Y141.882 E1.32764
M73 P62 R0
G1 X139.047 Y141.882 E.01405
M73 P62 R0
G1 X105.618 Y108.453 E1.30777
M73 P63 R0
G1 X105.618 Y108.961 E.01405
M73 P63 R0
G1 X138.539 Y141.882 E1.28789
M73 P64 R0
G1 X138.031 Y141.882 E.01405
M73 P64 R0
G1 X105.618 Y109.469 E1.26802
M73 P65 R0
G1 X105.618 Y109.977 E.01405
M73 P65 R0
G1 X137.523 Y141.882 E1.24814
M73 P66 R0
G1 X137.015 Y141.882 E.01405
M73 P66 R0
G1 X105.618 Y110.485 E1.22826
G1 X105.618 Y110.993 E.01405
M73 P67 R0
G1 X136.507 Y141.882 E1.20839
M73 P67 R0
G1 X135.999 Y141.882 E.01405
G1 X105.618 Y111.501 E1.18851
M73 P68 R0
G1 X105.618 Y112.009 E.01405
M73 P68 R0
G1 X135.491 Y141.882 E1.16864
M73 P69 R0
G1 X134.983 Y141.882 E.01405
M73 P69 R0
G1 X105.618 Y112.517 E1.14876
M73 P70 R0
G1 X105.618 Y113.025 E.01405
M73 P70 R0
G1 X134.475 Y141.882 E1.12889
M73 P71 R0
G1 X133.967 Y141.882 E.01405
M73 P71 R0
G1 X105.618 Y113.533 E1.10901
G1 X105.618 Y114.041 E.01405
M73 P72 R0
G1 X133.459 Y141.882 E1.08913
M73 P72 R0
G1 X132.951 Y141.882 E.01405
G1 X105.618 Y114.549 E1.06926
M73 P73 R0
G1 X105.618 Y115.057 E.01405
M73 P73 R0
G1 X132.443 Y141.882 E1.04938
M73 P74 R0
G1 X131.934 Y141.882 E.01405
M73 P74 R0
G1 X105.618 Y115.566 E1.02951
M73 P75 R0
G1 X105.618 Y116.074 E.01405
M73 P75 R0
G1 X131.426 Y141.882 E1.00963
G1 X130.918 Y141.882 E.01405
G1 X105.618 Y116.582 E.98976
M73 P76 R0
G1 X105.618 Y117.09 E.01405
M73 P76 R0
G1 X130.41 Y141.882 E.96988
M73 P77 R0
G1 X129.902 Y141.882 E.01405
M73 P77 R0
G1 X105.618 Y117.598 E.95
M73 P78 R0
G1 X105.618 Y118.106 E.01405
M73 P78 R0
G1 X129.394 Y141.882 E.93013
G1 X128.886 Y141.882 E.01405
G1 X105.618 Y118.614 E.91025
M73 P79 R0
G1 X105.618 Y119.122 E.01405
M73 P79 R0
G1 X128.378 Y141.882 E.89038
M73 P80 R0
G1 X127.87 Y141.882 E.01405
M73 P80 R0
G1 X105.618 Y119.63 E.8705
G1 X105.618 Y120.138 E.01405
G1 X127.362 Y141.882 E.85063
M73 P81 R0
G1 X126.854 Y141.882 E.01405
M73 P81 R0
G1 X105.618 Y120.646 E.83075
M73 P82 R0
G1 X105.618 Y121.154 E.01405
M73 P82 R0
G1 X126.346 Y141.882 E.81087
G1 X125.838 Y141.882 E.01405
G1 X105.618 Y121.662 E.791
M73 P83 R0
G1 X105.618 Y122.17 E.01405
M73 P83 R0
G1 X125.33 Y141.882 E.77112
M73 P84 R0
G1 X124.821 Y141.882 E.01405
M73 P84 R0
G1 X105.618 Y122.679 E.75125
G1 X105.618 Y123.187 E.01405
G1 X124.313 Y141.882 E.73137
M73 P85 R0
G1 X123.805 Y141.882 E.01405
M73 P85 R0
G1 X105.618 Y123.695 E.7115
G1 X105.618 Y124.203 E.01405
G1 X123.297 Y141.882 E.69162
M73 P86 R0
G1 X122.789 Y141.882 E.01405
M73 P86 R0
G1 X105.618 Y124.711 E.67174
M73 P87 R0
G1 X105.618 Y125.219 E.01405
M73 P87 R0
G1 X122.281 Y141.882 E.65187
G1 X121.773 Y141.882 E.01405
G1 X105.618 Y125.727 E.63199
M73 P88 R0
G1 X105.618 Y126.235 E.01405
M73 P88 R0
G1 X121.265 Y141.882 E.61212
G1 X120.757 Y141.882 E.01405
G1 X105.618 Y126.743 E.59224
M73 P89 R0
G1 X105.618 Y127.251 E.01405
M73 P89 R0
G1 X120.249 Y141.882 E.57237
G1 X119.741 Y141.882 E.01405
G1 X105.618 Y127.759 E.55249
M73 P90 R0
G1 X105.618 Y128.267 E.01405
M73 P90 R0
G1 X119.233 Y141.882 E.53261
G1 X118.725 Y141.882 E.01405
G1 X105.618 Y128.775 E.51274
M73 P91 R0
G1 X105.618 Y129.283 E.01405
M73 P91 R0
G1 X118.217 Y141.882 E.49286
G1 X117.708 Y141.882 E.01405
G1 X105.618 Y129.792 E.47299
M73 P92 R0
G1 X105.618 Y130.3 E.01405
M73 P92 R0
G1 X117.2 Y141.882 E.45311
G1 X116.692 Y141.882 E.01405
G1 X105.618 Y130.808 E.43324
M73 P93 R0
G1 X105.618 Y131.316 E.01405
M73 P93 R0
G1 X116.184 Y141.882 E.41336
G1 X115.676 Y141.882 E.01405
G1 X105.618 Y131.824 E.39348
M73 P94 R0
G1 X105.618 Y132.332 E.01405
M73 P94 R0
G1 X115.168 Y141.882 E.37361
G1 X114.66 Y141.882 E.01405
G1 X105.618 Y132.84 E.35373
G1 X105.618 Y133.348 E.01405
G1 X114.152 Y141.882 E.33386
M73 P95 R0
G1 X113.644 Y141.882 E.01405
M73 P95 R0
G1 X105.618 Y133.856 E.31398
G1 X105.618 Y134.364 E.01405
G1 X113.136 Y141.882 E.29411
M73 P96 R0
G1 X112.628 Y141.882 E.01405
M73 P96 R0
G1 X105.618 Y134.872 E.27423
G1 X105.618 Y135.38 E.01405
G1 X112.12 Y141.882 E.25435
G1 X111.612 Y141.882 E.01405
G1 X105.618 Y135.888 E.23448
M73 P97 R0
G1 X105.618 Y136.396 E.01405
M73 P97 R0
G1 X111.104 Y141.882 E.2146
G1 X110.595 Y141.882 E.01405
G1 X105.618 Y136.905 E.19473
G1 X105.618 Y137.413 E.01405
G1 X110.087 Y141.882 E.17485
M73 P98 R0
G1 X109.579 Y141.882 E.01405
M73 P98 R0
G1 X105.618 Y137.921 E.15498
G1 X105.618 Y138.429 E.01405
G1 X109.071 Y141.882 E.1351
G1 X108.563 Y141.882 E.01405
G1 X105.618 Y138.937 E.11522
G1 X105.618 Y139.445 E.01405
G1 X108.055 Y141.882 E.09535
M73 P99 R0
G1 X107.547 Y141.882 E.01405
M73 P99 R0
G1 X105.618 Y139.953 E.07547
G1 X105.618 Y140.461 E.01405
G1 X107.039 Y141.882 E.0556
G1 X106.531 Y141.882 E.01405
G1 X105.618 Y140.969 E.03572
G1 X105.618 Y141.477 E.01405
G1 X106.184 Y142.043 E.02213
; stop printing object Cube id:0 copy 0
G1 E-.36 F2100
;WIPE_START
G1 F15000
G1 X105.618 Y141.477 E-.11201
G1 X105.618 Y141.277 E-.02799
;WIPE_END
EXCLUDE_OBJECT_END NAME=Cube_id_0_copy_0
M106 S0
;TYPE:Custom
; filament end gcode 
M106 P3 S0
PRINT_END
M73 P100 R0
; EXECUTABLE_BLOCK_END

; filament used [mm] = 122.16
; filament used [cm3] = 0.29
; filament used [g] = 0.36
; filament cost = 0.01
; total filament used [g] = 0.36
; total filament cost = 0.01
; total layers count = 1
; estimated printing time (normal mode) = 27s

; CONFIG_BLOCK_START
; accel_to_decel_enable = 0
; accel_to_decel_factor = 50%
; activate_air_filtration = 0
; activate_chamber_temp_control = 0
; adaptive_bed_mesh_margin = 0
; adaptive_pressure_advance = 0
; adaptive_pressure_advance_bridges = 0
; adaptive_pressure_advance_model = "0,0,0\n0,0,0"
; adaptive_pressure_advance_overhangs = 0
; additional_cooling_fan_speed = 70
; alternate_extra_wall = 0
; auxiliary_fan = 0
; bbl_calib_mark_logo = 1
; bbl_use_printhost = 0
; bed_custom_model = 
; bed_custom_texture = 
; bed_exclude_area = 0x0
; bed_mesh_max = 99999,99999
; bed_mesh_min = -99999,-99999
; bed_mesh_probe_distance = 50,50
; before_layer_change_gcode = ;BEFORE_LAYER_CHANGE\n;[layer_z]\nG92 E0\n
; best_object_pos = 0.5,0.5
; bottom_shell_layers = 5
; bottom_shell_thickness = 0
; bottom_solid_infill_flow_ratio = 1
; bottom_surface_pattern = monotonic
; bridge_acceleration = 50%
; bridge_angle = 0
; bridge_density = 100%
; bridge_flow = 1
; bridge_no_support = 0
; bridge_speed = 100
; brim_ears_detection_length = 1
; brim_ears_max_angle = 125
; brim_object_gap = 0.1
; brim_type = auto_brim
; brim_width = 5
; chamber_temperature = 0
; change_extrusion_role_gcode = 
; change_filament_gcode = 
; close_fan_the_first_x_layers = 2
; complete_print_exhaust_fan_speed = 70
; cool_plate_temp = 35
; cool_plate_temp_initial_layer = 35
; cooling_tube_length = 5
; cooling_tube_retraction = 91.5
; counterbore_hole_bridging = none
; curr_bed_type = High Temp Plate
; default_acceleration = 30000
; default_filament_colour = ""
; default_filament_profile = "Voron Generic ABS"
; default_jerk = 12
; default_print_profile = 0.20mm Standard @Voron
; deretraction_speed = 35
; detect_narrow_internal_solid_infill = 1
; detect_overhang_wall = 1
; detect_thin_wall = 0
; different_settings_to_system = accel_to_decel_enable;bottom_shell_layers;bridge_speed;default_acceleration;default_jerk;enable_arc_fitting;exclude_object;gap_infill_speed;infill_jerk;initial_layer_acceleration;initial_layer_infill_speed;initial_layer_jerk;initial_layer_speed;inner_wall_acceleration;inner_wall_jerk;inner_wall_speed;internal_solid_infill_speed;outer_wall_acceleration;outer_wall_jerk;outer_wall_speed;overhang_2_4_speed;overhang_3_4_speed;overhang_4_4_speed;reduce_crossing_wall;sparse_infill_density;sparse_infill_pattern;sparse_infill_speed;top_surface_acceleration;top_surface_jerk;top_surface_speed;travel_acceleration;travel_speed;wall_loops;close_fan_the_first_x_layers;dont_slow_down_outer_wall;enable_pressure_advance;fan_max_speed;fan_min_speed;filament_flow_ratio;filament_max_volumetric_speed;filament_type;filament_vendor;hot_plate_temp;hot_plate_temp_initial_layer;nozzle_temperature;nozzle_temperature_initial_layer;overhang_fan_speed;
; disable_m73 = 0
; dont_filter_internal_bridges = disabled
; dont_slow_down_outer_wall = 1
; draft_shield = disabled
; during_print_exhaust_fan_speed = 70
