; HEADER_BLOCK_START
; generated by OrcaSlicer 2.2.0 on 2025-11-04 at 10:45:59
; total layer number: 4
; filament_density: 1.24
; filament_diameter: 1.75
; max_z_height: 0.85
; HEADER_BLOCK_END

; THUMBNAIL_BLOCK_START

;
; THUMBNAIL_BLOCK_END

; THUMBNAIL_BLOCK_START

;
; THUMBNAIL_BLOCK_END

; external perimeters extrusion width = 0.40mm
; perimeters extrusion width = 0.40mm
; infill extrusion width = 0.40mm
; solid infill extrusion width = 0.40mm
; top infill extrusion width = 0.40mm
; first layer extrusion width = 0.56mm

; EXECUTABLE_BLOCK_START
EXCLUDE_OBJECT_DEFINE NAME=Orca-PA-Calibration-Test CENTER=0,0 POLYGON=[[25,25],[225,25],[225,220],[25,220],[25,25]]
M73 P0 R5
;TYPE:Custom
PRINT_START EXTRUDER_TEMP=245 BED_TEMP=65
G90
G21
M83 ; use relative distances for extrusion
; filament start gcode
M106 P3 S255


SET_PRESSURE_ADVANCE ADVANCE=0.038; Override pressure advance value
M106 S0
;LAYER_CHANGE
;Z:0.25
;HEIGHT:0.25
;BEFORE_LAYER_CHANGE
;0.25
G92 E0

;AFTER_LAYER_CHANGE
;0.25
;_SET_FAN_SPEED_CHANGING_LAYER
SET_VELOCITY_LIMIT ACCEL=7500
SET_VELOCITY_LIMIT SQUARE_CORNER_VELOCITY=12
;CUSTOM_GCODE
; start pressure advance pattern for layer
G1 E-.5 F2100
G1 X80.461 Y95.507 F36000
G1 E.5 F2100
G1 Z.25 F36000
SET_PRESSURE_ADVANCE ADVANCE=0; Override pressure advance value
G1 E-.5 F2100
G1 X80.461 Y95.507 F36000
G1 E.5 F2100
G1 F1800
G1 X80.461 Y137.933 E2.06762

G1 X164.539 Y137.933 E4.09752

M73 P1 R5
G1 X164.539 Y95.507 E2.06762
M73 P1 R5

M73 P1 R4
G1 X80.461 Y95.507 E4.09752
M73 P1 R4
M73 P2 R4
G1 E-.5 F2100
M73 P2 R4
G1 X80.967 Y96.013 F36000
G1 E.5 F2100
G1 F1800
G1 X80.967 Y137.427 E2.01827

M73 P3 R4
G1 X164.033 Y137.427 E4.04817
M73 P3 R4

M73 P4 R4
G1 X164.033 Y96.013 E2.01827
M73 P4 R4

G1 X80.967 Y96.013 E4.04817
M73 P5 R4
G1 E-.5 F2100
M73 P5 R4
G1 X81.473 Y96.519 F36000
G1 E.5 F2100
G1 F1800
G1 X81.473 Y136.921 E1.96892

M73 P6 R4
G1 X163.527 Y136.921 E3.99882
M73 P6 R4

M73 P7 R4
G1 X163.527 Y96.519 E1.96892
M73 P7 R4

G1 X81.473 Y96.519 E3.99882
M73 P8 R4
G1 E-.5 F2100
M73 P8 R4
G1 X80.461 Y138.44 F36000
G1 E.5 F2100
G1 F1800
G1 X80.461 Y154.946 E.80443

G1 X164.539 Y154.946 E4.09752

M73 P9 R4
G1 X164.539 Y138.44 E.80443
M73 P9 R4

G1 X80.461 Y138.44 E4.09752
M73 P10 R4
G1 E-.5 F2100
M73 P10 R4
G1 X80.967 Y138.946 F36000
G1 E.5 F2100
G1 F1800
G1 X80.967 Y154.44 E.75507

G1 X164.033 Y154.44 E4.04817

M73 P11 R4
G1 X164.033 Y138.946 E.75507
M73 P11 R4

G1 X80.967 Y138.946 E4.04817
M73 P12 R4
G1 E-.5 F2100
M73 P12 R4
G1 X81.473 Y139.452 F36000
G1 E.5 F2100
G1 F1800
G1 X81.473 Y153.933 E.70572

G1 X163.527 Y153.933 E3.99882

M73 P13 R4
G1 X163.527 Y139.452 E.70572
M73 P13 R4

M73 P14 R4
G1 X81.473 Y139.452 E3.99882
M73 P14 R4
G1 E-.5 F2100
G1 X81.847 Y139.826 F36000
G1 E.5 F2100
G1 E-.5
G1 X82.563 Y139.826 F36000
G1 E.5 F2100
G1 F1800
G1 X81.847 Y140.542 E.04935
G1 E-.5 F2100
G1 X81.847 Y141.258 F36000
G1 E.5 F2100
G1 F1800
G1 X83.279 Y139.826 E.09871
M73 P15 R4
G1 E-.5 F2100
M73 P15 R4
G1 X83.995 Y139.826 F36000
G1 E.5 F2100
G1 F1800
G1 X81.847 Y141.974 E.14806
G1 E-.5 F2100
G1 X81.847 Y142.69 F36000
G1 E.5 F2100
G1 F1800
G1 X84.711 Y139.826 E.19741
G1 E-.5 F2100
G1 X85.427 Y139.826 F36000
G1 E.5 F2100
G1 F1800
G1 X81.847 Y143.406 E.24677
G1 E-.5 F2100
G1 X81.847 Y144.122 F36000
G1 E.5 F2100
G1 F1800
G1 X86.143 Y139.826 E.29612
G1 E-.5 F2100
G1 X86.859 Y139.826 F36000
G1 E.5 F2100
G1 F1800
G1 X81.847 Y144.838 E.34547
G1 E-.5 F2100
G1 X81.847 Y145.554 F36000
G1 E.5 F2100
G1 F1800
G1 X87.575 Y139.826 E.39483
G1 E-.5 F2100
G1 X88.291 Y139.826 F36000
G1 E.5 F2100
G1 F1800
G1 X81.847 Y146.27 E.44418
G1 E-.5 F2100
G1 X81.847 Y146.986 F36000
G1 E.5 F2100
G1 F1800
G1 X89.008 Y139.826 E.49353
G1 E-.5 F2100
G1 X89.724 Y139.826 F36000
G1 E.5 F2100
G1 F1800
G1 X81.847 Y147.703 E.54289
G1 E-.5 F2100
G1 X81.847 Y148.419 F36000
G1 E.5 F2100
G1 F1800
G1 X90.44 Y139.826 E.59224
M73 P16 R4
G1 E-.5 F2100
M73 P16 R4
G1 X91.156 Y139.826 F36000
G1 E.5 F2100
G1 F1800
G1 X81.847 Y149.135 E.64159
G1 E-.5 F2100
G1 X81.847 Y149.851 F36000
G1 E.5 F2100
G1 F1800
G1 X91.872 Y139.826 E.69095
G1 E-.5 F2100
G1 X92.588 Y139.826 F36000
G1 E.5 F2100
G1 F1800
G1 X81.847 Y150.567 E.7403
G1 E-.5 F2100
G1 X81.847 Y151.283 F36000
G1 E.5 F2100
G1 F1800
G1 X93.304 Y139.826 E.78965
G1 E-.5 F2100
G1 X94.02 Y139.826 F36000
G1 E.5 F2100
G1 F1800
G1 X81.847 Y151.999 E.83901
G1 E-.5 F2100
G1 X81.847 Y152.715 F36000
M73 P17 R4
G1 E.5 F2100
M73 P17 R4
G1 F1800
G1 X94.736 Y139.826 E.88836
G1 E-.5 F2100
G1 X95.452 Y139.826 F36000
G1 E.5 F2100
G1 F1800
G1 X81.847 Y153.431 E.93771
G1 E-.5 F2100
G1 X82.434 Y153.56 F36000
G1 E.5 F2100
G1 F1800
G1 X96.168 Y139.826 E.94658
G1 E-.5 F2100
G1 X96.885 Y139.826 F36000
G1 E.5 F2100
G1 F1800
G1 X83.15 Y153.56 E.94658
G1 E-.5 F2100
G1 X83.866 Y153.56 F36000
G1 E.5 F2100
G1 F1800
G1 X97.601 Y139.826 E.94658
M73 P18 R4
G1 E-.5 F2100
M73 P18 R4
G1 X98.317 Y139.826 F36000
G1 E.5 F2100
G1 F1800
G1 X84.582 Y153.56 E.94658
G1 E-.5 F2100
G1 X85.298 Y153.56 F36000
G1 E.5 F2100
G1 F1800
G1 X99.033 Y139.826 E.94658
G1 E-.5 F2100
G1 X99.749 Y139.826 F36000
G1 E.5 F2100
G1 F1800
G1 X86.015 Y153.56 E.94658
G1 E-.5 F2100
G1 X86.731 Y153.56 F36000
G1 E.5 F2100
G1 F1800
G1 X100.465 Y139.826 E.94658
M73 P19 R4
G1 E-.5 F2100
M73 P19 R4
G1 X101.181 Y139.826 F36000
G1 E.5 F2100
G1 F1800
G1 X87.447 Y153.56 E.94658
G1 E-.5 F2100
G1 X88.163 Y153.56 F36000
G1 E.5 F2100
G1 F1800
G1 X101.897 Y139.826 E.94658
G1 E-.5 F2100
G1 X102.613 Y139.826 F36000
G1 E.5 F2100
G1 F1800
G1 X88.879 Y153.56 E.94658
G1 E-.5 F2100
G1 X89.595 Y153.56 F36000
G1 E.5 F2100
G1 F1800
G1 X103.329 Y139.826 E.94658
M73 P20 R4
G1 E-.5 F2100
M73 P20 R4
G1 X104.045 Y139.826 F36000
G1 E.5 F2100
G1 F1800
G1 X90.311 Y153.56 E.94658
G1 E-.5 F2100
G1 X91.027 Y153.56 F36000
G1 E.5 F2100
G1 F1800
G1 X104.761 Y139.826 E.94658
G1 E-.5 F2100
G1 X105.478 Y139.826 F36000
G1 E.5 F2100
G1 F1800
G1 X91.743 Y153.56 E.94658
G1 E-.5 F2100
G1 X92.459 Y153.56 F36000
G1 E.5 F2100
G1 F1800
G1 X106.194 Y139.826 E.94658
G1 E-.5 F2100
G1 X106.91 Y139.826 F36000
G1 E.5 F2100
G1 F1800
G1 X93.175 Y153.56 E.94658
M73 P21 R4
G1 E-.5 F2100
M73 P21 R4
G1 X93.892 Y153.56 F36000
G1 E.5 F2100
G1 F1800
G1 X107.626 Y139.826 E.94658
G1 E-.5 F2100
G1 X108.342 Y139.826 F36000
G1 E.5 F2100
G1 F1800
G1 X94.608 Y153.56 E.94658
M73 P21 R3
G1 E-.5 F2100
M73 P21 R3
G1 X95.324 Y153.56 F36000
G1 E.5 F2100
G1 F1800
G1 X109.058 Y139.826 E.94658
G1 E-.5 F2100
G1 X109.774 Y139.826 F36000
G1 E.5 F2100
G1 F1800
G1 X96.04 Y153.56 E.94658
M73 P22 R3
G1 E-.5 F2100
M73 P22 R3
G1 X96.756 Y153.56 F36000
G1 E.5 F2100
G1 F1800
G1 X110.49 Y139.826 E.94658
G1 E-.5 F2100
G1 X111.206 Y139.826 F36000
G1 E.5 F2100
G1 F1800
G1 X97.472 Y153.56 E.94658
G1 E-.5 F2100
G1 X98.188 Y153.56 F36000
G1 E.5 F2100
G1 F1800
G1 X111.922 Y139.826 E.94658
G1 E-.5 F2100
G1 X112.638 Y139.826 F36000
G1 E.5 F2100
G1 F1800
G1 X98.904 Y153.56 E.94658
M73 P23 R3
G1 E-.5 F2100
M73 P23 R3
G1 X99.62 Y153.56 F36000
G1 E.5 F2100
G1 F1800
G1 X113.354 Y139.826 E.94658
G1 E-.5 F2100
G1 X114.071 Y139.826 F36000
G1 E.5 F2100
G1 F1800
G1 X100.336 Y153.56 E.94658
G1 E-.5 F2100
G1 X101.052 Y153.56 F36000
G1 E.5 F2100
G1 F1800
G1 X114.787 Y139.826 E.94658
G1 E-.5 F2100
G1 X115.503 Y139.826 F36000
G1 E.5 F2100
G1 F1800
G1 X101.768 Y153.56 E.94658
M73 P24 R3
G1 E-.5 F2100
M73 P24 R3
G1 X102.485 Y153.56 F36000
G1 E.5 F2100
G1 F1800
G1 X116.219 Y139.826 E.94658
G1 E-.5 F2100
G1 X116.935 Y139.826 F36000
G1 E.5 F2100
G1 F1800
G1 X103.201 Y153.56 E.94658
G1 E-.5 F2100
G1 X103.917 Y153.56 F36000
G1 E.5 F2100
G1 F1800
G1 X117.651 Y139.826 E.94658
G1 E-.5 F2100
G1 X118.367 Y139.826 F36000
G1 E.5 F2100
G1 F1800
G1 X104.633 Y153.56 E.94658
G1 E-.5 F2100
G1 X105.349 Y153.56 F36000
G1 E.5 F2100
G1 F1800
G1 X119.083 Y139.826 E.94658
M73 P25 R3
G1 E-.5 F2100
M73 P25 R3
G1 X119.799 Y139.826 F36000
G1 E.5 F2100
G1 F1800
G1 X106.065 Y153.56 E.94658
G1 E-.5 F2100
G1 X106.781 Y153.56 F36000
G1 E.5 F2100
G1 F1800
G1 X120.515 Y139.826 E.94658
G1 E-.5 F2100
G1 X121.231 Y139.826 F36000
G1 E.5 F2100
G1 F1800
G1 X107.497 Y153.56 E.94658
G1 E-.5 F2100
G1 X108.213 Y153.56 F36000
G1 E.5 F2100
G1 F1800
G1 X121.948 Y139.826 E.94658
M73 P26 R3
G1 E-.5 F2100
M73 P26 R3
G1 X122.664 Y139.826 F36000
G1 E.5 F2100
G1 F1800
G1 X108.929 Y153.56 E.94658
G1 E-.5 F2100
G1 X109.645 Y153.56 F36000
G1 E.5 F2100
G1 F1800
G1 X123.38 Y139.826 E.94658
G1 E-.5 F2100
G1 X124.096 Y139.826 F36000
G1 E.5 F2100
G1 F1800
G1 X110.362 Y153.56 E.94658
G1 E-.5 F2100
G1 X111.078 Y153.56 F36000
G1 E.5 F2100
G1 F1800
G1 X124.812 Y139.826 E.94658
M73 P27 R3
G1 E-.5 F2100
M73 P27 R3
G1 X125.528 Y139.826 F36000
G1 E.5 F2100
G1 F1800
G1 X111.794 Y153.56 E.94658
G1 E-.5 F2100
G1 X112.51 Y153.56 F36000
G1 E.5 F2100
G1 F1800
G1 X126.244 Y139.826 E.94658
G1 E-.5 F2100
G1 X126.96 Y139.826 F36000
G1 E.5 F2100
G1 F1800
G1 X113.226 Y153.56 E.94658
G1 E-.5 F2100
G1 X113.942 Y153.56 F36000
G1 E.5 F2100
G1 F1800
G1 X127.676 Y139.826 E.94658
G1 E-.5 F2100
G1 X128.392 Y139.826 F36000
G1 E.5 F2100
M73 P28 R3
G1 F1800
M73 P28 R3
G1 X114.658 Y153.56 E.94658
G1 E-.5 F2100
G1 X115.374 Y153.56 F36000
G1 E.5 F2100
G1 F1800
G1 X129.108 Y139.826 E.94658
G1 E-.5 F2100
G1 X129.824 Y139.826 F36000
G1 E.5 F2100
G1 F1800
G1 X116.09 Y153.56 E.94658
G1 E-.5 F2100
G1 X116.806 Y153.56 F36000
G1 E.5 F2100
G1 F1800
G1 X130.541 Y139.826 E.94658
G1 E-.5 F2100
G1 X131.257 Y139.826 F36000
G1 E.5 F2100
G1 F1800
G1 X117.522 Y153.56 E.94658
M73 P29 R3
G1 E-.5 F2100
M73 P29 R3
G1 X118.238 Y153.56 F36000
G1 E.5 F2100
G1 F1800
G1 X131.973 Y139.826 E.94658
G1 E-.5 F2100
G1 X132.689 Y139.826 F36000
G1 E.5 F2100
G1 F1800
G1 X118.955 Y153.56 E.94658
G1 E-.5 F2100
G1 X119.671 Y153.56 F36000
G1 E.5 F2100
G1 F1800
G1 X133.405 Y139.826 E.94658
G1 E-.5 F2100
G1 X134.121 Y139.826 F36000
G1 E.5 F2100
G1 F1800
G1 X120.387 Y153.56 E.94658
M73 P30 R3
G1 E-.5 F2100
M73 P30 R3
G1 X121.103 Y153.56 F36000
G1 E.5 F2100
G1 F1800
G1 X134.837 Y139.826 E.94658
G1 E-.5 F2100
G1 X135.553 Y139.826 F36000
G1 E.5 F2100
G1 F1800
G1 X121.819 Y153.56 E.94658
G1 E-.5 F2100
G1 X122.535 Y153.56 F36000
G1 E.5 F2100
G1 F1800
G1 X136.269 Y139.826 E.94658
G1 E-.5 F2100
G1 X136.985 Y139.826 F36000
G1 E.5 F2100
G1 F1800
G1 X123.251 Y153.56 E.94658
M73 P31 R3
G1 E-.5 F2100
M73 P31 R3
G1 X123.967 Y153.56 F36000
G1 E.5 F2100
G1 F1800
G1 X137.701 Y139.826 E.94658
G1 E-.5 F2100
G1 X138.418 Y139.826 F36000
G1 E.5 F2100
G1 F1800
G1 X124.683 Y153.56 E.94658
G1 E-.5 F2100
G1 X125.399 Y153.56 F36000
G1 E.5 F2100
G1 F1800
G1 X139.134 Y139.826 E.94658
G1 E-.5 F2100
G1 X139.85 Y139.826 F36000
G1 E.5 F2100
G1 F1800
G1 X126.115 Y153.56 E.94658
G1 E-.5 F2100
G1 X126.831 Y153.56 F36000
G1 E.5 F2100
G1 F1800
G1 X140.566 Y139.826 E.94658
M73 P32 R3
G1 E-.5 F2100
M73 P32 R3
G1 X141.282 Y139.826 F36000
G1 E.5 F2100
G1 F1800
G1 X127.548 Y153.56 E.94658
G1 E-.5 F2100
G1 X128.264 Y153.56 F36000
G1 E.5 F2100
G1 F1800
G1 X141.998 Y139.826 E.94658
G1 E-.5 F2100
G1 X142.714 Y139.826 F36000
G1 E.5 F2100
G1 F1800
G1 X128.98 Y153.56 E.94658
G1 E-.5 F2100
G1 X129.696 Y153.56 F36000
G1 E.5 F2100
G1 F1800
G1 X143.43 Y139.826 E.94658
M73 P33 R3
G1 E-.5 F2100
M73 P33 R3
G1 X144.146 Y139.826 F36000
G1 E.5 F2100
G1 F1800
G1 X130.412 Y153.56 E.94658
G1 E-.5 F2100
G1 X131.128 Y153.56 F36000
G1 E.5 F2100
G1 F1800
G1 X144.862 Y139.826 E.94658
G1 E-.5 F2100
G1 X145.578 Y139.826 F36000
G1 E.5 F2100
G1 F1800
G1 X131.844 Y153.56 E.94658
G1 E-.5 F2100
G1 X132.56 Y153.56 F36000
G1 E.5 F2100
G1 F1800
G1 X146.294 Y139.826 E.94658
M73 P34 R3
G1 E-.5 F2100
M73 P34 R3
G1 X147.011 Y139.826 F36000
G1 E.5 F2100
G1 F1800
G1 X133.276 Y153.56 E.94658
G1 E-.5 F2100
G1 X133.992 Y153.56 F36000
G1 E.5 F2100
G1 F1800
G1 X147.727 Y139.826 E.94658
G1 E-.5 F2100
G1 X148.443 Y139.826 F36000
G1 E.5 F2100
G1 F1800
G1 X134.708 Y153.56 E.94658
G1 E-.5 F2100
G1 X135.425 Y153.56 F36000
G1 E.5 F2100
G1 F1800
G1 X149.159 Y139.826 E.94658
M73 P35 R3
G1 E-.5 F2100
M73 P35 R3
G1 X149.875 Y139.826 F36000
G1 E.5 F2100
G1 F1800
G1 X136.141 Y153.56 E.94658
G1 E-.5 F2100
G1 X136.857 Y153.56 F36000
G1 E.5 F2100
G1 F1800
G1 X150.591 Y139.826 E.94658
G1 E-.5 F2100
G1 X151.307 Y139.826 F36000
G1 E.5 F2100
G1 F1800
G1 X137.573 Y153.56 E.94658
G1 E-.5 F2100
G1 X138.289 Y153.56 F36000
G1 E.5 F2100
G1 F1800
G1 X152.023 Y139.826 E.94658
G1 E-.5 F2100
G1 X152.739 Y139.826 F36000
G1 E.5 F2100
G1 F1800
G1 X139.005 Y153.56 E.94658
M73 P36 R3
G1 E-.5 F2100
M73 P36 R3
G1 X139.721 Y153.56 F36000
G1 E.5 F2100
G1 F1800
G1 X153.455 Y139.826 E.94658
G1 E-.5 F2100
G1 X154.171 Y139.826 F36000
G1 E.5 F2100
G1 F1800
G1 X140.437 Y153.56 E.94658
G1 E-.5 F2100
G1 X141.153 Y153.56 F36000
G1 E.5 F2100
G1 F1800
G1 X154.888 Y139.826 E.94658
G1 E-.5 F2100
G1 X155.604 Y139.826 F36000
G1 E.5 F2100
G1 F1800
G1 X141.869 Y153.56 E.94658
M73 P37 R3
G1 E-.5 F2100
M73 P37 R3
G1 X142.585 Y153.56 F36000
G1 E.5 F2100
G1 F1800
G1 X156.32 Y139.826 E.94658
G1 E-.5 F2100
G1 X157.036 Y139.826 F36000
G1 E.5 F2100
G1 F1800
G1 X143.301 Y153.56 E.94658
G1 E-.5 F2100
G1 X144.018 Y153.56 F36000
G1 E.5 F2100
G1 F1800
G1 X157.752 Y139.826 E.94658
G1 E-.5 F2100
G1 X158.468 Y139.826 F36000
G1 E.5 F2100
G1 F1800
G1 X144.734 Y153.56 E.94658
M73 P38 R3
G1 E-.5 F2100
M73 P38 R3
G1 X145.45 Y153.56 F36000
G1 E.5 F2100
G1 F1800
G1 X159.184 Y139.826 E.94658
G1 E-.5 F2100
G1 X159.9 Y139.826 F36000
G1 E.5 F2100
G1 F1800
G1 X146.166 Y153.56 E.94658
G1 E-.5 F2100
G1 X146.882 Y153.56 F36000
G1 E.5 F2100
G1 F1800
G1 X160.616 Y139.826 E.94658
G1 E-.5 F2100
G1 X161.332 Y139.826 F36000
G1 E.5 F2100
G1 F1800
G1 X147.598 Y153.56 E.94658
G1 E-.5 F2100
G1 X148.314 Y153.56 F36000
G1 E.5 F2100
M73 P39 R3
G1 F1800
M73 P39 R3
G1 X162.048 Y139.826 E.94658
G1 E-.5 F2100
G1 X162.764 Y139.826 F36000
G1 E.5 F2100
G1 F1800
G1 X149.03 Y153.56 E.94658
G1 E-.5 F2100
G1 X149.746 Y153.56 F36000
G1 E.5 F2100
G1 F1800
G1 X163.153 Y140.153 E.92402
G1 E-.5 F2100
G1 X163.153 Y140.869 F36000
G1 E.5 F2100
G1 F1800
G1 X150.462 Y153.56 E.87467
G1 E-.5 F2100
G1 X151.178 Y153.56 F36000
G1 E.5 F2100
G1 F1800
G1 X163.153 Y141.585 E.82532
M73 P40 R3
G1 E-.5 F2100
M73 P40 R3
G1 X163.153 Y142.301 F36000
G1 E.5 F2100
G1 F1800
G1 X151.895 Y153.56 E.77596
G1 E-.5 F2100
G1 X152.611 Y153.56 F36000
G1 E.5 F2100
G1 F1800
G1 X163.153 Y143.017 E.72661
G1 E-.5 F2100
G1 X163.153 Y143.733 F36000
G1 E.5 F2100
G1 F1800
G1 X153.327 Y153.56 E.67726
G1 E-.5 F2100
G1 X154.043 Y153.56 F36000
G1 E.5 F2100
G1 F1800
G1 X163.153 Y144.449 E.6279
G1 E-.5 F2100
G1 X163.153 Y145.165 F36000
G1 E.5 F2100
G1 F1800
G1 X154.759 Y153.56 E.57855
G1 E-.5 F2100
G1 X155.475 Y153.56 F36000
G1 E.5 F2100
G1 F1800
G1 X163.153 Y145.882 E.5292
M73 P41 R3
G1 E-.5 F2100
M73 P41 R3
G1 X163.153 Y146.598 F36000
G1 E.5 F2100
G1 F1800
G1 X156.191 Y153.56 E.47984
M73 P41 R2
G1 E-.5 F2100
M73 P41 R2
G1 X156.907 Y153.56 F36000
G1 E.5 F2100
G1 F1800
G1 X163.153 Y147.314 E.43049
G1 E-.5 F2100
G1 X163.153 Y148.03 F36000
G1 E.5 F2100
G1 F1800
G1 X157.623 Y153.56 E.38114
G1 E-.5 F2100
G1 X158.339 Y153.56 F36000
G1 E.5 F2100
G1 F1800
G1 X163.153 Y148.746 E.33179
G1 E-.5 F2100
G1 X163.153 Y149.462 F36000
G1 E.5 F2100
G1 F1800
G1 X159.055 Y153.56 E.28243
G1 E-.5 F2100
G1 X159.771 Y153.56 F36000
G1 E.5 F2100
G1 F1800
G1 X163.153 Y150.178 E.23308
G1 E-.5 F2100
G1 X163.153 Y150.894 F36000
G1 E.5 F2100
G1 F1800
G1 X160.488 Y153.56 E.18373
G1 E-.5 F2100
G1 X161.204 Y153.56 F36000
G1 E.5 F2100
G1 F1800
G1 X163.153 Y151.61 E.13437
G1 E-.5 F2100
G1 X163.153 Y152.326 F36000
G1 E.5 F2100
G1 F1800
G1 X161.92 Y153.56 E.08502
G1 E-.5 F2100
G1 X162.636 Y153.56 F36000
G1 E.5 F2100
G1 F1800
G1 X163.153 Y153.042 E.03567
G1 E-.5 F2100
G1 X84.419 Y96.893 F36000
M73 P42 R2
G1 E.5 F2100
M73 P42 R2
SET_PRESSURE_ADVANCE ADVANCE=0; Override pressure advance value
G1 F1800
G1 X104.247 Y116.72 E1.06964

G1 X84.419 Y136.547 E1.06964
G1 E-.5 F2100
G1 X84.995 Y96.893 F36000
G1 E.5 F2100
G1 F1800
G1 X104.822 Y116.72 E1.06964

G1 X84.995 Y136.547 E1.06964
M73 P43 R2
G1 E-.5 F2100
M73 P43 R2
G1 X85.571 Y96.893 F36000
G1 E.5 F2100
G1 F1800
G1 X105.398 Y116.72 E1.06964

G1 X85.571 Y136.547 E1.06964
G1 E-.5 F2100
G1 X88.021 Y96.893 F36000
M73 P44 R2
G1 E.5 F2100
M73 P44 R2
