; HEADER_BLOCK_START
; generated by OrcaSlicer 2.2.0 on 2025-12-08 at 17:53:27
; total layer number: 1
; filament_density: 1.04
; filament_diameter: 1.75
; max_z_height: 0.20
; HEADER_BLOCK_END

; THUMBNAIL_BLOCK_START

;
; THUMBNAIL_BLOCK_END

; external perimeters extrusion width = 0.40mm
; perimeters extrusion width = 0.40mm
; infill extrusion width = 0.40mm
; solid infill extrusion width = 0.40mm
; top infill extrusion width = 0.40mm
; support material extrusion width = 0.40mm
; first layer extrusion width = 0.40mm

; EXECUTABLE_BLOCK_START
EXCLUDE_OBJECT_DEFINE NAME=Cube_id_0_copy_0 CENTER=125,122.5 POLYGON=[[4,1.5],[246,1.5],[246,243.5],[4,243.5],[4,1.5]]
M73 P0 R12
;TYPE:Custom
PRINT_START EXTRUDER_TEMP=270 BED_TEMP=110
G90
G21
M83 ; use relative distances for extrusion
; Filament gcode
SET_PRESSURE_ADVANCE ADVANCE=0.01; Override pressure advance value
M106 S0
;LAYER_CHANGE
;Z:0.2
;HEIGHT:0.2
;BEFORE_LAYER_CHANGE
;0.2
G92 E0

G1 E-.5 F2100
;AFTER_LAYER_CHANGE
;0.2
;_SET_FAN_SPEED_CHANGING_LAYER
SET_VELOCITY_LIMIT ACCEL=10000
SET_VELOCITY_LIMIT SQUARE_CORNER_VELOCITY=10
; printing object Cube id:0 copy 0
EXCLUDE_OBJECT_START NAME=Cube_id_0_copy_0
G1 X245.65 Y243.15 F36000
G1 Z.2
G1 E.5 F2100
;TYPE:Outer wall
;WIDTH:0.4
G1 F13500
G1 X4.35 Y243.15 E6.80628
G1 X4.35 Y1.85 E6.80628
G1 X245.65 Y1.85 E6.80628
G1 X245.65 Y243.11 E6.80516
G1 E-.35 F2100
;WIPE_START
G1 F13500
G1 X244.65 Y243.11 E-.15
;WIPE_END
G1 X245.543 Y2.68 F36000
G1 E.5 F2100
;TYPE:Bottom surface
;WIDTH:0.400359
G1 F13500
G1 X244.981 Y2.118 E.02244
G1 X244.475 Y2.118 E.01427
G1 X245.382 Y3.025 E.03621
G1 X245.382 Y3.53 E.01427
G1 X243.97 Y2.118 E.05639
G1 X243.464 Y2.118 E.01427
G1 X245.382 Y4.036 E.07658
G1 X245.382 Y4.541 E.01427
G1 X242.959 Y2.118 E.09676
G1 X242.453 Y2.118 E.01427
G1 X245.382 Y5.047 E.11694
G1 X245.382 Y5.552 E.01427
G1 X241.948 Y2.118 E.13713
G1 X241.442 Y2.118 E.01427
G1 X245.382 Y6.058 E.15731
G1 X245.382 Y6.563 E.01427
G1 X240.937 Y2.118 E.1775
G1 X240.432 Y2.118 E.01427
G1 X245.382 Y7.068 E.19768
G1 X245.382 Y7.574 E.01427
G1 X239.926 Y2.118 E.21787
G1 X239.421 Y2.118 E.01427
G1 X245.382 Y8.079 E.23805
G1 X245.382 Y8.585 E.01427
G1 X238.915 Y2.118 E.25824
G1 X238.41 Y2.118 E.01427
G1 X245.382 Y9.09 E.27842
G1 X245.382 Y9.596 E.01427
G1 X237.904 Y2.118 E.29861
G1 X237.399 Y2.118 E.01427
G1 X245.382 Y10.101 E.31879
G1 X245.382 Y10.607 E.01427
G1 X236.893 Y2.118 E.33898
G1 X236.388 Y2.118 E.01427
G1 X245.382 Y11.112 E.35916
G1 X245.382 Y11.618 E.01427
G1 X235.882 Y2.118 E.37935
G1 X235.377 Y2.118 E.01427
G1 X245.382 Y12.123 E.39953
G1 X245.382 Y12.629 E.01427
G1 X234.871 Y2.118 E.41971
G1 X234.366 Y2.118 E.01427
G1 X245.382 Y13.134 E.4399
G1 X245.382 Y13.64 E.01427
G1 X233.86 Y2.118 E.46008
G1 X233.355 Y2.118 E.01427
G1 X245.382 Y14.145 E.48027
G1 X245.382 Y14.651 E.01427
G1 X232.849 Y2.118 E.50045
G1 X232.344 Y2.118 E.01427
G1 X245.382 Y15.156 E.52064
M73 P1 R12
G1 X245.382 Y15.662 E.01427
M73 P1 R12
G1 X231.838 Y2.118 E.54082
G1 X231.333 Y2.118 E.01427
G1 X245.382 Y16.167 E.56101
G1 X245.382 Y16.673 E.01427
G1 X230.827 Y2.118 E.58119
G1 X230.322 Y2.118 E.01427
G1 X245.382 Y17.178 E.60138
G1 X245.382 Y17.684 E.01427
G1 X229.816 Y2.118 E.62156
G1 X229.311 Y2.118 E.01427
G1 X245.382 Y18.189 E.64175
G1 X245.382 Y18.695 E.01427
G1 X228.805 Y2.118 E.66193
G1 X228.3 Y2.118 E.01427
G1 X245.382 Y19.2 E.68212
G1 X245.382 Y19.706 E.01427
G1 X227.794 Y2.118 E.7023
G1 X227.289 Y2.118 E.01427
G1 X245.382 Y20.211 E.72248
G1 X245.382 Y20.717 E.01427
G1 X226.783 Y2.118 E.74267
G1 X226.278 Y2.118 E.01427
G1 X245.382 Y21.222 E.76285
G1 X245.382 Y21.728 E.01427
G1 X225.772 Y2.118 E.78304
G1 X225.267 Y2.118 E.01427
G1 X245.382 Y22.233 E.80322
G1 X245.382 Y22.739 E.01427
G1 X224.761 Y2.118 E.82341
G1 X224.256 Y2.118 E.01427
G1 X245.382 Y23.244 E.84359
G1 X245.382 Y23.75 E.01427
G1 X223.75 Y2.118 E.86378
G1 X223.245 Y2.118 E.01427
G1 X245.382 Y24.255 E.88396
G1 X245.382 Y24.761 E.01427
G1 X222.739 Y2.118 E.90415
G1 X222.234 Y2.118 E.01427
G1 X245.382 Y25.266 E.92433
G1 X245.382 Y25.772 E.01427
G1 X221.728 Y2.118 E.94452
G1 X221.223 Y2.118 E.01427
G1 X245.382 Y26.277 E.9647
G1 X245.382 Y26.783 E.01427
G1 X220.717 Y2.118 E.98489
G1 X220.212 Y2.118 E.01427
G1 X245.382 Y27.288 E1.00507
G1 X245.382 Y27.794 E.01427
G1 X219.706 Y2.118 E1.02525
G1 X219.201 Y2.118 E.01427
G1 X245.382 Y28.299 E1.04544
G1 X245.382 Y28.805 E.01427
G1 X218.695 Y2.118 E1.06562
G1 X218.19 Y2.118 E.01427
G1 X245.382 Y29.31 E1.08581
G1 X245.382 Y29.816 E.01427
G1 X217.684 Y2.118 E1.10599
G1 X217.179 Y2.118 E.01427
G1 X245.382 Y30.321 E1.12618
G1 X245.382 Y30.827 E.01427
G1 X216.673 Y2.118 E1.14636
G1 X216.168 Y2.118 E.01427
G1 X245.382 Y31.332 E1.16655
G1 X245.382 Y31.838 E.01427
G1 X215.662 Y2.118 E1.18673
G1 X215.157 Y2.118 E.01427
G1 X245.382 Y32.343 E1.20692
G1 X245.382 Y32.849 E.01427
G1 X214.651 Y2.118 E1.2271
G1 X214.146 Y2.118 E.01427
G1 X245.382 Y33.354 E1.24729
G1 X245.382 Y33.86 E.01427
G1 X213.64 Y2.118 E1.26747
G1 X213.135 Y2.118 E.01427
G1 X245.382 Y34.365 E1.28766
G1 X245.382 Y34.871 E.01427
G1 X212.629 Y2.118 E1.30784
G1 X212.124 Y2.118 E.01427
G1 X245.382 Y35.376 E1.32802
G1 X245.382 Y35.882 E.01427
G1 X211.618 Y2.118 E1.34821
G1 X211.113 Y2.118 E.01427
G1 X245.382 Y36.387 E1.36839
M73 P2 R12
G1 X245.382 Y36.893 E.01427
M73 P2 R12
G1 X210.607 Y2.118 E1.38858
G1 X210.102 Y2.118 E.01427
G1 X245.382 Y37.398 E1.40876
G1 X245.382 Y37.904 E.01427
G1 X209.596 Y2.118 E1.42895
G1 X209.091 Y2.118 E.01427
G1 X245.382 Y38.409 E1.44913
G1 X245.382 Y38.915 E.01427
G1 X208.585 Y2.118 E1.46932
G1 X208.08 Y2.118 E.01427
G1 X245.382 Y39.42 E1.4895
G1 X245.382 Y39.926 E.01427
G1 X207.574 Y2.118 E1.50969
G1 X207.069 Y2.118 E.01427
G1 X245.382 Y40.431 E1.52987
G1 X245.382 Y40.937 E.01427
G1 X206.563 Y2.118 E1.55006
G1 X206.058 Y2.118 E.01427
G1 X245.382 Y41.442 E1.57024
G1 X245.382 Y41.948 E.01427
G1 X205.552 Y2.118 E1.59043
G1 X205.047 Y2.118 E.01427
G1 X245.382 Y42.453 E1.61061
G1 X245.382 Y42.959 E.01427
G1 X204.541 Y2.118 E1.63079
G1 X204.036 Y2.118 E.01427
G1 X245.382 Y43.464 E1.65098
G1 X245.382 Y43.97 E.01427
G1 X203.53 Y2.118 E1.67116
G1 X203.025 Y2.118 E.01427
G1 X245.382 Y44.475 E1.69135
G1 X245.382 Y44.981 E.01427
G1 X202.519 Y2.118 E1.71153
G1 X202.014 Y2.118 E.01427
G1 X245.382 Y45.486 E1.73172
G1 X245.382 Y45.992 E.01427
G1 X201.508 Y2.118 E1.7519
G1 X201.003 Y2.118 E.01427
G1 X245.382 Y46.497 E1.77209
G1 X245.382 Y47.003 E.01427
G1 X200.497 Y2.118 E1.79227
G1 X199.992 Y2.118 E.01427
G1 X245.382 Y47.508 E1.81246
G1 X245.382 Y48.014 E.01427
G1 X199.486 Y2.118 E1.83264
G1 X198.981 Y2.118 E.01427
G1 X245.382 Y48.519 E1.85283
G1 X245.382 Y49.025 E.01427
G1 X198.475 Y2.118 E1.87301
G1 X197.97 Y2.118 E.01427
G1 X245.382 Y49.53 E1.8932
M73 P3 R12
G1 X245.382 Y50.036 E.01427
M73 P3 R12
G1 X197.464 Y2.118 E1.91338
G1 X196.959 Y2.118 E.01427
G1 X245.382 Y50.541 E1.93356
G1 X245.382 Y51.047 E.01427
G1 X196.453 Y2.118 E1.95375
G1 X195.948 Y2.118 E.01427
G1 X245.382 Y51.552 E1.97393
G1 X245.382 Y52.058 E.01427
G1 X195.442 Y2.118 E1.99412
G1 X194.937 Y2.118 E.01427
G1 X245.382 Y52.563 E2.0143
G1 X245.382 Y53.069 E.01427
G1 X194.431 Y2.118 E2.03449
G1 X193.926 Y2.118 E.01427
G1 X245.382 Y53.574 E2.05467
G1 X245.382 Y54.08 E.01427
G1 X193.42 Y2.118 E2.07486
G1 X192.915 Y2.118 E.01427
G1 X245.382 Y54.585 E2.09504
G1 X245.382 Y55.091 E.01427
G1 X192.409 Y2.118 E2.11523
G1 X191.904 Y2.118 E.01427
G1 X245.382 Y55.596 E2.13541
G1 X245.382 Y56.102 E.01427
G1 X191.398 Y2.118 E2.1556
G1 X190.893 Y2.118 E.01427
G1 X245.382 Y56.607 E2.17578
G1 X245.382 Y57.113 E.01427
G1 X190.387 Y2.118 E2.19597
G1 X189.882 Y2.118 E.01427
G1 X245.382 Y57.618 E2.21615
G1 X245.382 Y58.124 E.01427
G1 X189.376 Y2.118 E2.23633
G1 X188.871 Y2.118 E.01427
G1 X245.382 Y58.629 E2.25652
G1 X245.382 Y59.134 E.01427
G1 X188.366 Y2.118 E2.2767
G1 X187.86 Y2.118 E.01427
G1 X245.382 Y59.64 E2.29689
G1 X245.382 Y60.145 E.01427
G1 X187.355 Y2.118 E2.31707
M73 P4 R12
G1 X186.849 Y2.118 E.01427
M73 P4 R12
G1 X245.382 Y60.651 E2.33726
G1 X245.382 Y61.156 E.01427
G1 X186.344 Y2.118 E2.35744
G1 X185.838 Y2.118 E.01427
G1 X245.382 Y61.662 E2.37763
G1 X245.382 Y62.167 E.01427
G1 X185.333 Y2.118 E2.39781
G1 X184.827 Y2.118 E.01427
G1 X245.382 Y62.673 E2.418
G1 X245.382 Y63.178 E.01427
G1 X184.322 Y2.118 E2.43818
G1 X183.816 Y2.118 E.01427
G1 X245.382 Y63.684 E2.45837
G1 X245.382 Y64.189 E.01427
G1 X183.311 Y2.118 E2.47855
G1 X182.805 Y2.118 E.01427
G1 X245.382 Y64.695 E2.49874
G1 X245.382 Y65.2 E.01427
G1 X182.3 Y2.118 E2.51892
G1 X181.794 Y2.118 E.01427
G1 X245.382 Y65.706 E2.5391
G1 X245.382 Y66.211 E.01427
G1 X181.289 Y2.118 E2.55929
G1 X180.783 Y2.118 E.01427
G1 X245.382 Y66.717 E2.57947
G1 X245.382 Y67.222 E.01427
G1 X180.278 Y2.118 E2.59966
G1 X179.772 Y2.118 E.01427
G1 X245.382 Y67.728 E2.61984
G1 X245.382 Y68.233 E.01427
G1 X179.267 Y2.118 E2.64003
G1 X178.761 Y2.118 E.01427
G1 X245.382 Y68.739 E2.66021
G1 X245.382 Y69.244 E.01427
G1 X178.256 Y2.118 E2.6804
M73 P5 R12
G1 X177.75 Y2.118 E.01427
M73 P5 R12
G1 X245.382 Y69.75 E2.70058
M73 P5 R11
G1 X245.382 Y70.255 E.01427
M73 P5 R11
G1 X177.245 Y2.118 E2.72077
G1 X176.739 Y2.118 E.01427
G1 X245.382 Y70.761 E2.74095
G1 X245.382 Y71.266 E.01427
G1 X176.234 Y2.118 E2.76114
G1 X175.728 Y2.118 E.01427
G1 X245.382 Y71.772 E2.78132
G1 X245.382 Y72.277 E.01427
G1 X175.223 Y2.118 E2.80151
G1 X174.717 Y2.118 E.01427
G1 X245.382 Y72.783 E2.82169
G1 X245.382 Y73.288 E.01427
G1 X174.212 Y2.118 E2.84187
G1 X173.706 Y2.118 E.01427
G1 X245.382 Y73.794 E2.86206
G1 X245.382 Y74.299 E.01427
G1 X173.201 Y2.118 E2.88224
G1 X172.695 Y2.118 E.01427
G1 X245.382 Y74.805 E2.90243
G1 X245.382 Y75.31 E.01427
G1 X172.19 Y2.118 E2.92261
G1 X171.684 Y2.118 E.01427
G1 X245.382 Y75.816 E2.9428
G1 X245.382 Y76.321 E.01427
G1 X171.179 Y2.118 E2.96298
G1 X170.673 Y2.118 E.01427
G1 X245.382 Y76.827 E2.98317
G1 X245.382 Y77.332 E.01427
M73 P6 R11
G1 X170.168 Y2.118 E3.00335
M73 P6 R11
G1 X169.662 Y2.118 E.01427
G1 X245.382 Y77.838 E3.02354
G1 X245.382 Y78.343 E.01427
G1 X169.157 Y2.118 E3.04372
G1 X168.651 Y2.118 E.01427
G1 X245.382 Y78.849 E3.06391
G1 X245.382 Y79.354 E.01427
G1 X168.146 Y2.118 E3.08409
G1 X167.64 Y2.118 E.01427
G1 X245.382 Y79.86 E3.10428
G1 X245.382 Y80.365 E.01427
G1 X167.135 Y2.118 E3.12446
G1 X166.629 Y2.118 E.01427
G1 X245.382 Y80.871 E3.14464
G1 X245.382 Y81.376 E.01427
G1 X166.124 Y2.118 E3.16483
G1 X165.618 Y2.118 E.01427
G1 X245.382 Y81.882 E3.18501
G1 X245.382 Y82.387 E.01427
G1 X165.113 Y2.118 E3.2052
G1 X164.607 Y2.118 E.01427
G1 X245.382 Y82.893 E3.22538
G1 X245.382 Y83.398 E.01427
G1 X164.102 Y2.118 E3.24557
G1 X163.596 Y2.118 E.01427
G1 X245.382 Y83.904 E3.26575
G1 X245.382 Y84.409 E.01427
G1 X163.091 Y2.118 E3.28594
M73 P7 R11
G1 X162.585 Y2.118 E.01427
M73 P7 R11
G1 X245.382 Y84.915 E3.30612
G1 X245.382 Y85.42 E.01427
G1 X162.08 Y2.118 E3.32631
G1 X161.574 Y2.118 E.01427
G1 X245.382 Y85.926 E3.34649
G1 X245.382 Y86.431 E.01427
G1 X161.069 Y2.118 E3.36668
G1 X160.563 Y2.118 E.01427
G1 X245.382 Y86.937 E3.38686
G1 X245.382 Y87.442 E.01427
G1 X160.058 Y2.118 E3.40705
G1 X159.552 Y2.118 E.01427
G1 X245.382 Y87.948 E3.42723
G1 X245.382 Y88.453 E.01427
G1 X159.047 Y2.118 E3.44741
G1 X158.541 Y2.118 E.01427
G1 X245.382 Y88.959 E3.4676
G1 X245.382 Y89.464 E.01427
G1 X158.036 Y2.118 E3.48778
G1 X157.53 Y2.118 E.01427
G1 X245.382 Y89.97 E3.50797
G1 X245.382 Y90.475 E.01427
G1 X157.025 Y2.118 E3.52815
G1 X156.519 Y2.118 E.01427
G1 X245.382 Y90.981 E3.54834
M73 P8 R11
G1 X245.382 Y91.486 E.01427
M73 P8 R11
G1 X156.014 Y2.118 E3.56852
G1 X155.508 Y2.118 E.01427
G1 X245.382 Y91.992 E3.58871
G1 X245.382 Y92.497 E.01427
G1 X155.003 Y2.118 E3.60889
G1 X154.497 Y2.118 E.01427
G1 X245.382 Y93.003 E3.62908
G1 X245.382 Y93.508 E.01427
G1 X153.992 Y2.118 E3.64926
G1 X153.486 Y2.118 E.01427
G1 X245.382 Y94.014 E3.66945
G1 X245.382 Y94.519 E.01427
G1 X152.981 Y2.118 E3.68963
G1 X152.475 Y2.118 E.01427
G1 X245.382 Y95.025 E3.70982
G1 X245.382 Y95.53 E.01427
G1 X151.97 Y2.118 E3.73
G1 X151.464 Y2.118 E.01427
G1 X245.382 Y96.036 E3.75018
G1 X245.382 Y96.541 E.01427
G1 X150.959 Y2.118 E3.77037
G1 X150.453 Y2.118 E.01427
G1 X245.382 Y97.047 E3.79055
G1 X245.382 Y97.552 E.01427
G1 X149.948 Y2.118 E3.81074
M73 P9 R11
G1 X149.442 Y2.118 E.01427
M73 P9 R11
G1 X245.382 Y98.058 E3.83092
G1 X245.382 Y98.563 E.01427
G1 X148.937 Y2.118 E3.85111
G1 X148.431 Y2.118 E.01427
G1 X245.382 Y99.069 E3.87129
G1 X245.382 Y99.574 E.01427
G1 X147.926 Y2.118 E3.89148
G1 X147.42 Y2.118 E.01427
G1 X245.382 Y100.08 E3.91166
G1 X245.382 Y100.585 E.01427
G1 X146.915 Y2.118 E3.93185
G1 X146.409 Y2.118 E.01427
G1 X245.382 Y101.091 E3.95203
G1 X245.382 Y101.596 E.01427
G1 X145.904 Y2.118 E3.97222
G1 X145.398 Y2.118 E.01427
G1 X245.382 Y102.102 E3.9924
G1 X245.382 Y102.607 E.01427
G1 X144.893 Y2.118 E4.01259
G1 X144.387 Y2.118 E.01427
G1 X245.382 Y103.113 E4.03277
M73 P10 R11
G1 X245.382 Y103.618 E.01427
M73 P10 R11
G1 X143.882 Y2.118 E4.05295
G1 X143.376 Y2.118 E.01427
G1 X245.382 Y104.124 E4.07314
G1 X245.382 Y104.629 E.01427
G1 X142.871 Y2.118 E4.09332
G1 X142.365 Y2.118 E.01427
G1 X245.382 Y105.135 E4.11351
G1 X245.382 Y105.64 E.01427
G1 X141.86 Y2.118 E4.13369
G1 X141.354 Y2.118 E.01427
G1 X245.382 Y106.146 E4.15388
G1 X245.382 Y106.651 E.01427
G1 X140.849 Y2.118 E4.17406
G1 X140.343 Y2.118 E.01427
G1 X245.382 Y107.157 E4.19425
G1 X245.382 Y107.662 E.01427
G1 X139.838 Y2.118 E4.21443
G1 X139.332 Y2.118 E.01427
G1 X245.382 Y108.168 E4.23462
G1 X245.382 Y108.673 E.01427
G1 X138.827 Y2.118 E4.2548
M73 P11 R11
G1 X138.321 Y2.118 E.01427
M73 P11 R11
G1 X245.382 Y109.179 E4.27499
G1 X245.382 Y109.684 E.01427
G1 X137.816 Y2.118 E4.29517
G1 X137.311 Y2.118 E.01427
G1 X245.382 Y110.189 E4.31535
G1 X245.382 Y110.695 E.01427
G1 X136.805 Y2.118 E4.33554
G1 X136.3 Y2.118 E.01427
G1 X245.382 Y111.2 E4.35572
G1 X245.382 Y111.706 E.01427
G1 X135.794 Y2.118 E4.37591
G1 X135.289 Y2.118 E.01427
G1 X245.382 Y112.211 E4.39609
G1 X245.382 Y112.717 E.01427
G1 X134.783 Y2.118 E4.41628
G1 X134.278 Y2.118 E.01427
G1 X245.382 Y113.222 E4.43646
G1 X245.382 Y113.728 E.01427
G1 X133.772 Y2.118 E4.45665
G1 X133.267 Y2.118 E.01427
G1 X245.382 Y114.233 E4.47683
M73 P12 R11
G1 X245.382 Y114.739 E.01427
M73 P12 R11
G1 X132.761 Y2.118 E4.49702
G1 X132.256 Y2.118 E.01427
G1 X245.382 Y115.244 E4.5172
G1 X245.382 Y115.75 E.01427
G1 X131.75 Y2.118 E4.53739
G1 X131.245 Y2.118 E.01427
G1 X245.382 Y116.255 E4.55757
G1 X245.382 Y116.761 E.01427
G1 X130.739 Y2.118 E4.57776
G1 X130.234 Y2.118 E.01427
G1 X245.382 Y117.266 E4.59794
G1 X245.382 Y117.772 E.01427
G1 X129.728 Y2.118 E4.61812
G1 X129.223 Y2.118 E.01427
G1 X245.382 Y118.277 E4.63831
G1 X245.382 Y118.783 E.01427
G1 X128.717 Y2.118 E4.65849
G1 X128.212 Y2.118 E.01427
G1 X245.382 Y119.288 E4.67868
M73 P13 R10
G1 X245.382 Y119.794 E.01427
M73 P13 R10
G1 X127.706 Y2.118 E4.69886
G1 X127.201 Y2.118 E.01427
G1 X245.382 Y120.299 E4.71905
G1 X245.382 Y120.805 E.01427
G1 X126.695 Y2.118 E4.73923
G1 X126.19 Y2.118 E.01427
G1 X245.382 Y121.31 E4.75942
G1 X245.382 Y121.816 E.01427
G1 X125.684 Y2.118 E4.7796
G1 X125.179 Y2.118 E.01427
G1 X245.382 Y122.321 E4.79979
G1 X245.382 Y122.827 E.01427
G1 X124.673 Y2.118 E4.81997
G1 X124.168 Y2.118 E.01427
G1 X245.382 Y123.332 E4.84016
G1 X245.382 Y123.838 E.01427
G1 X123.662 Y2.118 E4.86034
G1 X123.157 Y2.118 E.01427
M73 P14 R10
G1 X245.382 Y124.343 E4.88053
M73 P14 R10
G1 X245.382 Y124.849 E.01427
G1 X122.651 Y2.118 E4.90071
G1 X122.146 Y2.118 E.01427
G1 X245.382 Y125.354 E4.92089
G1 X245.382 Y125.86 E.01427
G1 X121.64 Y2.118 E4.94108
G1 X121.135 Y2.118 E.01427
G1 X245.382 Y126.365 E4.96126
G1 X245.382 Y126.871 E.01427
G1 X120.629 Y2.118 E4.98145
G1 X120.124 Y2.118 E.01427
G1 X245.382 Y127.376 E5.00163
G1 X245.382 Y127.882 E.01427
G1 X119.618 Y2.118 E5.02182
G1 X119.113 Y2.118 E.01427
G1 X245.382 Y128.387 E5.042
G1 X245.382 Y128.893 E.01427
G1 X118.607 Y2.118 E5.06219
M73 P15 R10
G1 X118.102 Y2.118 E.01427
M73 P15 R10
G1 X245.382 Y129.398 E5.08237
G1 X245.382 Y129.904 E.01427
G1 X117.596 Y2.118 E5.10256
G1 X117.091 Y2.118 E.01427
G1 X245.382 Y130.409 E5.12274
