; HEADER_BLOCK_START
; generated by OrcaSlicer 2.2.0 on 2025-11-04 at 11:28:23
; total layer number: 38
; filament_density: 1.24
; filament_diameter: 1.75
; max_z_height: 7.60
; HEADER_BLOCK_END

; THUMBNAIL_BLOCK_START

;
; THUMBNAIL_BLOCK_END

; THUMBNAIL_BLOCK_START

;
; THUMBNAIL_BLOCK_END

; external perimeters extrusion width = 0.40mm
; perimeters extrusion width = 0.40mm
; infill extrusion width = 0.40mm
; solid infill extrusion width = 0.40mm
; top infill extrusion width = 0.40mm
; first layer extrusion width = 0.40mm

; external perimeters extrusion width = 0.40mm
; perimeters extrusion width = 0.40mm
; infill extrusion width = 0.40mm
; solid infill extrusion width = 0.40mm
; top infill extrusion width = 0.40mm
; first layer extrusion width = 0.40mm

; EXECUTABLE_BLOCK_START
EXCLUDE_OBJECT_DEFINE NAME=dcdc-din-rail-bracket.stl_id_0_copy_0 CENTER=125.408,132.5 POLYGON=[[97.3668,132.559],[102.519,107.556],[130.824,101.385],[134.962,101.385],[148.298,107.556],[153.45,132.559],[153.354,133.024],[153.259,133.487],[148.3,157.552],[135.122,163.615],[130.695,163.615],[102.517,157.552],[97.5581,133.487],[97.4627,133.024],[97.3668,132.559]]
EXCLUDE_OBJECT_DEFINE NAME=pcb_din_clip.stl_id_1_copy_0 CENTER=125,90.3854 POLYGON=[[96.55,86.3854],[96.5617,86.0442],[96.5966,85.7045],[96.6546,85.3681],[96.7354,85.0364],[96.8387,84.711],[96.9639,84.3934],[97.1106,84.0851],[97.2779,83.7875],[97.4651,83.502],[97.6714,83.2299],[97.8958,82.9726],[98.1372,82.7312],[98.3946,82.5068],[98.6666,82.3005],[98.9521,82.1133],[99.2497,81.946],[99.558,81.7993],[99.8756,81.6741],[100.201,81.5708],[100.533,81.49],[100.869,81.4319],[101.209,81.397],[101.55,81.3854],[148.45,81.3854],[148.791,81.397],[149.131,81.4319],[149.467,81.49],[149.799,81.5708],[150.124,81.6741],[150.442,81.7993],[150.75,81.946],[151.048,82.1133],[151.333,82.3005],[151.605,82.5068],[151.863,82.7312],[152.104,82.9726],[152.329,83.2299],[152.535,83.502],[152.722,83.7875],[152.889,84.0851],[153.036,84.3934],[153.161,84.711],[153.265,85.0364],[153.345,85.3681],[153.403,85.7045],[153.438,86.0442],[153.45,86.3854],[153.45,94.3854],[153.438,94.7266],[153.403,95.0662],[153.345,95.4027],[153.265,95.7344],[153.161,96.0598],[153.036,96.3774],[152.889,96.6857],[152.722,96.9833],[152.535,97.2688],[152.329,97.5408],[152.104,97.7981],[151.863,98.0396],[151.605,98.2639],[151.333,98.4702],[151.048,98.6575],[150.75,98.8248],[150.442,98.9714],[150.124,99.0967],[149.799,99.2],[149.467,99.2808],[149.131,99.3388],[148.791,99.3737],[148.45,99.3854],[101.55,99.3854],[101.209,99.3737],[100.869,99.3388],[100.533,99.2808],[100.201,99.2],[99.8756,99.0967],[99.558,98.9714],[99.2497,98.8248],[98.9521,98.6575],[98.6666,98.4702],[98.3946,98.2639],[98.1372,98.0396],[97.8958,97.7981],[97.6714,97.5408],[97.4651,97.2688],[97.2779,96.9833],[97.1106,96.6857],[96.9639,96.3774],[96.8387,96.0598],[96.7354,95.7344],[96.6546,95.4027],[96.5966,95.0662],[96.5617,94.7266],[96.55,94.3854],[96.55,86.3854]]
M73 P0 R17
;TYPE:Custom
PRINT_START EXTRUDER_TEMP=245 BED_TEMP=65
G90
G21
M83 ; use relative distances for extrusion
; filament start gcode
M106 P3 S255


SET_PRESSURE_ADVANCE ADVANCE=0.015; Override pressure advance value
M106 S0
;LAYER_CHANGE
;Z:0.2
;HEIGHT:0.2
;BEFORE_LAYER_CHANGE
;0.2
G92 E0

G1 E-.5 F2100
;AFTER_LAYER_CHANGE
;0.2
;_SET_FAN_SPEED_CHANGING_LAYER
SET_VELOCITY_LIMIT ACCEL=7500
SET_VELOCITY_LIMIT SQUARE_CORNER_VELOCITY=12
; printing object dcdc-din-rail-bracket.stl id:0 copy 0
EXCLUDE_OBJECT_START NAME=dcdc-din-rail-bracket.stl_id_0_copy_0
G1 X148.16 Y137.687 F36000
G1 Z.2
G1 E.5 F2100
;TYPE:Outer wall
;WIDTH:0.4
G1 F18000
G1 X148.141 Y137.707 E.00075
G1 X147.834 Y137.922 E.01031
G1 X147.494 Y138.08 E.01031
G1 X147.132 Y138.177 E.01031
G1 X146.774 Y138.209 E.00989
G1 X104.043 Y138.209 E1.17484
G1 X103.685 Y138.177 E.00989
G1 X103.323 Y138.08 E.01031
G1 X102.983 Y137.922 E.01031
G1 X102.676 Y137.707 E.01031
G1 X102.41 Y137.441 E.01031
G1 X102.195 Y137.134 E.01031
G1 X102.037 Y136.794 E.01031
G1 X101.94 Y136.432 E.01031
G1 X101.908 Y136.074 E.00989
G1 X101.911 Y133.556 E.06923
G1 X101.937 Y132.559 E.02743
G1 X101.911 Y131.561 E.02743
G1 X101.908 Y129.043 E.06923
G1 X101.94 Y128.685 E.00989
G1 X102.037 Y128.323 E.01031
G1 X102.195 Y127.983 E.01031
G1 X102.41 Y127.676 E.01031
G1 X102.676 Y127.411 E.01031
G1 X102.983 Y127.195 E.01031
G1 X103.323 Y127.037 E.01031
G1 X103.685 Y126.94 E.01031
G1 X104.043 Y126.909 E.00989
G1 X146.774 Y126.909 E1.17484
G1 X147.132 Y126.94 E.00989
G1 X147.494 Y127.037 E.01031
G1 X147.834 Y127.195 E.01031
G1 X148.141 Y127.411 E.01031
G1 X148.406 Y127.676 E.01031
G1 X148.622 Y127.983 E.01031
G1 X148.78 Y128.323 E.01031
G1 X148.877 Y128.685 E.01031
G1 X148.908 Y129.043 E.00989
G1 X148.906 Y131.561 E.06923
G1 X148.88 Y132.559 E.02743
G1 X148.906 Y133.556 E.02743
G1 X148.908 Y136.074 E.06923
G1 X148.877 Y136.432 E.00989
G1 X148.78 Y136.794 E.01031
G1 X148.622 Y137.134 E.01031
G1 X148.406 Y137.441 E.01031
G1 X148.189 Y137.659 E.00847
G1 E-.38333 F2100
;WIPE_START
G1 F18000
G1 X148.141 Y137.707 E-.00783
G1 X147.834 Y137.922 E-.04375
G1 X147.494 Y138.08 E-.04375
G1 X147.318 Y138.128 E-.02134
;WIPE_END
G1 X147.366 Y138.307 F36000
G1 X147.164 Y138.361
G1 X146.782 Y138.394
G1 X104.035 Y138.394
G1 X103.652 Y138.361
G1 X103.259 Y138.255
G1 X102.89 Y138.083
G1 X102.556 Y137.849
G1 X102.268 Y137.561
G1 X102.034 Y137.227
G1 X101.862 Y136.858
G1 X101.756 Y136.465
G1 X101.723 Y136.082
G1 X101.723 Y134.299
G1 X101.808 Y131.663
G1 X101.068 Y130.998
G1 X100.777 Y130.794
G1 X100.455 Y130.644
G1 X100.112 Y130.552
G1 X99.758 Y130.521
G1 X99.405 Y130.552
G1 X99.061 Y130.644
G1 X98.739 Y130.794
G1 X98.504 Y131.064
G1 X98.453 Y131.144
G1 X98.537 Y131.198
G1 E.5 F2100
G1 F18000
G1 X98.571 Y131.16 E.00141
G1 X98.831 Y130.963 E.00897
G1 X99.124 Y130.821 E.00895
G1 X99.436 Y130.736 E.0089
G1 X99.69 Y130.713 E.007
G1 X100.077 Y130.735 E.01065
G1 X100.392 Y130.819 E.00896
G1 X100.684 Y130.955 E.00888
G1 X100.948 Y131.141 E.00888
G1 X101.177 Y131.37 E.00889
G1 X101.36 Y131.637 E.0089
G1 X101.492 Y131.933 E.00891
G1 X101.566 Y132.247 E.00889
G1 X101.581 Y132.559 E.00857
G1 X101.566 Y132.87 E.00857
G1 X101.492 Y133.185 E.00889
G1 X101.36 Y133.48 E.00891
G1 X101.177 Y133.747 E.0089
G1 X100.948 Y133.976 E.00889
G1 X100.684 Y134.162 E.00888
G1 X100.392 Y134.298 E.00888
G1 X100.08 Y134.382 E.00887
G1 X99.758 Y134.41 E.00888
G1 X99.436 Y134.381 E.00888
G1 X99.124 Y134.296 E.0089
G1 X98.831 Y134.154 E.00895
G1 X98.571 Y133.957 E.00897
G1 X98.356 Y133.711 E.009
G1 X98.205 Y133.429 E.0088
G1 X98.109 Y133.144 E.00826
G1 X98.041 Y132.861 E.00799
G1 X98.006 Y132.559 E.00838
G1 X98.041 Y132.256 E.00838
G1 X98.109 Y131.973 E.00799
G1 X98.205 Y131.688 E.00826
G1 X98.356 Y131.406 E.0088
G1 X98.511 Y131.229 E.00648
G1 E-.38333 F2100
;WIPE_START
G1 F18000
G1 X98.571 Y131.16 E-.01066
G1 X98.831 Y130.963 E-.03807
G1 X99.124 Y130.821 E-.03797
G1 X99.372 Y130.753 E-.02997
;WIPE_END
G1 X99.324 Y130.573 F36000
G1 X102.268 Y127.556
G1 X102.556 Y127.268
G1 X102.89 Y127.034
G1 X134.693 Y107.025
G1 E.5 F2100
;TYPE:Inner wall
G1 F18000
G1 X135.057 Y106.77 E.01224
G1 X135.469 Y106.359 E.01598
G1 X135.802 Y105.883 E.01598
G1 X136.048 Y105.356 E.01598
G1 X136.184 Y104.849 E.01444
G1 X141.233 Y109.334 E.18569
G1 X146.849 Y109.334 E.15439
G1 X150.96 Y129.282 E.55999
G1 X150.488 Y129.323 E.01301
G1 X150.336 Y129.364 E.00432
G1 X150.337 Y128.982 E.01051
G1 X150.289 Y128.436 E.01506
G1 X150.127 Y127.832 E.01718
G1 X149.863 Y127.266 E.01718
G1 X149.505 Y126.754 E.01718
G1 X149.063 Y126.312 E.01718
G1 X148.551 Y125.954 E.01718
G1 X147.985 Y125.69 E.01718
G1 X147.381 Y125.528 E.01718
G1 X146.836 Y125.48 E.01504
G1 X103.981 Y125.48 E1.17827
G1 X103.436 Y125.528 E.01504
G1 X102.832 Y125.69 E.01718
G1 X102.266 Y125.954 E.01718
G1 X101.754 Y126.312 E.01718
G1 X101.312 Y126.754 E.01718
G1 X100.954 Y127.266 E.01718
G1 X100.689 Y127.832 E.01718
G1 X100.528 Y128.436 E.01718
G1 X100.48 Y128.982 E.01506
G1 X100.48 Y129.364 E.01051
G1 X100.303 Y129.317 E.00504
G1 X99.855 Y129.292 E.01233
G1 X103.244 Y112.849 E.46159
G1 X103.397 Y112.831 E.00425
G1 X103.582 Y113.226 E.01198
G1 X103.915 Y113.702 E.01598
G1 X104.326 Y114.113 E.01598
G1 X104.802 Y114.447 E.01598
G1 X105.329 Y114.692 E.01598
G1 X105.891 Y114.843 E.01598
G1 X106.47 Y114.893 E.01598
G1 X107.049 Y114.843 E.01598
G1 X107.611 Y114.692 E.01598
G1 X108.138 Y114.447 E.01598
G1 X108.614 Y114.113 E.01598
G1 X109.025 Y113.702 E.01598
G1 X109.358 Y113.226 E.01598
G1 X109.604 Y112.699 E.01598
G1 X109.754 Y112.137 E.01598
G1 X109.805 Y111.558 E.01598
G1 X109.754 Y110.979 E.01598
G1 X109.604 Y110.418 E.01598
G1 X109.358 Y109.891 E.01598
G1 X108.968 Y109.334 E.01869
G1 X124.565 Y109.334 E.42881
G1 X129.637 Y104.822 E.18664
G1 X129.78 Y105.356 E.01521
G1 X130.025 Y105.883 E.01598
G1 X130.359 Y106.359 E.01598
G1 X130.77 Y106.77 E.01598
G1 X131.246 Y107.103 E.01598
G1 X131.773 Y107.349 E.01598
G1 X132.335 Y107.5 E.01598
G1 X132.914 Y107.55 E.01598
G1 X133.493 Y107.5 E.01598
G1 X134.054 Y107.349 E.01598
G1 X134.581 Y107.103 E.01598
G1 X134.66 Y107.048 E.00264
G1 X134.307 Y106.837 F36000
G1 F18000
G1 X134.402 Y106.793 E.00288
G1 X134.827 Y106.495 E.01427
G1 X135.194 Y106.129 E.01427
G1 X135.492 Y105.703 E.01427
G1 X135.711 Y105.233 E.01427
G1 X135.845 Y104.732 E.01427
G1 X135.899 Y104.118 E.01694
G1 X141.369 Y108.977 E.20115
G1 X147.14 Y108.977 E.15866
G1 X151.403 Y129.664 E.58071
G1 X150.973 Y129.639 E.01182
G1 X150.55 Y129.676 E.01168
G1 X149.979 Y129.829 E.01626
G1 X149.98 Y128.997 E.02288
G1 X149.936 Y128.498 E.01377
G1 X149.79 Y127.955 E.01546
G1 X149.553 Y127.445 E.01546
G1 X149.23 Y126.985 E.01546
G1 X148.832 Y126.587 E.01546
G1 X148.372 Y126.264 E.01546
G1 X147.862 Y126.027 E.01546
G1 X147.319 Y125.881 E.01546
G1 X146.82 Y125.837 E.01375
G1 X103.996 Y125.837 E1.17741
G1 X103.498 Y125.881 E.01375
G1 X102.955 Y126.027 E.01546
G1 X102.445 Y126.264 E.01546
G1 X101.984 Y126.587 E.01546
G1 X101.587 Y126.985 E.01546
G1 X101.264 Y127.445 E.01546
G1 X101.026 Y127.955 E.01546
G1 X100.881 Y128.498 E.01546
G1 X100.837 Y128.997 E.01377
G1 X100.838 Y129.829 E.02288
G1 X100.247 Y129.671 E.01683
G1 X99.672 Y129.639 E.01583
G1 X99.414 Y129.662 E.0071
G1 X103.677 Y108.977 E.58068
G1 X104.726 Y108.977 E.02883
G1 X104.773 Y109.127 E.00432
G1 X104.557 Y109.278 E.00726
G1 X104.19 Y109.645 E.01427
G1 X103.892 Y110.07 E.01427
G1 X103.673 Y110.54 E.01427
G1 X103.538 Y111.041 E.01427
G1 X103.493 Y111.558 E.01427
G1 X103.538 Y112.075 E.01427
G1 X103.673 Y112.576 E.01427
G1 X103.892 Y113.047 E.01427
G1 X104.19 Y113.472 E.01427
G1 X104.557 Y113.839 E.01427
G1 X104.982 Y114.136 E.01427
G1 X105.452 Y114.355 E.01427
G1 X105.953 Y114.49 E.01427
G1 X106.47 Y114.535 E.01427
G1 X106.987 Y114.49 E.01427
G1 X107.488 Y114.355 E.01426
G1 X107.958 Y114.136 E.01427
G1 X108.383 Y113.839 E.01427
G1 X108.75 Y113.472 E.01427
G1 X109.048 Y113.047 E.01427
G1 X109.267 Y112.576 E.01427
G1 X109.401 Y112.075 E.01427
G1 X109.447 Y111.558 E.01427
G1 X109.401 Y111.041 E.01427
G1 X109.267 Y110.54 E.01427
G1 X109.048 Y110.07 E.01427
G1 X108.75 Y109.645 E.01427
G1 X108.383 Y109.278 E.01427
G1 X108.167 Y109.127 E.00726
G1 X108.214 Y108.977 E.00432
G1 X124.429 Y108.977 E.44581
G1 X129.926 Y104.086 E.20229
G1 X129.982 Y104.732 E.01782
G1 X130.117 Y105.233 E.01426
G1 X130.336 Y105.703 E.01427
G1 X130.633 Y106.129 E.01427
G1 X131 Y106.495 E.01427
G1 X131.425 Y106.793 E.01427
G1 X131.896 Y107.012 E.01427
G1 X132.397 Y107.147 E.01427
G1 X132.914 Y107.192 E.01427
G1 X133.431 Y107.147 E.01427
G1 X133.932 Y107.012 E.01427
G1 X134.271 Y106.854 E.01029
G1 E-.38333 F2100
;WIPE_START
G1 F18000
G1 X134.402 Y106.793 E-.01689
G1 X134.827 Y106.495 E-.06053
G1 X135.065 Y106.258 E-.03925
;WIPE_END
G1 X124.092 Y108.091 F36000
G1 X117.017 Y108.091
G1 X107.158 Y109.589
G1 X107.294 Y109.079
G1 E.5 F2100
G1 F18000
G1 X107.365 Y109.098 E.00202
G1 X107.779 Y109.291 E.01255
G1 X108.153 Y109.553 E.01255
G1 X108.476 Y109.875 E.01255
G1 X108.737 Y110.249 E.01255
G1 X108.93 Y110.663 E.01255
G1 X109.048 Y111.104 E.01255
G1 X109.088 Y111.558 E.01255
G1 X109.048 Y112.013 E.01255
G1 X108.93 Y112.454 E.01255
G1 X108.737 Y112.867 E.01255
G1 X108.476 Y113.241 E.01255
G1 X108.153 Y113.564 E.01255
G1 X107.779 Y113.826 E.01255
G1 X107.365 Y114.019 E.01255
G1 X106.925 Y114.137 E.01255
G1 X106.47 Y114.177 E.01255
G1 X106.015 Y114.137 E.01255
G1 X105.574 Y114.019 E.01255
G1 X105.161 Y113.826 E.01255
G1 X104.787 Y113.564 E.01255
G1 X104.464 Y113.241 E.01255
G1 X104.202 Y112.867 E.01255
G1 X104.01 Y112.454 E.01255
G1 X103.891 Y112.013 E.01255
G1 X103.852 Y111.558 E.01255
G1 X103.891 Y111.104 E.01255
G1 X104.01 Y110.663 E.01255
G1 X104.202 Y110.249 E.01255
G1 X104.464 Y109.875 E.01255
G1 X104.787 Y109.553 E.01255
G1 X105.161 Y109.291 E.01255
G1 X105.574 Y109.098 E.01255
G1 X106.015 Y108.98 E.01255
G1 X106.47 Y108.94 E.01255
G1 X106.925 Y108.98 E.01255
G1 X107.256 Y109.069 E.00943
G1 X107.202 Y109.424 F36000
G1 F18000
G1 X107.243 Y109.435 E.00116
G1 X107.6 Y109.601 E.01083
G1 X107.922 Y109.827 E.01083
G1 X108.201 Y110.106 E.01083
G1 X108.427 Y110.428 E.01083
G1 X108.593 Y110.785 E.01083
G1 X108.695 Y111.166 E.01083
G1 X108.73 Y111.558 E.01083
G1 X108.695 Y111.951 E.01083
G1 X108.593 Y112.331 E.01083
G1 X108.427 Y112.688 E.01083
G1 X108.201 Y113.011 E.01083
G1 X107.922 Y113.289 E.01083
G1 X107.6 Y113.515 E.01083
G1 X107.243 Y113.682 E.01083
G1 X106.862 Y113.784 E.01083
G1 X106.47 Y113.818 E.01083
G1 X106.078 Y113.784 E.01083
G1 X105.697 Y113.682 E.01083
G1 X105.34 Y113.515 E.01083
G1 X105.017 Y113.289 E.01083
G1 X104.739 Y113.011 E.01083
G1 X104.513 Y112.688 E.01083
G1 X104.346 Y112.331 E.01083
G1 X104.244 Y111.951 E.01083
G1 X104.21 Y111.558 E.01083
G1 X104.244 Y111.166 E.01083
G1 X104.346 Y110.785 E.01083
G1 X104.513 Y110.428 E.01083
G1 X104.739 Y110.106 E.01083
G1 X105.017 Y109.827 E.01083
G1 X105.34 Y109.601 E.01083
G1 X105.697 Y109.435 E.01083
G1 X106.078 Y109.333 E.01083
G1 X106.47 Y109.299 E.01083
G1 X106.862 Y109.333 E.01083
G1 X107.163 Y109.414 E.00857
G1 X107.11 Y109.769 F36000
;TYPE:Outer wall
G1 F18000
G1 X107.12 Y109.772 E.0003
G1 X107.421 Y109.912 E.00911
G1 X107.692 Y110.102 E.00911
G1 X107.926 Y110.336 E.00911
G1 X108.117 Y110.608 E.00911
G1 X108.257 Y110.908 E.00911
G1 X108.342 Y111.228 E.00911
G1 X108.371 Y111.558 E.00911
G1 X108.342 Y111.888 E.00911
G1 X108.257 Y112.209 E.00911
G1 X108.117 Y112.509 E.00911
G1 X107.926 Y112.78 E.00911
G1 X107.692 Y113.015 E.00911
G1 X107.421 Y113.205 E.00911
G1 X107.12 Y113.345 E.00911
G1 X106.8 Y113.431 E.00911
G1 X106.47 Y113.46 E.00911
G1 X106.14 Y113.431 E.00911
G1 X105.82 Y113.345 E.00911
G1 X105.519 Y113.205 E.00911
G1 X105.248 Y113.015 E.00911
G1 X105.013 Y112.78 E.00911
G1 X104.823 Y112.509 E.00911
G1 X104.683 Y112.209 E.00911
G1 X104.597 Y111.888 E.00911
G1 X104.569 Y111.558 E.00911
G1 X104.597 Y111.228 E.00911
G1 X104.683 Y110.908 E.00911
G1 X104.823 Y110.608 E.00911
G1 X105.013 Y110.336 E.00911
G1 X105.248 Y110.102 E.00911
G1 X105.519 Y109.912 E.00911
G1 X105.82 Y109.772 E.00911
G1 X106.14 Y109.686 E.00911
G1 X106.47 Y109.657 E.00911
G1 X106.8 Y109.686 E.00911
G1 X107.071 Y109.758 E.00771
G1 E-.38333 F2100
;WIPE_START
G1 F18000
G1 X107.12 Y109.772 E-.00595
G1 X107.421 Y109.912 E-.03867
G1 X107.692 Y110.102 E-.03867
G1 X107.894 Y110.304 E-.03338
;WIPE_END
G1 X134.283 Y106.44 F36000
G1 E.5 F2100
;TYPE:Inner wall
G1 F18000
G1 X134.597 Y106.221 E.01053
G1 X134.919 Y105.898 E.01255
G1 X135.181 Y105.524 E.01255
G1 X135.374 Y105.111 E.01255
G1 X135.492 Y104.67 E.01255
G1 X135.532 Y104.215 E.01255
G1 X135.492 Y103.76 E.01255
G1 X135.395 Y103.397 E.01035
G1 X135.53 Y103.313 E.00438
G1 X141.505 Y108.62 E.21969
G1 X147.431 Y108.62 E.16293
G1 X151.863 Y130.127 E.60376
G1 X151.492 Y130.026 E.01056
G1 X150.979 Y129.997 E.01414
G1 X150.612 Y130.029 E.01011
G1 X150.18 Y130.145 E.01231
G1 X149.621 Y130.406 E.01695
G1 X149.623 Y129.013 E.03831
G1 X149.583 Y128.561 E.01248
G1 X149.454 Y128.078 E.01375
G1 X149.242 Y127.624 E.01375
G1 X148.956 Y127.215 E.01375
G1 X148.602 Y126.861 E.01375
G1 X148.193 Y126.575 E.01375
G1 X147.739 Y126.363 E.01375
