; HEADER_BLOCK_START
; generated by OrcaSlicer 2.2.0 on 2025-11-04 at 10:59:36
; total layer number: 10
; filament_density: 1.24
; filament_diameter: 1.75
; max_z_height: 2.00
; HEADER_BLOCK_END

; THUMBNAIL_BLOCK_START

;
; THUMBNAIL_BLOCK_END

; THUMBNAIL_BLOCK_START

;
; THUMBNAIL_BLOCK_END

; external perimeters extrusion width = 0.40mm
; perimeters extrusion width = 0.40mm
; infill extrusion width = 0.40mm
; solid infill extrusion width = 0.48mm
; top infill extrusion width = 0.48mm
; first layer extrusion width = 0.40mm

; external perimeters extrusion width = 0.40mm
; perimeters extrusion width = 0.40mm
; infill extrusion width = 0.40mm
; solid infill extrusion width = 0.48mm
; top infill extrusion width = 0.48mm
; first layer extrusion width = 0.40mm

; external perimeters extrusion width = 0.40mm
; perimeters extrusion width = 0.40mm
; infill extrusion width = 0.40mm
; solid infill extrusion width = 0.48mm
; top infill extrusion width = 0.48mm
; first layer extrusion width = 0.40mm

; external perimeters extrusion width = 0.40mm
; perimeters extrusion width = 0.40mm
; infill extrusion width = 0.40mm
; solid infill extrusion width = 0.48mm
; top infill extrusion width = 0.48mm
; first layer extrusion width = 0.40mm

; external perimeters extrusion width = 0.40mm
; perimeters extrusion width = 0.40mm
; infill extrusion width = 0.40mm
; solid infill extrusion width = 0.48mm
; top infill extrusion width = 0.48mm
; first layer extrusion width = 0.40mm

; external perimeters extrusion width = 0.40mm
; perimeters extrusion width = 0.40mm
; infill extrusion width = 0.40mm
; solid infill extrusion width = 0.48mm
; top infill extrusion width = 0.48mm
; first layer extrusion width = 0.40mm

; external perimeters extrusion width = 0.40mm
; perimeters extrusion width = 0.40mm
; infill extrusion width = 0.40mm
; solid infill extrusion width = 0.48mm
; top infill extrusion width = 0.48mm
; first layer extrusion width = 0.40mm

; external perimeters extrusion width = 0.40mm
; perimeters extrusion width = 0.40mm
; infill extrusion width = 0.40mm
; solid infill extrusion width = 0.48mm
; top infill extrusion width = 0.48mm
; first layer extrusion width = 0.40mm

; external perimeters extrusion width = 0.40mm
; perimeters extrusion width = 0.40mm
; infill extrusion width = 0.40mm
; solid infill extrusion width = 0.48mm
; top infill extrusion width = 0.48mm
; first layer extrusion width = 0.40mm

; EXECUTABLE_BLOCK_START
EXCLUDE_OBJECT_DEFINE NAME=flowrate_0_id_0_copy_0 CENTER=125,122.5 POLYGON=[[105,109.5],[105.03,109.153],[105.121,108.816],[105.268,108.5],[105.468,108.214],[105.714,107.968],[106,107.768],[106.316,107.621],[106.653,107.53],[107,107.5],[143,107.5],[143.347,107.53],[143.684,107.621],[144,107.768],[144.286,107.968],[144.532,108.214],[144.732,108.5],[144.879,108.816],[144.97,109.153],[145,109.5],[145,125.5],[144.97,125.847],[144.879,126.184],[144.732,126.5],[144.532,126.786],[134.286,137.032],[134,137.232],[133.684,137.379],[133.347,137.47],[133,137.5],[117,137.5],[116.653,137.47],[116.316,137.379],[116,137.232],[115.714,137.032],[105.468,126.786],[105.268,126.5],[105.121,126.184],[105.03,125.847],[105,125.5],[105,109.5]]
EXCLUDE_OBJECT_DEFINE NAME=flowrate_10_id_1_copy_0 CENTER=167,154.5 POLYGON=[[147,141.5],[147.03,141.153],[147.121,140.816],[147.268,140.5],[147.468,140.214],[147.714,139.968],[148,139.768],[148.316,139.621],[148.653,139.53],[149,139.5],[185,139.5],[185.347,139.53],[185.684,139.621],[186,139.768],[186.286,139.968],[186.532,140.214],[186.732,140.5],[186.879,140.816],[186.97,141.153],[187,141.5],[187,157.5],[186.97,157.847],[186.879,158.184],[186.732,158.5],[186.532,158.786],[176.286,169.032],[176,169.232],[175.684,169.379],[175.347,169.47],[175,169.5],[159,169.5],[158.653,169.47],[158.316,169.379],[158,169.232],[157.714,169.032],[147.468,158.786],[147.268,158.5],[147.121,158.184],[147.03,157.847],[147,157.5],[147,141.5]]
EXCLUDE_OBJECT_DEFINE NAME=flowrate_15_id_2_copy_0 CENTER=125,154.5 POLYGON=[[105,141.5],[105.03,141.153],[105.121,140.816],[105.268,140.5],[105.468,140.214],[105.714,139.968],[106,139.768],[106.316,139.621],[106.653,139.53],[107,139.5],[143,139.5],[143.347,139.53],[143.684,139.621],[144,139.768],[144.286,139.968],[144.532,140.214],[144.732,140.5],[144.879,140.816],[144.97,141.153],[145,141.5],[145,157.5],[144.97,157.847],[144.879,158.184],[144.732,158.5],[144.532,158.786],[134.286,169.032],[134,169.232],[133.684,169.379],[133.347,169.47],[133,169.5],[117,169.5],[116.653,169.47],[116.316,169.379],[116,169.232],[115.714,169.032],[105.468,158.786],[105.268,158.5],[105.121,158.184],[105.03,157.847],[105,157.5],[105,141.5]]
EXCLUDE_OBJECT_DEFINE NAME=flowrate_20_id_3_copy_0 CENTER=83,154.5 POLYGON=[[63,141.5],[63.0304,141.153],[63.1206,140.816],[63.2679,140.5],[63.4679,140.214],[63.7144,139.968],[64,139.768],[64.316,139.621],[64.6527,139.53],[65,139.5],[101,139.5],[101.347,139.53],[101.684,139.621],[102,139.768],[102.286,139.968],[102.532,140.214],[102.732,140.5],[102.879,140.816],[102.97,141.153],[103,141.5],[103,157.5],[102.97,157.847],[102.879,158.184],[102.732,158.5],[102.532,158.786],[92.2856,169.032],[92,169.232],[91.684,169.379],[91.3473,169.47],[91,169.5],[75,169.5],[74.6527,169.47],[74.316,169.379],[74,169.232],[73.7144,169.032],[73.4679,168.786],[63.4679,158.786],[63.2679,158.5],[63.1206,158.184],[63.0304,157.847],[63,157.5],[63,141.5]]
EXCLUDE_OBJECT_DEFINE NAME=flowrate_5_id_4_copy_0 CENTER=83,122.5 POLYGON=[[63,109.5],[63.0304,109.153],[63.1206,108.816],[63.2679,108.5],[63.4679,108.214],[63.7144,107.968],[64,107.768],[64.316,107.621],[64.6527,107.53],[65,107.5],[101,107.5],[101.347,107.53],[101.684,107.621],[102,107.768],[102.286,107.968],[102.532,108.214],[102.732,108.5],[102.879,108.816],[102.97,109.153],[103,109.5],[103,125.5],[102.97,125.847],[102.879,126.184],[102.732,126.5],[102.532,126.786],[92.2856,137.032],[92,137.232],[91.684,137.379],[91.3473,137.47],[91,137.5],[75,137.5],[74.6527,137.47],[74.316,137.379],[74,137.232],[73.7144,137.032],[73.4679,136.786],[63.4679,126.786],[63.2679,126.5],[63.1206,126.184],[63.0304,125.847],[63,125.5],[63,109.5]]
EXCLUDE_OBJECT_DEFINE NAME=flowrate_m10_id_5_copy_0 CENTER=167,90.5 POLYGON=[[147,77.5],[147.03,77.1527],[147.121,76.816],[147.268,76.5],[147.468,76.2144],[147.714,75.9679],[148,75.7679],[148.316,75.6206],[148.653,75.5304],[149,75.5],[185,75.5],[185.347,75.5304],[185.684,75.6206],[186,75.7679],[186.286,75.9679],[186.532,76.2144],[186.732,76.5],[186.879,76.816],[186.97,77.1527],[187,77.5],[187,93.5],[186.97,93.8473],[186.879,94.184],[186.732,94.5],[186.532,94.7856],[176.286,105.032],[176,105.232],[175.684,105.379],[175.347,105.47],[175,105.5],[159,105.5],[158.653,105.47],[158.316,105.379],[158,105.232],[157.714,105.032],[147.468,94.7856],[147.268,94.5],[147.121,94.184],[147.03,93.8473],[147,93.5],[147,77.5]]
EXCLUDE_OBJECT_DEFINE NAME=flowrate_m15_id_6_copy_0 CENTER=125,90.5 POLYGON=[[105,77.5],[105.03,77.1527],[105.121,76.816],[105.268,76.5],[105.468,76.2144],[105.714,75.9679],[106,75.7679],[106.316,75.6206],[106.653,75.5304],[107,75.5],[143,75.5],[143.347,75.5304],[143.684,75.6206],[144,75.7679],[144.286,75.9679],[144.532,76.2144],[144.732,76.5],[144.879,76.816],[144.97,77.1527],[145,77.5],[145,93.5],[144.97,93.8473],[144.879,94.184],[144.732,94.5],[144.532,94.7856],[134.286,105.032],[134,105.232],[133.684,105.379],[133.347,105.47],[133,105.5],[117,105.5],[116.653,105.47],[116.316,105.379],[116,105.232],[115.714,105.032],[105.468,94.7856],[105.268,94.5],[105.121,94.184],[105.03,93.8473],[105,93.5],[105,77.5]]
EXCLUDE_OBJECT_DEFINE NAME=flowrate_m20_id_7_copy_0 CENTER=83,90.5 POLYGON=[[63,77.5],[63.0304,77.1527],[63.1206,76.816],[63.2679,76.5],[63.4679,76.2144],[63.7144,75.9679],[64,75.7679],[64.316,75.6206],[64.6527,75.5304],[65,75.5],[101,75.5],[101.347,75.5304],[101.684,75.6206],[102,75.7679],[102.286,75.9679],[102.532,76.2144],[102.732,76.5],[102.879,76.816],[102.97,77.1527],[103,77.5],[103,93.5],[102.97,93.8473],[102.879,94.184],[102.732,94.5],[102.532,94.7856],[92.2856,105.032],[92,105.232],[91.684,105.379],[91.3473,105.47],[91,105.5],[75,105.5],[74.6527,105.47],[74.316,105.379],[74,105.232],[73.7144,105.032],[73.4679,104.786],[63.4679,94.7856],[63.2679,94.5],[63.1206,94.184],[63.0304,93.8473],[63,93.5],[63,77.5]]
EXCLUDE_OBJECT_DEFINE NAME=flowrate_m5_id_8_copy_0 CENTER=167,122.5 POLYGON=[[147,109.5],[147.03,109.153],[147.121,108.816],[147.268,108.5],[147.468,108.214],[147.714,107.968],[148,107.768],[148.316,107.621],[148.653,107.53],[149,107.5],[185,107.5],[185.347,107.53],[185.684,107.621],[186,107.768],[186.286,107.968],[186.532,108.214],[186.732,108.5],[186.879,108.816],[186.97,109.153],[187,109.5],[187,125.5],[186.97,125.847],[186.879,126.184],[186.732,126.5],[186.532,126.786],[176.286,137.032],[176,137.232],[175.684,137.379],[175.347,137.47],[175,137.5],[159,137.5],[158.653,137.47],[158.316,137.379],[158,137.232],[157.714,137.032],[147.468,126.786],[147.268,126.5],[147.121,126.184],[147.03,125.847],[147,125.5],[147,109.5]]
M73 P0 R12
;TYPE:Custom
PRINT_START EXTRUDER_TEMP=245 BED_TEMP=65
G90
G21
M83 ; use relative distances for extrusion
; filament start gcode
M106 P3 S255


SET_PRESSURE_ADVANCE ADVANCE=0.015; Override pressure advance value
M106 S0
;LAYER_CHANGE
;Z:0.2
;HEIGHT:0.2
;BEFORE_LAYER_CHANGE
;0.2
G92 E0

G1 E-.5 F2100
;AFTER_LAYER_CHANGE
;0.2
;_SET_FAN_SPEED_CHANGING_LAYER
SET_VELOCITY_LIMIT ACCEL=7500
SET_VELOCITY_LIMIT SQUARE_CORNER_VELOCITY=12
; printing object flowrate_m20 id:7 copy 0
EXCLUDE_OBJECT_START NAME=flowrate_m20_id_7_copy_0
G1 X101.824 Y76.072 F36000
G1 Z.2
G1 E.5 F2100
;TYPE:Outer wall
;WIDTH:0.4
G1 F18000
G1 X102.06 Y76.237 E.00632
G1 X102.263 Y76.44 E.00632
G1 X102.428 Y76.676 E.00632
G1 X102.549 Y76.936 E.00632
G1 X102.624 Y77.214 E.00632
G1 X102.65 Y77.515 E.00666
G1 X102.65 Y93.485 E.35125
G1 X102.624 Y93.786 E.00666
G1 X102.549 Y94.064 E.00632
G1 X102.428 Y94.324 E.00632
G1 X102.263 Y94.56 E.00632
G1 X102.06 Y94.763 E.00632
G1 X101.824 Y94.928 E.00632
G1 X101.564 Y95.049 E.00632
G1 X101.286 Y95.124 E.00632
G1 X100.985 Y95.15 E.00666
G1 X94.985 Y95.15 E.13197
G1 X94.592 Y95.184 E.00868
G1 X94.196 Y95.29 E.00901
G1 X93.824 Y95.464 E.00902
G1 X93.489 Y95.699 E.00902
G1 X93.199 Y95.989 E.00901
G1 X92.964 Y96.324 E.00902
G1 X92.79 Y96.696 E.00901
G1 X92.684 Y97.092 E.00901
G1 X92.65 Y97.485 E.00868
G1 X92.65 Y103.485 E.13197
G1 X92.624 Y103.786 E.00666
G1 X92.549 Y104.064 E.00632
G1 X92.428 Y104.324 E.00632
G1 X92.263 Y104.56 E.00632
G1 X92.06 Y104.763 E.00632
G1 X91.824 Y104.928 E.00632
G1 X91.564 Y105.049 E.00632
G1 X91.286 Y105.124 E.00632
G1 X90.985 Y105.15 E.00666
G1 X75.015 Y105.15 E.35125
G1 X74.714 Y105.124 E.00666
G1 X74.436 Y105.049 E.00632
G1 X74.176 Y104.928 E.00632
G1 X73.94 Y104.763 E.00632
G1 X73.739 Y104.562 E.00625
G1 X73.542 Y104.26 E.00793
G1 X73.451 Y104.064 E.00476
G1 X73.376 Y103.786 E.00632
G1 X73.35 Y103.485 E.00666
G1 X73.35 Y97.485 E.13197
G1 X73.316 Y97.092 E.00868
G1 X73.21 Y96.696 E.00901
G1 X73.036 Y96.324 E.00902
G1 X72.801 Y95.989 E.00902
G1 X72.511 Y95.699 E.00902
G1 X72.176 Y95.464 E.00902
G1 X71.804 Y95.29 E.00902
G1 X71.408 Y95.184 E.00901
G1 X71.015 Y95.15 E.00868
G1 X65.015 Y95.15 E.13197
G1 X64.714 Y95.124 E.00666
G1 X64.436 Y95.049 E.00632
G1 X64.176 Y94.928 E.00632
G1 X63.94 Y94.763 E.00632
G1 X63.737 Y94.56 E.00632
G1 X63.572 Y94.324 E.00632
G1 X63.451 Y94.064 E.00632
G1 X63.376 Y93.786 E.00632
G1 X63.35 Y93.485 E.00666
G1 X63.35 Y77.515 E.35125
G1 X63.376 Y77.214 E.00666
G1 X63.451 Y76.936 E.00632
G1 X63.572 Y76.676 E.00632
G1 X63.737 Y76.44 E.00632
G1 X63.94 Y76.237 E.00632
G1 X64.176 Y76.072 E.00632
G1 X64.436 Y75.951 E.00632
G1 X64.714 Y75.876 E.00632
G1 X65.015 Y75.85 E.00666
G1 X65.493 Y75.85 E.01052
G1 X101.002 Y75.852 E.78102
G1 X101.286 Y75.876 E.00628
G1 X101.564 Y75.951 E.00632
G1 X101.788 Y76.055 E.00544
G1 E-.38333 F2100
;WIPE_START
G1 F18000
G1 X102.06 Y76.237 E-.03813
G1 X102.263 Y76.44 E-.03353
G1 X102.428 Y76.676 E-.03353
G1 X102.469 Y76.765 E-.01148
;WIPE_END
G1 X102.46 Y93.982 F36000
G1 E.5 F2100
;TYPE:Bottom surface
;WIDTH:0.402161
G1 F18000
G1 X101.882 Y94.561 E.01811
G1 X101.69 Y94.695 E.00518
G1 X101.472 Y94.797 E.00532
G1 X101.24 Y94.859 E.00532
G1 X101.06 Y94.875 E.004
G1 X102.375 Y93.56 E.04115
G1 X102.382 Y93.044 E.01141
G1 X100.544 Y94.882 E.05752
G1 X100.036 Y94.882 E.01124
G1 X102.382 Y92.536 E.07342
G1 X102.382 Y92.028 E.01124
G1 X99.528 Y94.882 E.08932
G1 X99.02 Y94.882 E.01124
G1 X102.382 Y91.52 E.10522
G1 X102.382 Y91.012 E.01124
G1 X98.512 Y94.882 E.12112
G1 X98.004 Y94.882 E.01124
G1 X102.382 Y90.504 E.13702
G1 X102.382 Y89.996 E.01124
G1 X97.496 Y94.882 E.15292
G1 X96.988 Y94.882 E.01124
G1 X102.382 Y89.488 E.16881
G1 X102.382 Y88.98 E.01124
G1 X96.48 Y94.882 E.18471
G1 X95.972 Y94.882 E.01124
G1 X102.382 Y88.472 E.20061
G1 X102.382 Y87.964 E.01124
G1 X95.464 Y94.882 E.21651
G1 X94.954 Y94.884 E.01128
G1 X102.382 Y87.456 E.23246
G1 X102.382 Y86.948 E.01124
G1 X94.124 Y95.206 E.25843
G1 E-.38333 F2100
;WIPE_START
G1 F18000
G1 X94.831 Y94.499 E-.11667
;WIPE_END
G1 X94.873 Y94.973 F36000
G1 X94.559 Y95.001
G1 X94.132 Y95.115
G1 X93.731 Y95.302
G1 X93.369 Y95.556
G1 X93.056 Y95.869
G1 X92.802 Y96.231
G1 X92.615 Y96.632
G1 X92.501 Y97.059
G1 X92.464 Y97.477
G1 X92.44 Y103.754
M73 P0 R11
G1 X92.384 Y103.962
M73 P0 R11
G1 X92.46 Y103.982
G1 E.5 F2100
G1 F18000
G1 X91.882 Y104.561 E.01811
G1 X91.69 Y104.695 E.00518
G1 X91.472 Y104.797 E.00532
G1 X91.24 Y104.859 E.00532
G1 X91.06 Y104.875 E.004
G1 X92.375 Y103.56 E.04115
G1 X92.382 Y103.044 E.01141
G1 X90.544 Y104.882 E.05752
G1 X90.036 Y104.882 E.01124
G1 X92.382 Y102.536 E.07342
G1 X92.382 Y102.028 E.01124
G1 X89.528 Y104.882 E.08932
G1 X89.02 Y104.882 E.01124
G1 X92.382 Y101.52 E.10522
G1 X92.382 Y101.012 E.01124
G1 X88.512 Y104.882 E.12112
G1 X88.004 Y104.882 E.01124
G1 X92.382 Y100.504 E.13702
G1 X92.382 Y99.996 E.01124
G1 X87.496 Y104.882 E.15292
G1 X86.988 Y104.882 E.01124
G1 X92.382 Y99.488 E.16882
G1 X92.382 Y98.98 E.01124
G1 X86.48 Y104.882 E.18471
G1 X85.972 Y104.882 E.01124
G1 X92.382 Y98.472 E.20061
G1 X92.382 Y97.964 E.01124
G1 X85.464 Y104.882 E.21651
G1 X84.956 Y104.882 E.01124
G1 X92.384 Y97.454 E.23246
G1 X92.42 Y97.045 E.00908
G1 X92.469 Y96.861 E.00422
G1 X84.448 Y104.882 E.25103
G1 X83.94 Y104.882 E.01124
G1 X102.382 Y86.44 E.57715
G1 X102.382 Y85.931 E.01124
G1 X83.431 Y104.882 E.59305
G1 X82.923 Y104.882 E.01124
G1 X102.382 Y85.423 E.60895
G1 X102.382 Y84.915 E.01124
G1 X82.415 Y104.882 E.62485
G1 X81.907 Y104.882 E.01124
G1 X102.382 Y84.407 E.64075
G1 X102.382 Y83.899 E.01124
G1 X81.399 Y104.882 E.65665
G1 X80.891 Y104.882 E.01124
G1 X102.382 Y83.391 E.67255
G1 X102.382 Y82.883 E.01124
G1 X80.383 Y104.882 E.68844
G1 X79.875 Y104.882 E.01124
G1 X102.382 Y82.375 E.70434
G1 X102.382 Y81.867 E.01124
G1 X79.367 Y104.882 E.72024
G1 X78.859 Y104.882 E.01124
G1 X102.382 Y81.359 E.73614
G1 X102.382 Y80.851 E.01124
G1 X78.351 Y104.882 E.75204
G1 X77.843 Y104.882 E.01124
G1 X102.382 Y80.343 E.76794
G1 X102.382 Y79.835 E.01124
G1 X77.335 Y104.882 E.78384
G1 X76.827 Y104.882 E.01124
G1 X102.382 Y79.327 E.79974
G1 X102.382 Y78.819 E.01124
G1 X76.319 Y104.882 E.81564
G1 X75.811 Y104.882 E.01124
G1 X102.382 Y78.311 E.83153
G1 X102.382 Y77.803 E.01124
G1 X75.303 Y104.882 E.84743
G1 X74.813 Y104.864 E.01084
G1 X102.364 Y77.313 E.86216
G1 X102.297 Y77.028 E.00649
G1 X102.247 Y76.922 E.00259
G1 X74.422 Y104.747 E.87077
G1 X74.31 Y104.695 E.00273
G1 X74.108 Y104.552 E.00546
G1 X102.052 Y76.608 E.87449
G1 X101.887 Y76.443 E.00518
G1 X101.783 Y76.37 E.00281
G1 X73.874 Y104.279 E.87338
G1 X73.777 Y104.13 E.00393
G1 X73.697 Y103.948 E.0044
G1 X101.448 Y76.197 E.86845
M73 P1 R11
G1 X101.24 Y76.141 E.00477
M73 P1 R11
G1 X101.015 Y76.122 E.00498
G1 X73.621 Y103.515 E.85727
G1 X73.618 Y103.011 E.01116
G1 X100.509 Y76.119 E.84155
G1 X100.001 Y76.119 E.01124
G1 X73.618 Y102.503 E.82566
G1 X73.618 Y101.995 E.01124
G1 X99.493 Y76.119 E.80976
G1 X98.985 Y76.119 E.01124
G1 X73.618 Y101.487 E.79386
G1 X73.618 Y100.979 E.01124
