; HEADER_BLOCK_START
; generated by OrcaSlicer 2.2.0 on 2025-11-26 at 10:11:05
; total layer number: 10
; filament_density: 1.04
; filament_diameter: 1.75
; max_z_height: 2.00
; HEADER_BLOCK_END

; THUMBNAIL_BLOCK_START

;
; THUMBNAIL_BLOCK_END

; external perimeters extrusion width = 0.40mm
; perimeters extrusion width = 0.40mm
; infill extrusion width = 0.40mm
; solid infill extrusion width = 0.48mm
; top infill extrusion width = 0.48mm
; support material extrusion width = 0.40mm
; first layer extrusion width = 0.40mm

; EXECUTABLE_BLOCK_START
EXCLUDE_OBJECT_DEFINE NAME=flowrate_0_id_0_copy_0 CENTER=125,170.5 POLYGON=[[105,157.5],[105.03,157.153],[105.121,156.816],[105.268,156.5],[105.468,156.214],[105.714,155.968],[106,155.768],[106.316,155.621],[106.653,155.53],[107,155.5],[143,155.5],[143.347,155.53],[143.684,155.621],[144,155.768],[144.286,155.968],[144.532,156.214],[144.732,156.5],[144.879,156.816],[144.97,157.153],[145,157.5],[145,173.5],[144.97,173.847],[144.879,174.184],[144.732,174.5],[144.532,174.786],[134.286,185.032],[134,185.232],[133.684,185.379],[133.347,185.47],[133,185.5],[117,185.5],[116.653,185.47],[116.316,185.379],[116,185.232],[115.714,185.032],[105.468,174.786],[105.268,174.5],[105.121,174.184],[105.03,173.847],[105,173.5],[105,157.5]]
M73 P0 R1
;TYPE:Custom
PRINT_START EXTRUDER_TEMP=260 BED_TEMP=110
G90
G21
M83 ; use relative distances for extrusion
; Filament gcode
SET_PRESSURE_ADVANCE ADVANCE=0.01; Override pressure advance value
M106 S0
;LAYER_CHANGE
;Z:0.2
;HEIGHT:0.2
;BEFORE_LAYER_CHANGE
;0.2
G92 E0

G1 E-.5 F2100
;AFTER_LAYER_CHANGE
;0.2
;_SET_FAN_SPEED_CHANGING_LAYER
SET_VELOCITY_LIMIT ACCEL=10000
SET_VELOCITY_LIMIT SQUARE_CORNER_VELOCITY=10
; printing object flowrate_0 id:0 copy 0
EXCLUDE_OBJECT_START NAME=flowrate_0_id_0_copy_0
G1 X143.824 Y156.072 F36000
G1 Z.2
G1 E.5 F2100
;TYPE:Outer wall
;WIDTH:0.4
G1 F24000
G1 X144.06 Y156.237 E.00811
G1 X144.263 Y156.44 E.00811
G1 X144.428 Y156.676 E.00811
G1 X144.549 Y156.936 E.00811
G1 X144.624 Y157.214 E.00811
G1 X144.65 Y157.515 E.00854
G1 X144.65 Y173.485 E.45045
G1 X144.624 Y173.786 E.00854
G1 X144.549 Y174.064 E.00811
G1 X144.428 Y174.324 E.00811
G1 X144.263 Y174.56 E.00811
G1 X144.06 Y174.763 E.00811
G1 X143.824 Y174.928 E.00811
G1 X143.564 Y175.049 E.00811
G1 X143.286 Y175.124 E.00811
G1 X142.985 Y175.15 E.00854
G1 X136.985 Y175.15 E.16924
G1 X136.592 Y175.184 E.01113
G1 X136.196 Y175.29 E.01156
G1 X135.824 Y175.464 E.01156
G1 X135.489 Y175.699 E.01156
G1 X135.199 Y175.989 E.01156
G1 X134.964 Y176.324 E.01156
G1 X134.79 Y176.696 E.01156
G1 X134.684 Y177.092 E.01156
G1 X134.65 Y177.485 E.01113
G1 X134.65 Y183.485 E.16924
G1 X134.624 Y183.786 E.00854
G1 X134.549 Y184.064 E.00811
G1 X134.428 Y184.324 E.00811
G1 X134.263 Y184.56 E.00811
G1 X134.06 Y184.763 E.00811
G1 X133.824 Y184.928 E.00811
G1 X133.564 Y185.049 E.00811
G1 X133.286 Y185.124 E.00811
G1 X132.985 Y185.15 E.00854
G1 X117.015 Y185.15 E.45045
G1 X116.714 Y185.124 E.00854
G1 X116.436 Y185.049 E.00811
G1 X116.176 Y184.928 E.00811
G1 X115.94 Y184.763 E.00811
M73 P1 R1
G1 X115.737 Y184.56 E.00811
M73 P1 R1
G1 X115.572 Y184.324 E.00811
G1 X115.451 Y184.064 E.00811
G1 X115.376 Y183.786 E.00811
G1 X115.35 Y183.485 E.00854
G1 X115.35 Y177.485 E.16924
G1 X115.316 Y177.092 E.01113
G1 X115.21 Y176.696 E.01156
G1 X115.036 Y176.324 E.01156
G1 X114.801 Y175.989 E.01156
G1 X114.511 Y175.699 E.01156
G1 X114.176 Y175.464 E.01156
G1 X113.804 Y175.29 E.01156
G1 X113.408 Y175.184 E.01156
G1 X113.015 Y175.15 E.01113
G1 X107.015 Y175.15 E.16924
G1 X106.714 Y175.124 E.00854
G1 X106.436 Y175.049 E.00811
G1 X106.176 Y174.928 E.00811
G1 X105.94 Y174.763 E.00811
G1 X105.737 Y174.56 E.00811
G1 X105.572 Y174.324 E.00811
G1 X105.451 Y174.064 E.00811
G1 X105.376 Y173.786 E.00811
G1 X105.35 Y173.485 E.00854
G1 X105.35 Y157.515 E.45045
G1 X105.376 Y157.214 E.00854
G1 X105.451 Y156.936 E.00811
G1 X105.572 Y156.676 E.00811
G1 X105.737 Y156.44 E.00811
G1 X105.94 Y156.237 E.00811
G1 X106.176 Y156.072 E.00811
G1 X106.436 Y155.951 E.00811
G1 X106.714 Y155.876 E.00811
G1 X107.015 Y155.85 E.00854
G1 X107.493 Y155.85 E.01349
G1 X143.002 Y155.852 E1.00158
G1 X143.286 Y155.876 E.00805
G1 X143.564 Y155.951 E.00811
G1 X143.788 Y156.055 E.00698
G1 E-.4125 F2100
;WIPE_START
G1 F24000
G1 X144.06 Y156.237 E-.0286
G1 X144.263 Y156.44 E-.02514
G1 X144.428 Y156.676 E-.02515
G1 X144.469 Y156.765 E-.00861
;WIPE_END
G1 X144.46 Y173.982 F36000
G1 E.5 F2100
;TYPE:Bottom surface
;WIDTH:0.402161
G1 F24000
G1 X143.882 Y174.561 E.02322
G1 X143.69 Y174.695 E.00664
G1 X143.472 Y174.797 E.00683
G1 X143.24 Y174.859 E.00683
G1 X143.06 Y174.875 E.00512
G1 X144.375 Y173.56 E.05277
G1 X144.382 Y173.044 E.01463
G1 X142.544 Y174.882 E.07377
G1 X142.036 Y174.882 E.01442
G1 X144.382 Y172.536 E.09416
G1 X144.382 Y172.028 E.01442
G1 X141.528 Y174.882 E.11454
G1 X141.02 Y174.882 E.01442
G1 X144.382 Y171.52 E.13493
G1 X144.382 Y171.012 E.01442
G1 X140.512 Y174.882 E.15532
M73 P2 R1
G1 X140.004 Y174.882 E.01442
M73 P2 R1
G1 X144.382 Y170.504 E.17571
G1 X144.382 Y169.996 E.01442
G1 X139.496 Y174.882 E.1961
G1 X138.988 Y174.882 E.01442
G1 X144.382 Y169.488 E.21649
G1 X144.382 Y168.98 E.01442
G1 X138.48 Y174.882 E.23688
G1 X137.972 Y174.882 E.01442
G1 X144.382 Y168.472 E.25727
G1 X144.382 Y167.964 E.01442
G1 X137.464 Y174.882 E.27765
G1 X136.954 Y174.884 E.01446
G1 X144.382 Y167.456 E.29811
G1 X144.382 Y166.948 E.01442
G1 X136.124 Y175.206 E.33142
G1 E-.4125 F2100
;WIPE_START
G1 F24000
G1 X136.831 Y174.499 E-.0875
;WIPE_END
G1 X136.873 Y174.973 F36000
G1 X136.559 Y175.001
G1 X136.132 Y175.115
G1 X135.731 Y175.302
G1 X135.369 Y175.556
G1 X135.056 Y175.869
G1 X134.802 Y176.231
G1 X134.615 Y176.632
G1 X134.501 Y177.059
G1 X134.464 Y177.477
G1 X134.44 Y183.754
G1 X134.384 Y183.962
G1 X134.46 Y183.982
G1 E.5 F2100
G1 F24000
G1 X133.882 Y184.561 E.02322
G1 X133.69 Y184.695 E.00664
G1 X133.472 Y184.797 E.00683
G1 X133.24 Y184.859 E.00683
G1 X133.06 Y184.875 E.00512
G1 X134.375 Y183.56 E.05277
G1 X134.382 Y183.044 E.01463
G1 X132.544 Y184.882 E.07377
G1 X132.036 Y184.882 E.01442
G1 X134.382 Y182.536 E.09416
M73 P3 R1
G1 X134.382 Y182.028 E.01442
M73 P3 R1
G1 X131.528 Y184.882 E.11454
G1 X131.02 Y184.882 E.01442
G1 X134.382 Y181.52 E.13493
G1 X134.382 Y181.012 E.01442
G1 X130.512 Y184.882 E.15532
G1 X130.004 Y184.882 E.01442
G1 X134.382 Y180.504 E.17571
G1 X134.382 Y179.996 E.01442
G1 X129.496 Y184.882 E.1961
G1 X128.988 Y184.882 E.01442
G1 X134.382 Y179.488 E.21649
G1 X134.382 Y178.98 E.01442
G1 X128.48 Y184.882 E.23688
G1 X127.972 Y184.882 E.01442
G1 X134.382 Y178.472 E.25727
G1 X134.382 Y177.964 E.01442
G1 X127.464 Y184.882 E.27765
G1 X126.956 Y184.882 E.01442
G1 X134.384 Y177.454 E.29811
G1 X134.42 Y177.045 E.01165
G1 X134.469 Y176.861 E.00541
G1 X126.448 Y184.882 E.32192
G1 X125.94 Y184.882 E.01442
G1 X144.382 Y166.44 E.74014
G1 X144.382 Y165.931 E.01442
G1 X125.431 Y184.882 E.76053
M73 P4 R1
G1 X124.923 Y184.882 E.01442
M73 P4 R1
G1 X144.382 Y165.423 E.78092
G1 X144.382 Y164.915 E.01442
G1 X124.415 Y184.882 E.8013
G1 X123.907 Y184.882 E.01442
G1 X144.382 Y164.407 E.82169
G1 X144.382 Y163.899 E.01442
G1 X123.399 Y184.882 E.84208
G1 X122.891 Y184.882 E.01442
G1 X144.382 Y163.391 E.86247
G1 X144.382 Y162.883 E.01442
G1 X122.383 Y184.882 E.88286
G1 X121.875 Y184.882 E.01442
G1 X144.382 Y162.375 E.90325
M73 P5 R1
G1 X144.382 Y161.867 E.01442
M73 P5 R1
G1 X121.367 Y184.882 E.92364
G1 X120.859 Y184.882 E.01442
G1 X144.382 Y161.359 E.94402
G1 X144.382 Y160.851 E.01442
G1 X120.351 Y184.882 E.96441
G1 X119.843 Y184.882 E.01442
G1 X144.382 Y160.343 E.9848
G1 X144.382 Y159.835 E.01442
G1 X119.335 Y184.882 E1.00519
G1 X118.827 Y184.882 E.01442
G1 X144.382 Y159.327 E1.02558
G1 X144.382 Y158.819 E.01442
G1 X118.319 Y184.882 E1.04597
M73 P6 R1
G1 X117.811 Y184.882 E.01442
M73 P6 R1
G1 X144.382 Y158.311 E1.06636
G1 X144.382 Y157.803 E.01442
G1 X117.303 Y184.882 E1.08675
G1 X116.813 Y184.864 E.0139
G1 X144.364 Y157.313 E1.10563
G1 X144.297 Y157.028 E.00832
G1 X144.247 Y156.922 E.00333
G1 X116.422 Y184.747 E1.11668
G1 X116.31 Y184.695 E.0035
G1 X116.108 Y184.552 E.00701
G1 X144.052 Y156.608 E1.12144
G1 X143.887 Y156.443 E.00664
G1 X143.783 Y156.37 E.00361
G1 X115.87 Y184.283 E1.12019
M73 P7 R1
G1 X115.805 Y184.19 E.00322
M73 P7 R1
G1 X115.697 Y183.948 E.00752
G1 X143.448 Y156.197 E1.11369
G1 X143.24 Y156.141 E.00612
G1 X143.015 Y156.121 E.00639
G1 X115.621 Y183.515 E1.09936
G1 X115.618 Y183.011 E.01431
G1 X142.509 Y156.119 E1.07921
G1 X142.001 Y156.119 E.01442
G1 X115.618 Y182.503 E1.05882
G1 X115.618 Y181.995 E.01442
G1 X141.493 Y156.119 E1.03843
G1 X140.985 Y156.119 E.01442
G1 X115.618 Y181.487 E1.01804
M73 P8 R1
G1 X115.618 Y180.979 E.01442
M73 P8 R1
G1 X140.477 Y156.119 E.99765
G1 X139.969 Y156.119 E.01442
G1 X115.618 Y180.471 E.97727
G1 X115.618 Y179.963 E.01442
G1 X139.461 Y156.119 E.95688
G1 X138.953 Y156.119 E.01442
G1 X115.618 Y179.455 E.93649
G1 X115.618 Y178.947 E.01442
G1 X138.445 Y156.119 E.9161
G1 X137.937 Y156.119 E.01442
G1 X115.618 Y178.438 E.89572
M73 P9 R1
G1 X115.618 Y177.93 E.01442
M73 P9 R1
G1 X137.429 Y156.119 E.87533
G1 X136.921 Y156.119 E.01442
G1 X115.614 Y177.426 E.8551
G1 X115.561 Y176.971 E.013
G1 X136.413 Y156.119 E.83685
G1 X135.905 Y156.119 E.01442
G1 X115.449 Y176.575 E.82095
G1 X115.287 Y176.229 E.01085
G1 X135.397 Y156.119 E.80704
G1 X134.889 Y156.119 E.01442
G1 X115.083 Y175.925 E.79484
G1 X115.007 Y175.816 E.00377
G1 X114.846 Y175.654 E.00648
G1 X134.381 Y156.119 E.78399
G1 X133.873 Y156.119 E.01442
G1 X114.575 Y175.417 E.77445
M73 P10 R1
G1 X114.271 Y175.213 E.01039
M73 P10 R1
G1 X133.365 Y156.119 E.76627
G1 X132.857 Y156.119 E.01442
G1 X113.925 Y175.051 E.75979
G1 X113.528 Y174.939 E.01168
G1 X132.349 Y156.119 E.7553
G1 X131.841 Y156.119 E.01442
G1 X113.073 Y174.886 E.75317
G1 X112.57 Y174.882 E.0143
G1 X131.333 Y156.119 E.75301
G1 X130.825 Y156.119 E.01442
G1 X112.061 Y174.882 E.75301
G1 X111.553 Y174.882 E.01442
G1 X130.317 Y156.119 E.75301
M73 P11 R1
G1 X129.809 Y156.119 E.01442
M73 P11 R1
G1 X111.045 Y174.882 E.75301
G1 X110.537 Y174.882 E.01442
G1 X129.301 Y156.119 E.75301
G1 X128.793 Y156.119 E.01442
G1 X110.029 Y174.882 E.75301
G1 X109.521 Y174.882 E.01442
G1 X128.285 Y156.119 E.75301
G1 X127.777 Y156.119 E.01442
G1 X109.013 Y174.882 E.75301
G1 X108.505 Y174.882 E.01442
G1 X127.269 Y156.119 E.75301
G1 X126.761 Y156.119 E.01442
G1 X107.997 Y174.882 E.75302
G1 X107.489 Y174.882 E.01442
G1 X126.253 Y156.119 E.75302
M73 P12 R1
G1 X125.745 Y156.119 E.01442
M73 P12 R1
G1 X106.985 Y174.878 E.75287
G1 X106.76 Y174.859 E.00639
G1 X106.552 Y174.803 E.00612
G1 X125.237 Y156.119 E.74984
G1 X124.729 Y156.119 E.01442
G1 X106.217 Y174.63 E.74289
G1 X106.113 Y174.557 E.00361
G1 X105.948 Y174.392 E.00664
G1 X124.221 Y156.119 E.73333
G1 X123.713 Y156.119 E.01442
G1 X105.753 Y174.078 E.72075
G1 X105.703 Y173.972 E.00333
G1 X105.636 Y173.687 E.00832
G1 X123.205 Y156.118 E.70504
G1 X122.696 Y156.118 E.01442
G1 X105.618 Y173.197 E.6854
G1 X105.618 Y172.689 E.01442
G1 X122.188 Y156.118 E.66501
M73 P13 R1
G1 X121.68 Y156.118 E.01442
M73 P13 R1
G1 X105.618 Y172.181 E.64462
G1 X105.618 Y171.673 E.01442
G1 X121.172 Y156.118 E.62423
G1 X120.664 Y156.118 E.01442
G1 X105.618 Y171.165 E.60385
G1 X105.618 Y170.657 E.01442
G1 X120.156 Y156.118 E.58346
G1 X119.648 Y156.118 E.01442
G1 X105.618 Y170.149 E.56307
G1 X105.618 Y169.641 E.01442
G1 X119.14 Y156.118 E.54268
G1 X118.632 Y156.118 E.01442
G1 X105.618 Y169.133 E.5223
G1 X105.618 Y168.625 E.01442
G1 X118.124 Y156.118 E.50191
M73 P14 R1
G1 X117.616 Y156.118 E.01442
M73 P14 R1
G1 X105.618 Y168.117 E.48152
G1 X105.618 Y167.609 E.01442
G1 X117.108 Y156.118 E.46113
G1 X116.6 Y156.118 E.01442
G1 X105.618 Y167.101 E.44074
G1 X105.618 Y166.593 E.01442
G1 X116.092 Y156.118 E.42036
G1 X115.584 Y156.118 E.01442
G1 X105.618 Y166.085 E.39997
G1 X105.618 Y165.577 E.01442
G1 X115.076 Y156.118 E.37958
G1 X114.568 Y156.118 E.01442
G1 X105.618 Y165.068 E.35919
G1 X105.618 Y164.56 E.01442
G1 X114.06 Y156.118 E.3388
G1 X113.552 Y156.118 E.01442
G1 X105.618 Y164.052 E.31842
G1 X105.618 Y163.544 E.01442
G1 X113.044 Y156.118 E.29803
G1 X112.536 Y156.118 E.01442
G1 X105.618 Y163.036 E.27764
M73 P15 R1
G1 X105.618 Y162.528 E.01442
M73 P15 R1
G1 X112.028 Y156.118 E.25725
G1 X111.52 Y156.118 E.01442
G1 X105.618 Y162.02 E.23687
G1 X105.618 Y161.512 E.01442
G1 X111.012 Y156.118 E.21648
G1 X110.504 Y156.118 E.01442
G1 X105.618 Y161.004 E.19609
G1 X105.618 Y160.496 E.01442
G1 X109.996 Y156.118 E.1757
G1 X109.488 Y156.118 E.01442
G1 X105.618 Y159.988 E.15531
G1 X105.618 Y159.48 E.01442
G1 X108.98 Y156.118 E.13493
G1 X108.472 Y156.118 E.01442
G1 X105.618 Y158.972 E.11454
G1 X105.618 Y158.464 E.01442
G1 X107.964 Y156.118 E.09415
G1 X107.456 Y156.118 E.01442
G1 X105.618 Y157.956 E.07376
G1 X105.625 Y157.44 E.01463
G1 X106.94 Y156.125 E.05277
G1 X106.76 Y156.141 E.00512
G1 X106.528 Y156.203 E.00682
G1 X106.31 Y156.305 E.00683
G1 X106.118 Y156.439 E.00665
G1 X105.54 Y157.018 E.02321
; stop printing object flowrate_0 id:0 copy 0
;LAYER_CHANGE
;Z:0.4
;HEIGHT:0.2
;BEFORE_LAYER_CHANGE
;0.4
G92 E0

G1 E-.4125 F2100
;WIPE_START
G1 F24000
G1 X106.118 Y156.439 E-.07157
G1 X106.267 Y156.335 E-.01593
;WIPE_END
EXCLUDE_OBJECT_END NAME=flowrate_0_id_0_copy_0
;AFTER_LAYER_CHANGE
;0.4
;_SET_FAN_SPEED_CHANGING_LAYER
SET_VELOCITY_LIMIT ACCEL=20000
SET_VELOCITY_LIMIT SQUARE_CORNER_VELOCITY=20
M140 S110 ; set bed temperature
; printing object flowrate_0 id:0 copy 0
EXCLUDE_OBJECT_START NAME=flowrate_0_id_0_copy_0
G1 X126.217 Y177.595 Z.4 F36000
G1 E.5 F2100
SET_VELOCITY_LIMIT ACCEL=10000 SQUARE_CORNER_VELOCITY=10
;TYPE:Outer wall
;WIDTH:0.4
G1 F15000
G1 X126.454 Y177.838 E.00958
G1 X126.655 Y178.098 E.00926
G1 X126.807 Y178.388 E.00925
G1 X126.93 Y178.693 E.00928
G1 X127.037 Y179.134 E.01278
G1 X127.113 Y179.573 E.01258
G1 X127.147 Y180.019 E.01261
G1 X127.151 Y180.822 E.02264
G1 X127.131 Y181.191 E.01044
G1 X127.016 Y181.924 E.02092
M73 P16 R1
G1 X126.856 Y182.415 E.01459
M73 P16 R1
G1 X126.615 Y182.883 E.01484
G1 X126.322 Y183.236 E.01295
G1 X125.941 Y183.509 E.01319
G1 X125.481 Y183.676 E.01382
G1 X125.002 Y183.725 E.01357
G1 X124.679 Y183.7 E.00915
G1 X124.363 Y183.636 E.00908
G1 X124.069 Y183.504 E.0091
G1 X123.787 Y183.33 E.00935
G1 X123.55 Y183.087 E.00957
G1 X123.348 Y182.828 E.00926
G1 X123.196 Y182.538 E.00924
G1 X123.072 Y182.233 E.00928
G1 X122.964 Y181.791 E.01284
G1 X122.887 Y181.349 E.01265
G1 X122.853 Y180.903 E.01262
G1 X122.844 Y180.458 E.01255
G1 X122.862 Y179.802 E.01852
G1 X122.893 Y179.468 E.00948
G1 X122.995 Y178.981 E.01401
G1 X123.164 Y178.512 E.01406
G1 X123.475 Y177.898 E.01943
G1 X123.797 Y177.597 E.01242
G1 X123.97 Y177.468 E.00609
G1 X124.16 Y177.362 E.00615
G1 X124.37 Y177.288 E.00628
G1 X124.777 Y177.221 E.01162
G1 X124.997 Y177.197 E.00625
G1 X125.322 Y177.222 E.00922
G1 X125.639 Y177.287 E.00912
G1 X125.935 Y177.419 E.00913
G1 X126.183 Y177.574 E.00826
SET_VELOCITY_LIMIT ACCEL=20000 SQUARE_CORNER_VELOCITY=20
G1 E-.36 F2100
;WIPE_START
G1 F15000
G1 X126.454 Y177.838 E-.05298
G1 X126.655 Y178.098 E-.04598
G1 X126.791 Y178.357 E-.04104
;WIPE_END
G1 X129.287 Y174.891 F36000
G1 X143.731 Y156.234
G1 X143.903 Y155.944
G1 E.5 F2100
SET_VELOCITY_LIMIT ACCEL=10000 SQUARE_CORNER_VELOCITY=10
G1 F15000
G1 X144.157 Y156.122 E.00875
G1 X144.378 Y156.343 E.00885
G1 X144.558 Y156.6 E.00885
G1 X144.691 Y156.885 E.00885
G1 X144.772 Y157.188 E.00885
G1 X144.8 Y157.509 E.00909
G1 X144.8 Y173.491 E.45081
G1 X144.772 Y173.812 E.00909
G1 X144.691 Y174.115 E.00885
G1 X144.558 Y174.4 E.00885
G1 X144.378 Y174.657 E.00885
G1 X144.157 Y174.878 E.00885
G1 X143.9 Y175.058 E.00885
G1 X143.615 Y175.191 E.00885
G1 X143.312 Y175.272 E.00885
G1 X142.991 Y175.3 E.00909
G1 X136.991 Y175.3 E.16924
G1 X136.618 Y175.333 E.01057
G1 X136.247 Y175.432 E.01082
G1 X135.9 Y175.594 E.01082
G1 X135.585 Y175.814 E.01082
G1 X135.314 Y176.085 E.01082
G1 X135.094 Y176.4 E.01082
G1 X134.932 Y176.747 E.01082
G1 X134.833 Y177.118 E.01082
G1 X134.8 Y177.491 E.01057
G1 X134.8 Y183.491 E.16924
G1 X134.772 Y183.812 E.00909
G1 X134.691 Y184.115 E.00885
