; HEADER_BLOCK_START
; generated by OrcaSlicer 2.2.0 on 2025-11-15 at 10:19:15
; total layer number: 10
; filament_density: 1.04
; filament_diameter: 1.75
; max_z_height: 2.00
; HEADER_BLOCK_END

; THUMBNAIL_BLOCK_START

;
; THUMBNAIL_BLOCK_END

; external perimeters extrusion width = 0.40mm
; perimeters extrusion width = 0.40mm
; infill extrusion width = 0.40mm
; solid infill extrusion width = 0.48mm
; top infill extrusion width = 0.48mm
; first layer extrusion width = 0.40mm

; external perimeters extrusion width = 0.40mm
; perimeters extrusion width = 0.40mm
; infill extrusion width = 0.40mm
; solid infill extrusion width = 0.48mm
; top infill extrusion width = 0.48mm
; first layer extrusion width = 0.40mm

; external perimeters extrusion width = 0.40mm
; perimeters extrusion width = 0.40mm
; infill extrusion width = 0.40mm
; solid infill extrusion width = 0.48mm
; top infill extrusion width = 0.48mm
; first layer extrusion width = 0.40mm

; external perimeters extrusion width = 0.40mm
; perimeters extrusion width = 0.40mm
; infill extrusion width = 0.40mm
; solid infill extrusion width = 0.48mm
; top infill extrusion width = 0.48mm
; first layer extrusion width = 0.40mm

; external perimeters extrusion width = 0.40mm
; perimeters extrusion width = 0.40mm
; infill extrusion width = 0.40mm
; solid infill extrusion width = 0.48mm
; top infill extrusion width = 0.48mm
; first layer extrusion width = 0.40mm

; external perimeters extrusion width = 0.40mm
; perimeters extrusion width = 0.40mm
; infill extrusion width = 0.40mm
; solid infill extrusion width = 0.48mm
; top infill extrusion width = 0.48mm
; first layer extrusion width = 0.40mm

; external perimeters extrusion width = 0.40mm
; perimeters extrusion width = 0.40mm
; infill extrusion width = 0.40mm
; solid infill extrusion width = 0.48mm
; top infill extrusion width = 0.48mm
; first layer extrusion width = 0.40mm

; external perimeters extrusion width = 0.40mm
; perimeters extrusion width = 0.40mm
; infill extrusion width = 0.40mm
; solid infill extrusion width = 0.48mm
; top infill extrusion width = 0.48mm
; first layer extrusion width = 0.40mm

; external perimeters extrusion width = 0.40mm
; perimeters extrusion width = 0.40mm
; infill extrusion width = 0.40mm
; solid infill extrusion width = 0.48mm
; top infill extrusion width = 0.48mm
; first layer extrusion width = 0.40mm

; external perimeters extrusion width = 0.40mm
; perimeters extrusion width = 0.40mm
; infill extrusion width = 0.40mm
; solid infill extrusion width = 0.48mm
; top infill extrusion width = 0.48mm
; first layer extrusion width = 0.40mm

; external perimeters extrusion width = 0.40mm
; perimeters extrusion width = 0.40mm
; infill extrusion width = 0.40mm
; solid infill extrusion width = 0.48mm
; top infill extrusion width = 0.48mm
; first layer extrusion width = 0.40mm

; EXECUTABLE_BLOCK_START
EXCLUDE_OBJECT_DEFINE NAME=flowrate_0_id_0_copy_0 CENTER=109.5,122.5 POLYGON=[[94.5,109],[94.5228,108.74],[94.5905,108.487],[94.701,108.25],[94.8509,108.036],[95.0358,107.851],[95.25,107.701],[95.487,107.59],[95.7395,107.523],[96,107.5],[123,107.5],[123.26,107.523],[123.513,107.59],[123.75,107.701],[123.964,107.851],[124.149,108.036],[124.299,108.25],[124.41,108.487],[124.477,108.74],[124.5,109],[124.5,126],[124.477,126.26],[124.41,126.513],[124.299,126.75],[119.299,136.75],[119.149,136.964],[118.964,137.149],[118.75,137.299],[118.513,137.41],[118.26,137.477],[118,137.5],[101,137.5],[100.74,137.477],[100.487,137.41],[100.25,137.299],[100.036,137.149],[99.8509,136.964],[99.701,136.75],[94.701,126.75],[94.5905,126.513],[94.5228,126.26],[94.5,126],[94.5,109]]
EXCLUDE_OBJECT_DEFINE NAME=flowrate_0.01_id_1_copy_0 CENTER=78.5,122.5 POLYGON=[[63.5,109],[63.5228,108.74],[63.5905,108.487],[63.701,108.25],[63.8509,108.036],[64.0358,107.851],[64.25,107.701],[64.487,107.59],[64.7395,107.523],[65,107.5],[92,107.5],[92.2605,107.523],[92.513,107.59],[92.75,107.701],[92.9642,107.851],[93.1491,108.036],[93.299,108.25],[93.4095,108.487],[93.4772,108.74],[93.5,109],[93.5,126],[93.4772,126.26],[93.4095,126.513],[93.299,126.75],[88.299,136.75],[88.1491,136.964],[87.9642,137.149],[87.75,137.299],[87.513,137.41],[87.2605,137.477],[87,137.5],[70,137.5],[69.7395,137.477],[69.487,137.41],[69.25,137.299],[69.0358,137.149],[68.8509,136.964],[68.701,136.75],[63.701,126.75],[63.5905,126.513],[63.5228,126.26],[63.5,126],[63.5,109]]
EXCLUDE_OBJECT_DEFINE NAME=flowrate_0.02_id_2_copy_0 CENTER=78.5,154.5 POLYGON=[[63.5,141],[63.5228,140.74],[63.5905,140.487],[63.701,140.25],[63.8509,140.036],[64.0358,139.851],[64.25,139.701],[64.487,139.59],[64.7395,139.523],[65,139.5],[92,139.5],[92.2605,139.523],[92.513,139.59],[92.75,139.701],[92.9642,139.851],[93.1491,140.036],[93.299,140.25],[93.4095,140.487],[93.4772,140.74],[93.5,141],[93.5,158],[93.4772,158.26],[93.4095,158.513],[93.299,158.75],[88.299,168.75],[88.1491,168.964],[87.9642,169.149],[87.75,169.299],[87.513,169.41],[87.2605,169.477],[87,169.5],[70,169.5],[69.7395,169.477],[69.487,169.41],[69.25,169.299],[69.0358,169.149],[68.8509,168.964],[68.701,168.75],[63.701,158.75],[63.5905,158.513],[63.5228,158.26],[63.5,158],[63.5,141]]
EXCLUDE_OBJECT_DEFINE NAME=flowrate_0.03_id_3_copy_0 CENTER=109.5,154.5 POLYGON=[[94.5,141],[94.5228,140.74],[94.5905,140.487],[94.701,140.25],[94.8509,140.036],[95.0358,139.851],[95.25,139.701],[95.487,139.59],[95.7395,139.523],[96,139.5],[123,139.5],[123.26,139.523],[123.513,139.59],[123.75,139.701],[123.964,139.851],[124.149,140.036],[124.299,140.25],[124.41,140.487],[124.477,140.74],[124.5,141],[124.5,158],[124.477,158.26],[124.41,158.513],[124.299,158.75],[119.299,168.75],[119.149,168.964],[118.964,169.149],[118.75,169.299],[118.513,169.41],[118.26,169.477],[118,169.5],[101,169.5],[100.74,169.477],[100.487,169.41],[100.25,169.299],[100.036,169.149],[99.8509,168.964],[99.701,168.75],[94.701,158.75],[94.5905,158.513],[94.5228,158.26],[94.5,158],[94.5,141]]
EXCLUDE_OBJECT_DEFINE NAME=flowrate_0.04_id_4_copy_0 CENTER=140.5,154.5 POLYGON=[[125.5,141],[125.523,140.74],[125.59,140.487],[125.701,140.25],[125.851,140.036],[126.036,139.851],[126.25,139.701],[126.487,139.59],[126.74,139.523],[127,139.5],[154,139.5],[154.26,139.523],[154.513,139.59],[154.75,139.701],[154.964,139.851],[155.149,140.036],[155.299,140.25],[155.41,140.487],[155.477,140.74],[155.5,141],[155.5,158],[155.477,158.26],[155.41,158.513],[155.299,158.75],[150.299,168.75],[150.149,168.964],[149.964,169.149],[149.75,169.299],[149.513,169.41],[149.26,169.477],[149,169.5],[132,169.5],[131.74,169.477],[131.487,169.41],[131.25,169.299],[131.036,169.149],[130.851,168.964],[130.701,168.75],[125.701,158.75],[125.59,158.513],[125.523,158.26],[125.5,158],[125.5,141]]
EXCLUDE_OBJECT_DEFINE NAME=flowrate_0.05_id_5_copy_0 CENTER=171.5,154.5 POLYGON=[[156.5,141],[156.523,140.74],[156.59,140.487],[156.701,140.25],[156.851,140.036],[157.036,139.851],[157.25,139.701],[157.487,139.59],[157.74,139.523],[158,139.5],[185,139.5],[185.26,139.523],[185.513,139.59],[185.75,139.701],[185.964,139.851],[186.149,140.036],[186.299,140.25],[186.41,140.487],[186.477,140.74],[186.5,141],[186.5,158],[186.477,158.26],[186.41,158.513],[186.299,158.75],[181.299,168.75],[181.149,168.964],[180.964,169.149],[180.75,169.299],[180.513,169.41],[180.26,169.477],[180,169.5],[163,169.5],[162.74,169.477],[162.487,169.41],[162.25,169.299],[162.036,169.149],[161.851,168.964],[161.701,168.75],[156.701,158.75],[156.59,158.513],[156.523,158.26],[156.5,158],[156.5,141]]
EXCLUDE_OBJECT_DEFINE NAME=flowrate_m0.01_id_6_copy_0 CENTER=140.5,122.5 POLYGON=[[125.5,109],[125.523,108.74],[125.59,108.487],[125.701,108.25],[125.851,108.036],[126.036,107.851],[126.25,107.701],[126.487,107.59],[126.74,107.523],[127,107.5],[154,107.5],[154.26,107.523],[154.513,107.59],[154.75,107.701],[154.964,107.851],[155.149,108.036],[155.299,108.25],[155.41,108.487],[155.477,108.74],[155.5,109],[155.5,126],[155.477,126.26],[155.41,126.513],[155.299,126.75],[150.299,136.75],[150.149,136.964],[149.964,137.149],[149.75,137.299],[149.513,137.41],[149.26,137.477],[149,137.5],[132,137.5],[131.74,137.477],[131.487,137.41],[131.25,137.299],[131.036,137.149],[130.851,136.964],[130.701,136.75],[125.701,126.75],[125.59,126.513],[125.523,126.26],[125.5,126],[125.5,109]]
EXCLUDE_OBJECT_DEFINE NAME=flowrate_m0.02_id_7_copy_0 CENTER=171.5,122.5 POLYGON=[[156.5,109],[156.523,108.74],[156.59,108.487],[156.701,108.25],[156.851,108.036],[157.036,107.851],[157.25,107.701],[157.487,107.59],[157.74,107.523],[158,107.5],[185,107.5],[185.26,107.523],[185.513,107.59],[185.75,107.701],[185.964,107.851],[186.149,108.036],[186.299,108.25],[186.41,108.487],[186.477,108.74],[186.5,109],[186.5,126],[186.477,126.26],[186.41,126.513],[186.299,126.75],[181.299,136.75],[181.149,136.964],[180.964,137.149],[180.75,137.299],[180.513,137.41],[180.26,137.477],[180,137.5],[163,137.5],[162.74,137.477],[162.487,137.41],[162.25,137.299],[162.036,137.149],[161.851,136.964],[161.701,136.75],[156.701,126.75],[156.59,126.513],[156.523,126.26],[156.5,126],[156.5,109]]
EXCLUDE_OBJECT_DEFINE NAME=flowrate_m0.03_id_8_copy_0 CENTER=171.5,90.5 POLYGON=[[156.5,77],[156.523,76.7395],[156.59,76.487],[156.701,76.25],[156.851,76.0358],[157.036,75.8509],[157.25,75.701],[157.487,75.5905],[157.74,75.5228],[158,75.5],[185,75.5],[185.26,75.5228],[185.513,75.5905],[185.75,75.701],[185.964,75.8509],[186.149,76.0358],[186.299,76.25],[186.41,76.487],[186.477,76.7395],[186.5,77],[186.5,94],[186.477,94.2605],[186.41,94.513],[186.299,94.75],[181.299,104.75],[181.149,104.964],[180.964,105.149],[180.75,105.299],[180.513,105.41],[180.26,105.477],[180,105.5],[163,105.5],[162.74,105.477],[162.487,105.41],[162.25,105.299],[162.036,105.149],[161.851,104.964],[161.701,104.75],[156.701,94.75],[156.59,94.513],[156.523,94.2605],[156.5,94],[156.5,77]]
EXCLUDE_OBJECT_DEFINE NAME=flowrate_m0.04_id_9_copy_0 CENTER=140.5,90.5 POLYGON=[[125.5,77],[125.523,76.7395],[125.59,76.487],[125.701,76.25],[125.851,76.0358],[126.036,75.8509],[126.25,75.701],[126.487,75.5905],[126.74,75.5228],[127,75.5],[154,75.5],[154.26,75.5228],[154.513,75.5905],[154.75,75.701],[154.964,75.8509],[155.149,76.0358],[155.299,76.25],[155.41,76.487],[155.477,76.7395],[155.5,77],[155.5,94],[155.477,94.2605],[155.41,94.513],[155.299,94.75],[150.299,104.75],[150.149,104.964],[149.964,105.149],[149.75,105.299],[149.513,105.41],[149.26,105.477],[149,105.5],[132,105.5],[131.74,105.477],[131.487,105.41],[131.25,105.299],[131.036,105.149],[130.851,104.964],[130.701,104.75],[125.701,94.75],[125.59,94.513],[125.523,94.2605],[125.5,94],[125.5,77]]
EXCLUDE_OBJECT_DEFINE NAME=flowrate_m0.05_id_10_copy_0 CENTER=109.5,90.5 POLYGON=[[94.5,77],[94.5228,76.7395],[94.5905,76.487],[94.701,76.25],[94.8509,76.0358],[95.0358,75.8509],[95.25,75.701],[95.487,75.5905],[95.7395,75.5228],[96,75.5],[123,75.5],[123.26,75.5228],[123.513,75.5905],[123.75,75.701],[123.964,75.8509],[124.149,76.0358],[124.299,76.25],[124.41,76.487],[124.477,76.7395],[124.5,77],[124.5,94],[124.477,94.2605],[124.41,94.513],[124.299,94.75],[119.299,104.75],[119.149,104.964],[118.964,105.149],[118.75,105.299],[118.513,105.41],[118.26,105.477],[118,105.5],[101,105.5],[100.74,105.477],[100.487,105.41],[100.25,105.299],[100.036,105.149],[99.8509,104.964],[99.701,104.75],[94.701,94.75],[94.5905,94.513],[94.5228,94.2605],[94.5,94],[94.5,77]]
M73 P0 R15
;TYPE:Custom
PRINT_START EXTRUDER_TEMP=260 BED_TEMP=110
G90
G21
M83 ; use relative distances for extrusion
; Filament gcode
SET_PRESSURE_ADVANCE ADVANCE=0.015; Override pressure advance value
M106 S0
;LAYER_CHANGE
;Z:0.2
;HEIGHT:0.2
;BEFORE_LAYER_CHANGE
;0.2
G92 E0

G1 E-.5 F2100
;AFTER_LAYER_CHANGE
;0.2
;_SET_FAN_SPEED_CHANGING_LAYER
SET_VELOCITY_LIMIT ACCEL=7500
SET_VELOCITY_LIMIT SQUARE_CORNER_VELOCITY=12
; printing object flowrate_0.05 id:5 copy 0
EXCLUDE_OBJECT_START NAME=flowrate_0.05_id_5_copy_0
G1 X185.199 Y159.131 F36000
G1 Z.2
G1 E.5 F2100
;TYPE:Outer wall
;WIDTH:0.4
G1 F7200
G1 X184.985 Y159.15 E.00625
G1 X182.985 Y159.15 E.05796
G1 X182.679 Y159.177 E.00891
G1 X182.367 Y159.26 E.00935
G1 X182.074 Y159.397 E.00935
G1 X181.81 Y159.582 E.00935
G1 X181.582 Y159.81 E.00935
G1 X181.397 Y160.074 E.00935
G1 X181.26 Y160.367 E.00935
G1 X181.177 Y160.679 E.00935
G1 X181.15 Y160.985 E.00891
G1 X181.15 Y167.985 E.20285
G1 X181.131 Y168.199 E.00625
G1 X181.079 Y168.393 E.0058
G1 X180.995 Y168.574 E.0058
G1 X180.88 Y168.738 E.0058
G1 X180.738 Y168.88 E.0058
G1 X180.574 Y168.995 E.0058
G1 X180.393 Y169.079 E.0058
G1 X180.199 Y169.131 E.0058
G1 X179.985 Y169.15 E.00625
G1 X163.015 Y169.15 E.49175
G1 X162.801 Y169.131 E.00625
G1 X162.607 Y169.079 E.0058
G1 X162.426 Y168.995 E.0058
G1 X162.262 Y168.88 E.0058
G1 X162.12 Y168.738 E.0058
G1 X162.005 Y168.574 E.0058
G1 X161.921 Y168.393 E.0058
G1 X161.869 Y168.199 E.0058
G1 X161.85 Y167.985 E.00625
G1 X161.85 Y160.985 E.20285
G1 X161.823 Y160.679 E.00891
G1 X161.74 Y160.367 E.00935
G1 X161.603 Y160.074 E.00935
G1 X161.418 Y159.81 E.00935
G1 X161.19 Y159.582 E.00935
G1 X160.926 Y159.397 E.00935
G1 X160.633 Y159.26 E.00935
G1 X160.321 Y159.177 E.00935
G1 X160.015 Y159.15 E.00891
G1 X158.015 Y159.15 E.05796
G1 X157.801 Y159.131 E.00625
G1 X157.607 Y159.079 E.0058
G1 X157.426 Y158.995 E.0058
G1 X157.262 Y158.88 E.0058
G1 X157.12 Y158.738 E.0058
G1 X157.005 Y158.574 E.0058
G1 X156.921 Y158.393 E.0058
G1 X156.869 Y158.199 E.0058
G1 X156.85 Y157.985 E.00625
G1 X156.85 Y141.015 E.49175
G1 X156.869 Y140.801 E.00625
G1 X156.921 Y140.607 E.0058
G1 X157.005 Y140.426 E.0058
G1 X157.12 Y140.262 E.0058
G1 X157.262 Y140.12 E.0058
G1 X157.426 Y140.005 E.0058
G1 X157.607 Y139.921 E.0058
G1 X157.801 Y139.869 E.0058
G1 X158.015 Y139.85 E.00625
G1 X159.473 Y139.85 E.04226
G1 X184.998 Y139.851 E.73966
G1 X185.199 Y139.869 E.00587
G1 X185.393 Y139.921 E.0058
G1 X185.574 Y140.005 E.0058
G1 X185.738 Y140.12 E.0058
G1 X185.88 Y140.262 E.0058
G1 X185.995 Y140.426 E.0058
G1 X186.079 Y140.607 E.0058
G1 X186.131 Y140.801 E.0058
G1 X186.15 Y141.015 E.00625
G1 X186.15 Y157.985 E.49175
G1 X186.131 Y158.199 E.00625
G1 X186.079 Y158.393 E.0058
G1 X185.995 Y158.574 E.0058
G1 X185.88 Y158.738 E.0058
G1 X185.738 Y158.88 E.0058
G1 X185.574 Y158.995 E.0058
G1 X185.393 Y159.079 E.0058
G1 X185.238 Y159.121 E.00464
G1 E-.35 F2100
;WIPE_START
G1 F7200
G1 X184.985 Y159.15 E-.03826
G1 X184.24 Y159.15 E-.11174
;WIPE_END
G1 X184.24 Y158.964 F36000
G1 X182.977 Y158.964
G1 X182.646 Y158.993
G1 X182.303 Y159.085
G1 X181.981 Y159.235
G1 X181.69 Y159.439
G1 X181.439 Y159.69
G1 X181.235 Y159.981
G1 X181.085 Y160.303
G1 X180.993 Y160.646
G1 X180.964 Y160.977
G1 X180.948 Y168.167
G1 X180.938 Y168.203
G1 X181.014 Y168.223
G1 E.5 F2100
;TYPE:Bottom surface
;WIDTH:0.403295
G1 F12000
G1 X180.558 Y168.68 E.01888
G1 X180.44 Y168.762 E.0042
G1 X180.301 Y168.827 E.00448
G1 X180.153 Y168.866 E.00449
G1 X179.845 Y168.882 E.00901
G1 X180.882 Y167.845 E.04289
G1 X180.882 Y167.336 E.01491
G1 X179.336 Y168.882 E.06397
G1 X178.826 Y168.882 E.01491
G1 X180.882 Y166.826 E.08505
G1 X180.882 Y166.316 E.01491
G1 X178.316 Y168.882 E.10612
G1 X177.807 Y168.882 E.01491
G1 X180.882 Y165.807 E.1272
G1 X180.882 Y165.297 E.01491
G1 X177.297 Y168.882 E.14828
G1 X176.787 Y168.882 E.01491
G1 X180.882 Y164.787 E.16936
G1 X180.882 Y164.278 E.01491
G1 X176.278 Y168.882 E.19044
G1 X175.768 Y168.882 E.01491
G1 X180.882 Y163.768 E.21152
G1 X180.882 Y163.258 E.01491
G1 X175.258 Y168.882 E.2326
G1 X174.749 Y168.882 E.01491
G1 X180.882 Y162.749 E.25368
G1 X180.882 Y162.239 E.01491
G1 X174.239 Y168.882 E.27476
G1 X173.73 Y168.882 E.01491
G1 X180.882 Y161.73 E.29584
G1 X180.882 Y161.22 E.01491
G1 X173.22 Y168.882 E.31692
G1 X172.71 Y168.882 E.01491
G1 X181.122 Y160.471 E.34789
G1 E-.35 F2100
;WIPE_START
G1 F12000
G1 X180.414 Y161.178 E-.15
;WIPE_END
G1 X180.964 Y161.178 F36000
G1 X180.964 Y160.977
G1 X180.993 Y160.646
G1 X181.085 Y160.303
G1 X181.235 Y159.981
G1 X181.439 Y159.69
G1 X181.69 Y159.439
G1 X181.981 Y159.235
G1 X182.303 Y159.085
G1 X182.646 Y158.993
G1 X182.977 Y158.964
G1 X184.977 Y158.964
G1 X185.102 Y158.953
