; HEADER_BLOCK_START
; generated by OrcaSlicer 2.2.0 on 2025-11-26 at 09:45:02
; total layer number: 10
; filament_density: 1.04
; filament_diameter: 1.75
; max_z_height: 2.00
; HEADER_BLOCK_END

; THUMBNAIL_BLOCK_START

;
; THUMBNAIL_BLOCK_END

; external perimeters extrusion width = 0.40mm
; perimeters extrusion width = 0.40mm
; infill extrusion width = 0.40mm
; solid infill extrusion width = 0.48mm
; top infill extrusion width = 0.48mm
; support material extrusion width = 0.40mm
; first layer extrusion width = 0.40mm

; external perimeters extrusion width = 0.40mm
; perimeters extrusion width = 0.40mm
; infill extrusion width = 0.40mm
; solid infill extrusion width = 0.48mm
; top infill extrusion width = 0.48mm
; support material extrusion width = 0.40mm
; first layer extrusion width = 0.40mm

; external perimeters extrusion width = 0.40mm
; perimeters extrusion width = 0.40mm
; infill extrusion width = 0.40mm
; solid infill extrusion width = 0.48mm
; top infill extrusion width = 0.48mm
; support material extrusion width = 0.40mm
; first layer extrusion width = 0.40mm

; external perimeters extrusion width = 0.40mm
; perimeters extrusion width = 0.40mm
; infill extrusion width = 0.40mm
; solid infill extrusion width = 0.48mm
; top infill extrusion width = 0.48mm
; support material extrusion width = 0.40mm
; first layer extrusion width = 0.40mm

; external perimeters extrusion width = 0.40mm
; perimeters extrusion width = 0.40mm
; infill extrusion width = 0.40mm
; solid infill extrusion width = 0.48mm
; top infill extrusion width = 0.48mm
; support material extrusion width = 0.40mm
; first layer extrusion width = 0.40mm

; external perimeters extrusion width = 0.40mm
; perimeters extrusion width = 0.40mm
; infill extrusion width = 0.40mm
; solid infill extrusion width = 0.48mm
; top infill extrusion width = 0.48mm
; support material extrusion width = 0.40mm
; first layer extrusion width = 0.40mm

; external perimeters extrusion width = 0.40mm
; perimeters extrusion width = 0.40mm
; infill extrusion width = 0.40mm
; solid infill extrusion width = 0.48mm
; top infill extrusion width = 0.48mm
; support material extrusion width = 0.40mm
; first layer extrusion width = 0.40mm

; external perimeters extrusion width = 0.40mm
; perimeters extrusion width = 0.40mm
; infill extrusion width = 0.40mm
; solid infill extrusion width = 0.48mm
; top infill extrusion width = 0.48mm
; support material extrusion width = 0.40mm
; first layer extrusion width = 0.40mm

; external perimeters extrusion width = 0.40mm
; perimeters extrusion width = 0.40mm
; infill extrusion width = 0.40mm
; solid infill extrusion width = 0.48mm
; top infill extrusion width = 0.48mm
; support material extrusion width = 0.40mm
; first layer extrusion width = 0.40mm

; external perimeters extrusion width = 0.40mm
; perimeters extrusion width = 0.40mm
; infill extrusion width = 0.40mm
; solid infill extrusion width = 0.48mm
; top infill extrusion width = 0.48mm
; support material extrusion width = 0.40mm
; first layer extrusion width = 0.40mm

; EXECUTABLE_BLOCK_START
EXCLUDE_OBJECT_DEFINE NAME=flowrate_0_id_0_copy_0 CENTER=125,170.5 POLYGON=[[105,157.5],[105.03,157.153],[105.121,156.816],[105.268,156.5],[105.468,156.214],[105.714,155.968],[106,155.768],[106.316,155.621],[106.653,155.53],[107,155.5],[143,155.5],[143.347,155.53],[143.684,155.621],[144,155.768],[144.286,155.968],[144.532,156.214],[144.732,156.5],[144.879,156.816],[144.97,157.153],[145,157.5],[145,173.5],[144.97,173.847],[144.879,174.184],[144.732,174.5],[144.532,174.786],[134.286,185.032],[134,185.232],[133.684,185.379],[133.347,185.47],[133,185.5],[117,185.5],[116.653,185.47],[116.316,185.379],[116,185.232],[115.714,185.032],[105.468,174.786],[105.268,174.5],[105.121,174.184],[105.03,173.847],[105,173.5],[105,157.5]]
EXCLUDE_OBJECT_DEFINE NAME=flowrate_m1_id_1_copy_0 CENTER=83,138.5 POLYGON=[[63,125.5],[63.0304,125.153],[63.1206,124.816],[63.2679,124.5],[63.4679,124.214],[63.7144,123.968],[64,123.768],[64.316,123.621],[64.6527,123.53],[65,123.5],[101,123.5],[101.347,123.53],[101.684,123.621],[102,123.768],[102.286,123.968],[102.532,124.214],[102.732,124.5],[102.879,124.816],[102.97,125.153],[103,125.5],[103,141.5],[102.97,141.847],[102.879,142.184],[102.732,142.5],[102.532,142.786],[92.2856,153.032],[92,153.232],[91.684,153.379],[91.3473,153.47],[91,153.5],[75,153.5],[74.6527,153.47],[74.316,153.379],[74,153.232],[73.7144,153.032],[73.4679,152.786],[63.4679,142.786],[63.2679,142.5],[63.1206,142.184],[63.0304,141.847],[63,141.5],[63,125.5]]
EXCLUDE_OBJECT_DEFINE NAME=flowrate_m2_id_2_copy_0 CENTER=125,138.5 POLYGON=[[105,125.5],[105.03,125.153],[105.121,124.816],[105.268,124.5],[105.468,124.214],[105.714,123.968],[106,123.768],[106.316,123.621],[106.653,123.53],[107,123.5],[143,123.5],[143.347,123.53],[143.684,123.621],[144,123.768],[144.286,123.968],[144.532,124.214],[144.732,124.5],[144.879,124.816],[144.97,125.153],[145,125.5],[145,141.5],[144.97,141.847],[144.879,142.184],[144.732,142.5],[144.532,142.786],[134.286,153.032],[134,153.232],[133.684,153.379],[133.347,153.47],[133,153.5],[117,153.5],[116.653,153.47],[116.316,153.379],[116,153.232],[115.714,153.032],[105.468,142.786],[105.268,142.5],[105.121,142.184],[105.03,141.847],[105,141.5],[105,125.5]]
EXCLUDE_OBJECT_DEFINE NAME=flowrate_m3_id_3_copy_0 CENTER=167,138.5 POLYGON=[[147,125.5],[147.03,125.153],[147.121,124.816],[147.268,124.5],[147.468,124.214],[147.714,123.968],[148,123.768],[148.316,123.621],[148.653,123.53],[149,123.5],[185,123.5],[185.347,123.53],[185.684,123.621],[186,123.768],[186.286,123.968],[186.532,124.214],[186.732,124.5],[186.879,124.816],[186.97,125.153],[187,125.5],[187,141.5],[186.97,141.847],[186.879,142.184],[186.732,142.5],[186.532,142.786],[176.286,153.032],[176,153.232],[175.684,153.379],[175.347,153.47],[175,153.5],[159,153.5],[158.653,153.47],[158.316,153.379],[158,153.232],[157.714,153.032],[147.468,142.786],[147.268,142.5],[147.121,142.184],[147.03,141.847],[147,141.5],[147,125.5]]
EXCLUDE_OBJECT_DEFINE NAME=flowrate_m4_id_4_copy_0 CENTER=83,106.5 POLYGON=[[63,93.5],[63.0304,93.1527],[63.1206,92.816],[63.2679,92.5],[63.4679,92.2144],[63.7144,91.9679],[64,91.7679],[64.316,91.6206],[64.6527,91.5304],[65,91.5],[101,91.5],[101.347,91.5304],[101.684,91.6206],[102,91.7679],[102.286,91.9679],[102.532,92.2144],[102.732,92.5],[102.879,92.816],[102.97,93.1527],[103,93.5],[103,109.5],[102.97,109.847],[102.879,110.184],[102.732,110.5],[102.532,110.786],[92.2856,121.032],[92,121.232],[91.684,121.379],[91.3473,121.47],[91,121.5],[75,121.5],[74.6527,121.47],[74.316,121.379],[74,121.232],[73.7144,121.032],[73.4679,120.786],[63.4679,110.786],[63.2679,110.5],[63.1206,110.184],[63.0304,109.847],[63,109.5],[63,93.5]]
EXCLUDE_OBJECT_DEFINE NAME=flowrate_m5_id_5_copy_0 CENTER=125,106.5 POLYGON=[[105,93.5],[105.03,93.1527],[105.121,92.816],[105.268,92.5],[105.468,92.2144],[105.714,91.9679],[106,91.7679],[106.316,91.6206],[106.653,91.5304],[107,91.5],[143,91.5],[143.347,91.5304],[143.684,91.6206],[144,91.7679],[144.286,91.9679],[144.532,92.2144],[144.732,92.5],[144.879,92.816],[144.97,93.1527],[145,93.5],[145,109.5],[144.97,109.847],[144.879,110.184],[144.732,110.5],[144.532,110.786],[134.286,121.032],[134,121.232],[133.684,121.379],[133.347,121.47],[133,121.5],[117,121.5],[116.653,121.47],[116.316,121.379],[116,121.232],[115.714,121.032],[105.468,110.786],[105.268,110.5],[105.121,110.184],[105.03,109.847],[105,109.5],[105,93.5]]
EXCLUDE_OBJECT_DEFINE NAME=flowrate_m6_id_6_copy_0 CENTER=167,106.5 POLYGON=[[147,93.5],[147.03,93.1527],[147.121,92.816],[147.268,92.5],[147.468,92.2144],[147.714,91.9679],[148,91.7679],[148.316,91.6206],[148.653,91.5304],[149,91.5],[185,91.5],[185.347,91.5304],[185.684,91.6206],[186,91.7679],[186.286,91.9679],[186.532,92.2144],[186.732,92.5],[186.879,92.816],[186.97,93.1527],[187,93.5],[187,109.5],[186.97,109.847],[186.879,110.184],[186.732,110.5],[186.532,110.786],[176.286,121.032],[176,121.232],[175.684,121.379],[175.347,121.47],[175,121.5],[159,121.5],[158.653,121.47],[158.316,121.379],[158,121.232],[157.714,121.032],[147.468,110.786],[147.268,110.5],[147.121,110.184],[147.03,109.847],[147,109.5],[147,93.5]]
EXCLUDE_OBJECT_DEFINE NAME=flowrate_m7_id_7_copy_0 CENTER=167,74.5 POLYGON=[[147,61.5],[147.03,61.1527],[147.121,60.816],[147.268,60.5],[147.468,60.2144],[147.714,59.9679],[148,59.7679],[148.316,59.6206],[148.653,59.5304],[149,59.5],[185,59.5],[185.347,59.5304],[185.684,59.6206],[186,59.7679],[186.286,59.9679],[186.532,60.2144],[186.732,60.5],[186.879,60.816],[186.97,61.1527],[187,61.5],[187,77.5],[186.97,77.8473],[186.879,78.184],[186.732,78.5],[186.532,78.7856],[176.286,89.0321],[176,89.232],[175.684,89.3794],[175.347,89.4696],[175,89.5],[159,89.5],[158.653,89.4696],[158.316,89.3794],[158,89.232],[157.714,89.0321],[147.468,78.7856],[147.268,78.5],[147.121,78.184],[147.03,77.8473],[147,77.5],[147,61.5]]
EXCLUDE_OBJECT_DEFINE NAME=flowrate_m8_id_8_copy_0 CENTER=125,74.5 POLYGON=[[105,61.5],[105.03,61.1527],[105.121,60.816],[105.268,60.5],[105.468,60.2144],[105.714,59.9679],[106,59.7679],[106.316,59.6206],[106.653,59.5304],[107,59.5],[143,59.5],[143.347,59.5304],[143.684,59.6206],[144,59.7679],[144.286,59.9679],[144.532,60.2144],[144.732,60.5],[144.879,60.816],[144.97,61.1527],[145,61.5],[145,77.5],[144.97,77.8473],[144.879,78.184],[144.732,78.5],[144.532,78.7856],[134.286,89.0321],[134,89.232],[133.684,89.3794],[133.347,89.4696],[133,89.5],[117,89.5],[116.653,89.4696],[116.316,89.3794],[116,89.232],[115.714,89.0321],[105.468,78.7856],[105.268,78.5],[105.121,78.184],[105.03,77.8473],[105,77.5],[105,61.5]]
EXCLUDE_OBJECT_DEFINE NAME=flowrate_m9_id_9_copy_0 CENTER=83,74.5 POLYGON=[[63,61.5],[63.0304,61.1527],[63.1206,60.816],[63.2679,60.5],[63.4679,60.2144],[63.7144,59.9679],[64,59.7679],[64.316,59.6206],[64.6527,59.5304],[65,59.5],[101,59.5],[101.347,59.5304],[101.684,59.6206],[102,59.7679],[102.286,59.9679],[102.532,60.2144],[102.732,60.5],[102.879,60.816],[102.97,61.1527],[103,61.5],[103,77.5],[102.97,77.8473],[102.879,78.184],[102.732,78.5],[102.532,78.7856],[92.2856,89.0321],[92,89.232],[91.684,89.3794],[91.3473,89.4696],[91,89.5],[75,89.5],[74.6527,89.4696],[74.316,89.3794],[74,89.232],[73.7144,89.0321],[73.4679,88.7856],[63.4679,78.7856],[63.2679,78.5],[63.1206,78.184],[63.0304,77.8473],[63,77.5],[63,61.5]]
M73 P0 R14
;TYPE:Custom
PRINT_START EXTRUDER_TEMP=260 BED_TEMP=110
G90
G21
M83 ; use relative distances for extrusion
; Filament gcode
SET_PRESSURE_ADVANCE ADVANCE=0.01; Override pressure advance value
M106 S0
;LAYER_CHANGE
;Z:0.2
;HEIGHT:0.2
;BEFORE_LAYER_CHANGE
;0.2
G92 E0

G1 E-.5 F2100
;AFTER_LAYER_CHANGE
;0.2
;_SET_FAN_SPEED_CHANGING_LAYER
SET_VELOCITY_LIMIT ACCEL=10000
SET_VELOCITY_LIMIT SQUARE_CORNER_VELOCITY=10
; printing object flowrate_m3 id:3 copy 0
EXCLUDE_OBJECT_START NAME=flowrate_m3_id_3_copy_0
G1 X185.286 Y143.124 F36000
G1 Z.2
G1 E.5 F2100
;TYPE:Outer wall
;WIDTH:0.4
G1 F24000
G1 X184.985 Y143.15 E.00828
G1 X178.985 Y143.15 E.16416
G1 X178.592 Y143.184 E.01079
G1 X178.196 Y143.29 E.01121
G1 X177.824 Y143.464 E.01121
G1 X177.489 Y143.699 E.01121
G1 X177.199 Y143.989 E.01121
G1 X176.964 Y144.324 E.01121
G1 X176.79 Y144.696 E.01121
G1 X176.684 Y145.092 E.01121
G1 X176.65 Y145.485 E.01079
G1 X176.65 Y151.485 E.16416
G1 X176.624 Y151.786 E.00828
G1 X176.549 Y152.064 E.00786
G1 X176.428 Y152.324 E.00786
G1 X176.263 Y152.56 E.00786
G1 X176.06 Y152.763 E.00786
G1 X175.824 Y152.928 E.00786
G1 X175.564 Y153.049 E.00786
G1 X175.286 Y153.124 E.00786
G1 X174.985 Y153.15 E.00828
G1 X159.015 Y153.15 E.43693
G1 X158.714 Y153.124 E.00828
G1 X158.436 Y153.049 E.00786
G1 X158.176 Y152.928 E.00786
G1 X157.94 Y152.763 E.00786
G1 X157.737 Y152.56 E.00786
G1 X157.572 Y152.324 E.00786
G1 X157.451 Y152.064 E.00786
G1 X157.376 Y151.786 E.00786
G1 X157.35 Y151.485 E.00828
G1 X157.35 Y145.485 E.16416
G1 X157.316 Y145.092 E.01079
G1 X157.21 Y144.696 E.01121
G1 X157.036 Y144.324 E.01121
G1 X156.801 Y143.989 E.01121
G1 X156.511 Y143.699 E.01121
G1 X156.176 Y143.464 E.01121
G1 X155.804 Y143.29 E.01121
G1 X155.408 Y143.184 E.01121
G1 X155.015 Y143.15 E.01079
G1 X149.015 Y143.15 E.16416
G1 X148.714 Y143.124 E.00828
G1 X148.436 Y143.049 E.00786
G1 X148.176 Y142.928 E.00786
G1 X147.94 Y142.763 E.00786
G1 X147.737 Y142.56 E.00786
G1 X147.572 Y142.324 E.00786
G1 X147.451 Y142.064 E.00786
G1 X147.376 Y141.786 E.00786
G1 X147.35 Y141.485 E.00828
G1 X147.35 Y125.515 E.43693
G1 X147.376 Y125.214 E.00828
G1 X147.451 Y124.936 E.00786
G1 X147.572 Y124.676 E.00786
G1 X147.737 Y124.44 E.00786
G1 X147.94 Y124.237 E.00786
G1 X148.176 Y124.072 E.00786
G1 X148.436 Y123.951 E.00786
G1 X148.714 Y123.876 E.00786
G1 X149.015 Y123.85 E.00828
G1 X149.987 Y123.85 E.02658
G1 X185.002 Y123.852 E.95804
G1 X185.286 Y123.876 E.00781
G1 X185.564 Y123.951 E.00786
G1 X185.824 Y124.072 E.00786
G1 X186.06 Y124.237 E.00786
G1 X186.263 Y124.44 E.00786
G1 X186.428 Y124.676 E.00786
G1 X186.549 Y124.936 E.00786
G1 X186.624 Y125.214 E.00786
G1 X186.65 Y125.515 E.00828
G1 X186.65 Y141.485 E.43693
G1 X186.624 Y141.786 E.00828
G1 X186.549 Y142.064 E.00786
G1 X186.428 Y142.324 E.00786
G1 X186.263 Y142.56 E.00786
G1 X186.06 Y142.763 E.00786
G1 X185.824 Y142.928 E.00786
G1 X185.564 Y143.049 E.00786
G1 X185.325 Y143.113 E.00677
G1 E-.4125 F2100
;WIPE_START
G1 F24000
G1 X184.985 Y143.15 E-.02994
G1 X184.327 Y143.15 E-.05756
;WIPE_END
G1 X186.46 Y141.982 F36000
G1 E.5 F2100
;TYPE:Bottom surface
;WIDTH:0.402161
G1 F24000
G1 X185.882 Y142.561 E.02252
G1 X185.69 Y142.695 E.00644
G1 X185.472 Y142.797 E.00662
G1 X185.24 Y142.859 E.00662
G1 X185.06 Y142.875 E.00497
G1 X186.375 Y141.56 E.05119
G1 X186.382 Y141.044 E.01419
G1 X184.544 Y142.882 E.07155
G1 X184.036 Y142.882 E.01398
G1 X186.382 Y140.536 E.09133
G1 X186.382 Y140.028 E.01398
G1 X183.528 Y142.882 E.11111
G1 X183.02 Y142.882 E.01398
G1 X186.382 Y139.52 E.13088
G1 X186.382 Y139.012 E.01398
G1 X182.512 Y142.882 E.15066
G1 X182.004 Y142.882 E.01398
G1 X186.382 Y138.504 E.17044
G1 X186.382 Y137.996 E.01398
G1 X181.496 Y142.882 E.19022
G1 X180.988 Y142.882 E.01398
G1 X186.382 Y137.488 E.20999
G1 X186.382 Y136.98 E.01398
G1 X180.48 Y142.882 E.22977
G1 X179.972 Y142.882 E.01398
G1 X186.382 Y136.472 E.24955
G1 X186.382 Y135.964 E.01398
G1 X179.464 Y142.882 E.26932
G1 X178.954 Y142.884 E.01403
G1 X186.382 Y135.456 E.28917
G1 X186.382 Y134.948 E.01398
G1 X178.124 Y143.206 E.32147
G1 E-.4125 F2100
;WIPE_START
G1 F24000
G1 X178.831 Y142.499 E-.0875
;WIPE_END
G1 X178.873 Y142.973 F36000
G1 X178.559 Y143.001
G1 X178.132 Y143.115
G1 X177.731 Y143.302
G1 X177.369 Y143.556
G1 X177.056 Y143.869
G1 X176.802 Y144.231
G1 X176.615 Y144.632
G1 X176.501 Y145.059
G1 X176.464 Y145.477
G1 X176.44 Y151.754
G1 X176.384 Y151.962
G1 X176.46 Y151.982
G1 E.5 F2100
G1 F24000
G1 X175.882 Y152.561 E.02252
G1 X175.69 Y152.695 E.00644
G1 X175.472 Y152.797 E.00662
G1 X175.24 Y152.859 E.00662
G1 X175.06 Y152.875 E.00497
G1 X176.375 Y151.56 E.05119
G1 X176.382 Y151.044 E.01419
G1 X174.544 Y152.882 E.07155
G1 X174.036 Y152.882 E.01398
G1 X176.382 Y150.536 E.09133
G1 X176.382 Y150.028 E.01398
G1 X173.528 Y152.882 E.11111
G1 X173.02 Y152.882 E.01398
G1 X176.382 Y149.52 E.13089
G1 X176.382 Y149.012 E.01398
G1 X172.512 Y152.882 E.15066
G1 X172.004 Y152.882 E.01398
G1 X176.382 Y148.504 E.17044
G1 X176.382 Y147.996 E.01398
G1 X171.496 Y152.882 E.19022
G1 X170.988 Y152.882 E.01398
G1 X176.382 Y147.488 E.20999
G1 X176.382 Y146.98 E.01398
G1 X170.48 Y152.882 E.22977
G1 X169.972 Y152.882 E.01398
G1 X176.382 Y146.472 E.24955
G1 X176.382 Y145.964 E.01398
G1 X169.464 Y152.882 E.26932
G1 X168.956 Y152.882 E.01398
G1 X176.384 Y145.454 E.28917
G1 X176.42 Y145.045 E.0113
G1 X176.469 Y144.861 E.00525
G1 X168.448 Y152.882 E.31226
G1 X167.94 Y152.882 E.01398
G1 X186.382 Y134.44 E.71793
G1 X186.382 Y133.931 E.01398
G1 X167.431 Y152.882 E.73771
G1 X166.923 Y152.882 E.01398
G1 X186.382 Y133.423 E.75749
G1 X186.382 Y132.915 E.01398
G1 X166.415 Y152.882 E.77726
G1 X165.907 Y152.882 E.01398
G1 X186.382 Y132.407 E.79704
