; HEADER_BLOCK_START
; generated by OrcaSlicer 2.2.0 on 2025-10-29 at 09:36:32
; total layer number: 0
; filament_density: 1.24
; filament_diameter: 1.75
; max_z_height: 0.20
; HEADER_BLOCK_END

; THUMBNAIL_BLOCK_START

;
; THUMBNAIL_BLOCK_END

; THUMBNAIL_BLOCK_START

;
; THUMBNAIL_BLOCK_END

; external perimeters extrusion width = 0.40mm
; perimeters extrusion width = 0.40mm
; infill extrusion width = 0.40mm
; solid infill extrusion width = 0.40mm
; top infill extrusion width = 0.40mm
; first layer extrusion width = 0.40mm

; EXECUTABLE_BLOCK_START
EXCLUDE_OBJECT_DEFINE NAME=Orca-PA-Calibration-Test CENTER=0,0 POLYGON=[[25,25],[225,25],[225,220],[25,220],[25,25]]
M73 P0 R2
;TYPE:Custom
PRINT_START EXTRUDER_TEMP=220 BED_TEMP=55
G90
G21
M83 ; use relative distances for extrusion
; filament start gcode
M106 P3 S255


SET_VELOCITY_LIMIT ACCEL=12500
SET_VELOCITY_LIMIT SQUARE_CORNER_VELOCITY=12
G1 Z.2 F36000
G1 E-.5 F2100
G1 X75 Y159.25 F36000
G1 E.5 F2100
G1 F600
G1 X75 Y85.75 E4.08554
SET_PRESSURE_ADVANCE ADVANCE=0; Override pressure advance value
M73 P4 R2
G1 E-.5 F2100
M73 P4 R2
G1 X75 Y85.75 F36000
G1 E.5 F2100
G1 F600
G1 X95 Y85.75 E.92643
M73 P6 R2
G1 F6420
M73 P6 R2
G1 X135 Y85.75 E1.85285
G1 F600
G1 X155 Y85.75 E.92643
SET_PRESSURE_ADVANCE ADVANCE=0.002; Override pressure advance value
M73 P7 R2
G1 E-.5 F2100
M73 P7 R2
G1 X75 Y89.25 F36000
G1 E.5 F2100
G1 F600
G1 X95 Y89.25 E.92643
M73 P8 R2
G1 F6420
M73 P8 R2
G1 X135 Y89.25 E1.85285
M73 P9 R2
G1 F600
M73 P9 R2
G1 X155 Y89.25 E.92643
SET_PRESSURE_ADVANCE ADVANCE=0.004; Override pressure advance value
M73 P10 R2
G1 E-.5 F2100
M73 P10 R2
G1 X75 Y92.75 F36000
G1 E.5 F2100
G1 F600
G1 X95 Y92.75 E.92643
M73 P11 R2
G1 F6420
M73 P11 R2
G1 X135 Y92.75 E1.85285
G1 F600
G1 X155 Y92.75 E.92643
SET_PRESSURE_ADVANCE ADVANCE=0.006; Override pressure advance value
M73 P13 R2
G1 E-.5 F2100
M73 P13 R2
G1 X75 Y96.25 F36000
G1 E.5 F2100
G1 F600
G1 X95 Y96.25 E.92643
M73 P14 R2
G1 F6420
M73 P14 R2
G1 X135 Y96.25 E1.85285
G1 F600
G1 X155 Y96.25 E.92643
SET_PRESSURE_ADVANCE ADVANCE=0.008; Override pressure advance value
M73 P16 R2
G1 E-.5 F2100
M73 P16 R2
G1 X75 Y99.75 F36000
G1 E.5 F2100
G1 F600
G1 X95 Y99.75 E.92643
M73 P17 R2
G1 F6420
M73 P17 R2
G1 X135 Y99.75 E1.85285
G1 F600
G1 X155 Y99.75 E.92643
SET_PRESSURE_ADVANCE ADVANCE=0.01; Override pressure advance value
M73 P18 R2
G1 E-.5 F2100
M73 P18 R2
G1 X75 Y103.25 F36000
M73 P19 R2
G1 E.5 F2100
M73 P19 R2
G1 F600
G1 X95 Y103.25 E.92643
M73 P20 R2
G1 F6420
M73 P20 R2
G1 X135 Y103.25 E1.85285
G1 F600
G1 X155 Y103.25 E.92643
SET_PRESSURE_ADVANCE ADVANCE=0.012; Override pressure advance value
M73 P21 R2
G1 E-.5 F2100
M73 P21 R2
G1 X75 Y106.75 F36000
G1 E.5 F2100
G1 F600
G1 X95 Y106.75 E.92643
M73 P23 R2
G1 F6420
M73 P23 R2
G1 X135 Y106.75 E1.85285
G1 F600
G1 X155 Y106.75 E.92643
SET_PRESSURE_ADVANCE ADVANCE=0.014; Override pressure advance value
M73 P24 R2
G1 E-.5 F2100
M73 P24 R2
G1 X75 Y110.25 F36000
G1 E.5 F2100
G1 F600
G1 X95 Y110.25 E.92643
M73 P25 R2
G1 F6420
M73 P25 R2
G1 X135 Y110.25 E1.85285
M73 P26 R2
G1 F600
M73 P26 R2
G1 X155 Y110.25 E.92643
SET_PRESSURE_ADVANCE ADVANCE=0.016; Override pressure advance value
M73 P27 R1
G1 E-.5 F2100
M73 P27 R1
G1 X75 Y113.75 F36000
G1 E.5 F2100
G1 F600
G1 X95 Y113.75 E.92643
M73 P28 R1
G1 F6420
M73 P28 R1
G1 X135 Y113.75 E1.85285
M73 P29 R1
G1 F600
M73 P29 R1
G1 X155 Y113.75 E.92643
SET_PRESSURE_ADVANCE ADVANCE=0.018; Override pressure advance value
M73 P30 R1
G1 E-.5 F2100
M73 P30 R1
G1 X75 Y117.25 F36000
G1 E.5 F2100
G1 F600
G1 X95 Y117.25 E.92643
M73 P31 R1
G1 F6420
M73 P31 R1
G1 X135 Y117.25 E1.85285
G1 F600
G1 X155 Y117.25 E.92643
SET_PRESSURE_ADVANCE ADVANCE=0.02; Override pressure advance value
M73 P33 R1
G1 E-.5 F2100
M73 P33 R1
G1 X75 Y120.75 F36000
G1 E.5 F2100
G1 F600
G1 X95 Y120.75 E.92643
M73 P34 R1
G1 F6420
M73 P34 R1
G1 X135 Y120.75 E1.85285
G1 F600
G1 X155 Y120.75 E.92643
SET_PRESSURE_ADVANCE ADVANCE=0.022; Override pressure advance value
M73 P35 R1
G1 E-.5 F2100
M73 P35 R1
G1 X75 Y124.25 F36000
M73 P36 R1
G1 E.5 F2100
M73 P36 R1
G1 F600
G1 X95 Y124.25 E.92643
M73 P37 R1
G1 F6420
M73 P37 R1
G1 X135 Y124.25 E1.85285
G1 F600
G1 X155 Y124.25 E.92643
SET_PRESSURE_ADVANCE ADVANCE=0.024; Override pressure advance value
M73 P38 R1
G1 E-.5 F2100
M73 P38 R1
G1 X75 Y127.75 F36000
G1 E.5 F2100
G1 F600
G1 X95 Y127.75 E.92643
M73 P40 R1
G1 F6420
M73 P40 R1
G1 X135 Y127.75 E1.85285
G1 F600
G1 X155 Y127.75 E.92643
SET_PRESSURE_ADVANCE ADVANCE=0.026; Override pressure advance value
M73 P41 R1
G1 E-.5 F2100
M73 P41 R1
G1 X75 Y131.25 F36000
G1 E.5 F2100
G1 F600
G1 X95 Y131.25 E.92643
M73 P42 R1
G1 F6420
M73 P42 R1
G1 X135 Y131.25 E1.85285
M73 P43 R1
G1 F600
M73 P43 R1
G1 X155 Y131.25 E.92643
SET_PRESSURE_ADVANCE ADVANCE=0.028; Override pressure advance value
M73 P44 R1
G1 E-.5 F2100
M73 P44 R1
G1 X75 Y134.75 F36000
G1 E.5 F2100
G1 F600
G1 X95 Y134.75 E.92643
M73 P45 R1
G1 F6420
M73 P45 R1
G1 X135 Y134.75 E1.85285
M73 P46 R1
G1 F600
M73 P46 R1
G1 X155 Y134.75 E.92643
SET_PRESSURE_ADVANCE ADVANCE=0.03; Override pressure advance value
M73 P47 R1
G1 E-.5 F2100
M73 P47 R1
G1 X75 Y138.25 F36000
G1 E.5 F2100
G1 F600
G1 X95 Y138.25 E.92643
M73 P48 R1
G1 F6420
M73 P48 R1
G1 X135 Y138.25 E1.85285
G1 F600
G1 X155 Y138.25 E.92643
SET_PRESSURE_ADVANCE ADVANCE=0.032; Override pressure advance value
M73 P50 R1
G1 E-.5 F2100
M73 P50 R1
G1 X75 Y141.75 F36000
G1 E.5 F2100
G1 F600
G1 X95 Y141.75 E.92643
M73 P51 R1
G1 F6420
M73 P51 R1
G1 X135 Y141.75 E1.85285
G1 F600
G1 X155 Y141.75 E.92643
SET_PRESSURE_ADVANCE ADVANCE=0.034; Override pressure advance value
M73 P52 R1
G1 E-.5 F2100
M73 P52 R1
G1 X75 Y145.25 F36000
M73 P53 R1
G1 E.5 F2100
M73 P53 R1
G1 F600
G1 X95 Y145.25 E.92643
M73 P54 R1
G1 F6420
M73 P54 R1
G1 X135 Y145.25 E1.85285
G1 F600
G1 X155 Y145.25 E.92643
SET_PRESSURE_ADVANCE ADVANCE=0.036; Override pressure advance value
M73 P55 R1
G1 E-.5 F2100
M73 P55 R1
G1 X75 Y148.75 F36000
G1 E.5 F2100
G1 F600
G1 X95 Y148.75 E.92643
M73 P57 R1
G1 F6420
M73 P57 R1
G1 X135 Y148.75 E1.85285
G1 F600
G1 X155 Y148.75 E.92643
SET_PRESSURE_ADVANCE ADVANCE=0.038; Override pressure advance value
M73 P58 R1
G1 E-.5 F2100
M73 P58 R1
G1 X75 Y152.25 F36000
G1 E.5 F2100
G1 F600
G1 X95 Y152.25 E.92643
M73 P60 R1
G1 F6420
M73 P60 R1
G1 X135 Y152.25 E1.85285
G1 F600
G1 X155 Y152.25 E.92643
SET_PRESSURE_ADVANCE ADVANCE=0.04; Override pressure advance value
M73 P61 R1
G1 E-.5 F2100
M73 P61 R1
G1 X75 Y155.75 F36000
G1 E.5 F2100
G1 F600
G1 X95 Y155.75 E.92643
M73 P62 R1
G1 F6420
M73 P62 R1
G1 X135 Y155.75 E1.85285
M73 P63 R1
G1 F600
M73 P63 R1
G1 X155 Y155.75 E.92643
SET_PRESSURE_ADVANCE ADVANCE=0; Override pressure advance value
M73 P64 R0
G1 E-.5 F2100
M73 P64 R0
G1 X155 Y82.25 F36000
G1 E.5 F2100
G1 F6420
G1 X155 Y159.25 E3.49541
G1 F6420
G1 X179 Y159.25 E1.08948
M73 P65 R0
G1 F6420
M73 P65 R0
G1 X179 Y82.25 E3.49541
G1 F6420
G1 X155 Y82.25 E1.08948
G1 E-.5 F2100
G1 X155.557 Y82.807 F36000
G1 E.5 F2100
G1 F6420
G1 X155.557 Y158.693 E3.44483
M73 P66 R0
G1 F6420
M73 P66 R0
G1 X178.443 Y158.693 E1.0389
G1 F6420
G1 X178.443 Y82.807 E3.44483
G1 F6420
G1 X155.557 Y82.807 E1.0389
G1 E-.5 F2100
G1 X155.957 Y83.207 F36000
G1 E.5 F2100
G1 E-.5 F2100
G1 X156.745 Y83.207 F36000
G1 E.5 F2100
G1 F6420
G1 X155.957 Y83.995 E.05058
G1 E-.5 F2100
G1 X155.957 Y84.783 F36000
G1 E.5 F2100
G1 F6420
G1 X157.533 Y83.207 E.10115
G1 E-.5 F2100
G1 X158.321 Y83.207 F36000
G1 E.5 F2100
M73 P67 R0
G1 F6420
M73 P67 R0
G1 X155.957 Y85.571 E.15173
G1 E-.5 F2100
G1 X155.957 Y86.358 F36000
G1 E.5 F2100
G1 F6420
G1 X159.108 Y83.207 E.20231
G1 E-.5 F2100
G1 X159.896 Y83.207 F36000
G1 E.5 F2100
G1 F6420
G1 X155.957 Y87.146 E.25289
G1 E-.5 F2100
G1 X155.957 Y87.934 F36000
G1 E.5 F2100
G1 F6420
G1 X160.684 Y83.207 E.30346
G1 E-.5 F2100
G1 X161.472 Y83.207 F36000
G1 E.5 F2100
G1 F6420
G1 X155.957 Y88.722 E.35404
G1 E-.5 F2100
G1 X155.957 Y89.51 F36000
G1 E.5 F2100
G1 F6420
G1 X162.26 Y83.207 E.40462
G1 E-.5 F2100
G1 X163.048 Y83.207 F36000
G1 E.5 F2100
G1 F6420
G1 X155.957 Y90.298 E.45519
G1 E-.5 F2100
G1 X155.957 Y91.085 F36000
G1 E.5 F2100
G1 F6420
G1 X163.835 Y83.207 E.50577
G1 E-.5 F2100
G1 X164.623 Y83.207 F36000
G1 E.5 F2100
G1 F6420
G1 X155.957 Y91.873 E.55635
G1 E-.5 F2100
G1 X155.957 Y92.661 F36000
G1 E.5 F2100
G1 F6420
G1 X165.411 Y83.207 E.60693
G1 E-.5 F2100
G1 X166.199 Y83.207 F36000
G1 E.5 F2100
G1 F6420
G1 X155.957 Y93.449 E.6575
G1 E-.5 F2100
M73 P68 R0
G1 X155.957 Y94.237 F36000
M73 P68 R0
G1 E.5 F2100
G1 F6420
G1 X166.987 Y83.207 E.70808
G1 E-.5 F2100
G1 X167.775 Y83.207 F36000
G1 E.5 F2100
G1 F6420
G1 X155.957 Y95.025 E.75866
G1 E-.5 F2100
G1 X155.957 Y95.812 F36000
G1 E.5 F2100
G1 F6420
G1 X168.562 Y83.207 E.80923
G1 E-.5 F2100
G1 X169.35 Y83.207 F36000
G1 E.5 F2100
G1 F6420
G1 X155.957 Y96.6 E.85981
G1 E-.5 F2100
G1 X155.957 Y97.388 F36000
G1 E.5 F2100
G1 F6420
G1 X170.138 Y83.207 E.91039
G1 E-.5 F2100
G1 X170.926 Y83.207 F36000
G1 E.5 F2100
G1 F6420
G1 X155.957 Y98.176 E.96097
G1 E-.5 F2100
G1 X155.957 Y98.964 F36000
G1 E.5 F2100
G1 F6420
G1 X171.714 Y83.207 E1.01154
M73 P69 R0
G1 E-.5 F2100
M73 P69 R0
G1 X172.502 Y83.207 F36000
G1 E.5 F2100
G1 F6420
G1 X155.957 Y99.752 E1.06212
G1 E-.5 F2100
G1 X155.957 Y100.539 F36000
G1 E.5 F2100
G1 F6420
G1 X173.289 Y83.207 E1.1127
G1 E-.5 F2100
G1 X174.077 Y83.207 F36000
G1 E.5 F2100
G1 F6420
G1 X155.957 Y101.327 E1.16328
G1 E-.5 F2100
G1 X155.957 Y102.115 F36000
G1 E.5 F2100
G1 F6420
G1 X174.865 Y83.207 E1.21385
G1 E-.5 F2100
G1 X175.653 Y83.207 F36000
G1 E.5 F2100
G1 F6420
G1 X155.957 Y102.903 E1.26443
M73 P70 R0
G1 E-.5 F2100
M73 P70 R0
G1 X155.957 Y103.691 F36000
G1 E.5 F2100
G1 F6420
G1 X176.441 Y83.207 E1.31501
G1 E-.5 F2100
G1 X177.228 Y83.207 F36000
G1 E.5 F2100
G1 F6420
G1 X155.957 Y104.478 E1.36558
G1 E-.5 F2100
G1 X155.957 Y105.266 F36000
G1 E.5 F2100
G1 F6420
G1 X178.016 Y83.207 E1.41616
G1 E-.5 F2100
G1 X178.043 Y83.968 F36000
G1 E.5 F2100
G1 F6420
G1 X155.957 Y106.054 E1.41787
G1 E-.5 F2100
G1 X155.957 Y106.842 F36000
G1 E.5 F2100
G1 F6420
G1 X178.043 Y84.756 E1.41787
M73 P71 R0
G1 E-.5 F2100
M73 P71 R0
G1 X178.043 Y85.544 F36000
G1 E.5 F2100
G1 F6420
G1 X155.957 Y107.63 E1.41787
G1 E-.5 F2100
G1 X155.957 Y108.418 F36000
G1 E.5 F2100
G1 F6420
G1 X178.043 Y86.332 E1.41787
G1 E-.5 F2100
G1 X178.043 Y87.12 F36000
G1 E.5 F2100
G1 F6420
G1 X155.957 Y109.205 E1.41787
G1 E-.5 F2100
G1 X155.957 Y109.993 F36000
G1 E.5 F2100
G1 F6420
G1 X178.043 Y87.907 E1.41787
G1 E-.5 F2100
G1 X178.043 Y88.695 F36000
M73 P72 R0
G1 E.5 F2100
M73 P72 R0
G1 F6420
G1 X155.957 Y110.781 E1.41787
G1 E-.5 F2100
G1 X155.957 Y111.569 F36000
G1 E.5 F2100
G1 F6420
G1 X178.043 Y89.483 E1.41787
G1 E-.5 F2100
G1 X178.043 Y90.271 F36000
G1 E.5 F2100
G1 F6420
G1 X155.957 Y112.357 E1.41787
G1 E-.5 F2100
G1 X155.957 Y113.145 F36000
G1 E.5 F2100
G1 F6420
G1 X178.043 Y91.059 E1.41787
G1 E-.5 F2100
G1 X178.043 Y91.847 F36000
G1 E.5 F2100
G1 F6420
G1 X155.957 Y113.932 E1.41787
M73 P73 R0
G1 E-.5 F2100
M73 P73 R0
G1 X155.957 Y114.72 F36000
G1 E.5 F2100
G1 F6420
G1 X178.043 Y92.634 E1.41787
G1 E-.5 F2100
G1 X178.043 Y93.422 F36000
G1 E.5 F2100
G1 F6420
G1 X155.957 Y115.508 E1.41787
G1 E-.5 F2100
G1 X155.957 Y116.296 F36000
G1 E.5 F2100
G1 F6420
G1 X178.043 Y94.21 E1.41787
G1 E-.5 F2100
G1 X178.043 Y94.998 F36000
G1 E.5 F2100
G1 F6420
G1 X155.957 Y117.084 E1.41787
G1 E-.5 F2100
G1 X155.957 Y117.872 F36000
M73 P74 R0
G1 E.5 F2100
M73 P74 R0
G1 F6420
G1 X178.043 Y95.786 E1.41787
G1 E-.5 F2100
G1 X178.043 Y96.574 F36000
G1 E.5 F2100
G1 F6420
G1 X155.957 Y118.659 E1.41787
G1 E-.5 F2100
G1 X155.957 Y119.447 F36000
G1 E.5 F2100
G1 F6420
G1 X178.043 Y97.361 E1.41787
G1 E-.5 F2100
G1 X178.043 Y98.149 F36000
G1 E.5 F2100
G1 F6420
G1 X155.957 Y120.235 E1.41787
G1 E-.5 F2100
G1 X155.957 Y121.023 F36000
G1 E.5 F2100
G1 F6420
G1 X178.043 Y98.937 E1.41787
M73 P75 R0
G1 E-.5 F2100
M73 P75 R0
G1 X178.043 Y99.725 F36000
G1 E.5 F2100
G1 F6420
G1 X155.957 Y121.811 E1.41787
G1 E-.5 F2100
G1 X155.957 Y122.599 F36000
G1 E.5 F2100
G1 F6420
G1 X178.043 Y100.513 E1.41787
G1 E-.5 F2100
G1 X178.043 Y101.301 F36000
G1 E.5 F2100
G1 F6420
G1 X155.957 Y123.386 E1.41787
G1 E-.5 F2100
G1 X155.957 Y124.174 F36000
G1 E.5 F2100
G1 F6420
G1 X178.043 Y102.088 E1.41787
G1 E-.5 F2100
G1 X178.043 Y102.876 F36000
M73 P76 R0
G1 E.5 F2100
M73 P76 R0
G1 F6420
G1 X155.957 Y124.962 E1.41787
G1 E-.5 F2100
G1 X155.957 Y125.75 F36000
G1 E.5 F2100
G1 F6420
G1 X178.043 Y103.664 E1.41787
G1 E-.5 F2100
G1 X178.043 Y104.452 F36000
G1 E.5 F2100
G1 F6420
G1 X155.957 Y126.538 E1.41787
G1 E-.5 F2100
G1 X155.957 Y127.326 F36000
G1 E.5 F2100
G1 F6420
G1 X178.043 Y105.24 E1.41787
G1 E-.5 F2100
G1 X178.043 Y106.028 F36000
G1 E.5 F2100
G1 F6420
G1 X155.957 Y128.113 E1.41787
M73 P77 R0
G1 E-.5 F2100
M73 P77 R0
G1 X155.957 Y128.901 F36000
G1 E.5 F2100
G1 F6420
G1 X178.043 Y106.815 E1.41787
G1 E-.5 F2100
G1 X178.043 Y107.603 F36000
G1 E.5 F2100
G1 F6420
G1 X155.957 Y129.689 E1.41787
G1 E-.5 F2100
G1 X155.957 Y130.477 F36000
G1 E.5 F2100
G1 F6420
G1 X178.043 Y108.391 E1.41787
G1 E-.5 F2100
G1 X178.043 Y109.179 F36000
G1 E.5 F2100
G1 F6420
G1 X155.957 Y131.265 E1.41787
G1 E-.5 F2100
G1 X155.957 Y132.053 F36000
G1 E.5 F2100
M73 P78 R0
G1 F6420
M73 P78 R0
G1 X178.043 Y109.967 E1.41787
G1 E-.5 F2100
G1 X178.043 Y110.755 F36000
G1 E.5 F2100
G1 F6420
G1 X155.957 Y132.84 E1.41787
G1 E-.5 F2100
G1 X155.957 Y133.628 F36000
G1 E.5 F2100
G1 F6420
G1 X178.043 Y111.542 E1.41787
G1 E-.5 F2100
G1 X178.043 Y112.33 F36000
G1 E.5 F2100
G1 F6420
G1 X155.957 Y134.416 E1.41787
G1 E-.5 F2100
G1 X155.957 Y135.204 F36000
G1 E.5 F2100
G1 F6420
G1 X178.043 Y113.118 E1.41787
M73 P79 R0
G1 E-.5 F2100
M73 P79 R0
G1 X178.043 Y113.906 F36000
G1 E.5 F2100
G1 F6420
G1 X155.957 Y135.992 E1.41787
G1 E-.5 F2100
G1 X155.957 Y136.779 F36000
G1 E.5 F2100
G1 F6420
G1 X178.043 Y114.694 E1.41787
G1 E-.5 F2100
G1 X178.043 Y115.481 F36000
G1 E.5 F2100
G1 F6420
G1 X155.957 Y137.567 E1.41787
G1 E-.5 F2100
G1 X155.957 Y138.355 F36000
G1 E.5 F2100
G1 F6420
G1 X178.043 Y116.269 E1.41787
G1 E-.5 F2100
G1 X178.043 Y117.057 F36000
G1 E.5 F2100
M73 P80 R0
G1 F6420
M73 P80 R0
G1 X155.957 Y139.143 E1.41787
G1 E-.5 F2100
G1 X155.957 Y139.931 F36000
G1 E.5 F2100
G1 F6420
G1 X178.043 Y117.845 E1.41787
G1 E-.5 F2100
G1 X178.043 Y118.633 F36000
G1 E.5 F2100
G1 F6420
G1 X155.957 Y140.719 E1.41787
G1 E-.5 F2100
G1 X155.957 Y141.506 F36000
G1 E.5 F2100
G1 F6420
G1 X178.043 Y119.421 E1.41787
G1 E-.5 F2100
G1 X178.043 Y120.208 F36000
G1 E.5 F2100
G1 F6420
G1 X155.957 Y142.294 E1.41787
M73 P81 R0
G1 E-.5 F2100
M73 P81 R0
G1 X155.957 Y143.082 F36000
G1 E.5 F2100
G1 F6420
G1 X178.043 Y120.996 E1.41787
G1 E-.5 F2100
G1 X178.043 Y121.784 F36000
G1 E.5 F2100
G1 F6420
G1 X155.957 Y143.87 E1.41787
G1 E-.5 F2100
G1 X155.957 Y144.658 F36000
G1 E.5 F2100
G1 F6420
G1 X178.043 Y122.572 E1.41787
G1 E-.5 F2100
G1 X178.043 Y123.36 F36000
G1 E.5 F2100
G1 F6420
G1 X155.957 Y145.446 E1.41787
G1 E-.5 F2100
G1 X155.957 Y146.233 F36000
G1 E.5 F2100
M73 P82 R0
G1 F6420
M73 P82 R0
G1 X178.043 Y124.148 E1.41787
G1 E-.5 F2100
G1 X178.043 Y124.935 F36000
G1 E.5 F2100
G1 F6420
G1 X155.957 Y147.021 E1.41787
G1 E-.5 F2100
G1 X155.957 Y147.809 F36000
G1 E.5 F2100
G1 F6420
G1 X178.043 Y125.723 E1.41787
G1 E-.5 F2100
G1 X178.043 Y126.511 F36000
G1 E.5 F2100
G1 F6420
G1 X155.957 Y148.597 E1.41787
G1 E-.5 F2100
G1 X155.957 Y149.385 F36000
G1 E.5 F2100
G1 F6420
G1 X178.043 Y127.299 E1.41787
M73 P83 R0
G1 E-.5 F2100
M73 P83 R0
G1 X178.043 Y128.087 F36000
G1 E.5 F2100
G1 F6420
G1 X155.957 Y150.173 E1.41787
G1 E-.5 F2100
G1 X155.957 Y150.96 F36000
G1 E.5 F2100
G1 F6420
G1 X178.043 Y128.875 E1.41787
G1 E-.5 F2100
G1 X178.043 Y129.662 F36000
G1 E.5 F2100
G1 F6420
G1 X155.957 Y151.748 E1.41787
G1 E-.5 F2100
G1 X155.957 Y152.536 F36000
G1 E.5 F2100
G1 F6420
G1 X178.043 Y130.45 E1.41787
G1 E-.5 F2100
G1 X178.043 Y131.238 F36000
G1 E.5 F2100
M73 P84 R0
G1 F6420
M73 P84 R0
G1 X155.957 Y153.324 E1.41787
G1 E-.5 F2100
G1 X155.957 Y154.112 F36000
G1 E.5 F2100
G1 F6420
G1 X178.043 Y132.026 E1.41787
G1 E-.5 F2100
G1 X178.043 Y132.814 F36000
G1 E.5 F2100
G1 F6420
G1 X155.957 Y154.9 E1.41787
