; HEADER_BLOCK_START
; generated by OrcaSlicer 2.2.0 on 2025-10-28 at 12:45:05
; total layer number: 150
; filament_density: 1.24
; filament_diameter: 1.75
; max_z_height: 30.00
; HEADER_BLOCK_END

; THUMBNAIL_BLOCK_START

;
; THUMBNAIL_BLOCK_END

; THUMBNAIL_BLOCK_START

;
; THUMBNAIL_BLOCK_END

; external perimeters extrusion width = 0.40mm
; perimeters extrusion width = 0.40mm
; infill extrusion width = 0.40mm
; solid infill extrusion width = 0.40mm
; top infill extrusion width = 0.40mm
; first layer extrusion width = 0.40mm

; external perimeters extrusion width = 0.40mm
; perimeters extrusion width = 0.40mm
; infill extrusion width = 0.40mm
; solid infill extrusion width = 0.40mm
; top infill extrusion width = 0.40mm
; first layer extrusion width = 0.40mm

; EXECUTABLE_BLOCK_START
EXCLUDE_OBJECT_DEFINE NAME=Serial.stl_id_0_copy_0 CENTER=125.267,82.4767 POLYGON=[[82.8945,73.1972],[82.9027,63.2784],[136.504,60.5825],[144.407,60.589],[164.892,63.3461],[167.053,68.6794],[167.64,70.3376],[150.396,104.078],[135.842,104.371],[134.415,104.37],[116.56,104.355],[115.132,104.354],[101.181,104.214],[98.3683,101.701],[82.8945,73.1972]]
EXCLUDE_OBJECT_DEFINE NAME=Voron_Design_Cube_v7_id_1_copy_0 CENTER=125,122.5 POLYGON=[[110,107.5],[140,107.5],[140,137.5],[110,137.5],[110,107.5]]
M73 P0 R26
;TYPE:Custom
PRINT_START EXTRUDER_TEMP=220 BED_TEMP=55
G90
G21
M83 ; use relative distances for extrusion
; filament start gcode
M106 P3 S255


M106 S0
;LAYER_CHANGE
;Z:0.2
;HEIGHT:0.2
;BEFORE_LAYER_CHANGE
;0.2
G92 E0

G1 E-.5 F2100
;AFTER_LAYER_CHANGE
;0.2
;_SET_FAN_SPEED_CHANGING_LAYER
SET_VELOCITY_LIMIT ACCEL=2500
SET_VELOCITY_LIMIT SQUARE_CORNER_VELOCITY=12
; printing object Serial.stl id:0 copy 0
EXCLUDE_OBJECT_START NAME=Serial.stl_id_0_copy_0
G1 X84.555 Y64.243 F36000
G1 Z.2
G1 E.5 F2100
;TYPE:Inner wall
;WIDTH:0.4
G1 F12000
G1 X86.724 Y64.247 E.0644
G1 X87.233 Y64.277 E.01513
G1 X87.776 Y64.358 E.0163
G1 X88.21 Y64.504 E.01361
G1 X88.508 Y64.655 E.00993
G1 X88.908 Y64.943 E.01463
G1 X89.164 Y65.256 E.01199
G1 X89.367 Y65.569 E.01109
G1 X89.513 Y65.902 E.0108
G1 X89.625 Y66.231 E.01031
G1 X89.734 Y66.739 E.01543
G1 X89.811 Y67.251 E.01538
G1 X89.851 Y68.232 E.02915
G1 X89.832 Y68.953 E.02141
G1 X89.777 Y69.459 E.01511
G1 X89.619 Y70.205 E.02263
G1 X89.487 Y70.547 E.0109
G1 X89.325 Y70.877 E.01091
G1 X89.112 Y71.183 E.01106
G1 X88.855 Y71.482 E.01171
G1 X88.422 Y71.801 E.01596
G1 X88.083 Y71.97 E.01125
G1 X87.59 Y72.123 E.01533
G1 X87.099 Y72.183 E.0147
G1 X86.227 Y72.229 E.0259
G1 X84.191 Y72.227 E.06047
G1 X84.197 Y65.443 E.20142
G1 X84.198 Y64.243 E.03564
G1 X84.515 Y64.243 E.00942
G1 X84.554 Y64.601 F36000
;TYPE:Outer wall
G1 F12000
G1 X86.713 Y64.604 E.0641
G1 X87.196 Y64.632 E.01435
G1 X87.692 Y64.707 E.01489
G1 X88.072 Y64.834 E.0119
G1 X88.322 Y64.961 E.00833
G1 X88.661 Y65.206 E.01242
G1 X88.875 Y65.467 E.01002
G1 X89.052 Y65.739 E.00965
G1 X89.18 Y66.032 E.00949
G1 X89.28 Y66.326 E.00923
G1 X89.382 Y66.803 E.01449
G1 X89.455 Y67.285 E.01447
G1 X89.494 Y68.235 E.02821
G1 X89.475 Y68.929 E.02062
G1 X89.424 Y69.403 E.01415
G1 X89.275 Y70.103 E.02125
G1 X89.159 Y70.404 E.00959
G1 X89.017 Y70.696 E.00963
G1 X88.829 Y70.964 E.00972
G1 X88.611 Y71.219 E.00997
G1 X88.235 Y71.495 E.01384
G1 X87.95 Y71.638 E.00947
G1 X87.515 Y71.772 E.01353
G1 X87.067 Y71.827 E.01339
G1 X86.218 Y71.872 E.02525
G1 X84.548 Y71.871 E.04958
G1 X84.554 Y65.444 E.19082
G1 X84.554 Y64.641 E.02384
G1 E-.35 F2100
;WIPE_START
G1 F12000
G1 X85.554 Y64.624 E-.15
;WIPE_END
G1 X83.609 Y63.987 F36000
G1 E.5 F2100
;TYPE:Inner wall
G1 F12000
G1 X87.088 Y63.998 E.10329
G1 X87.679 Y64.052 E.01762
G1 X88.237 Y64.171 E.01694
G1 X88.78 Y64.391 E.0174
G1 X89.117 Y64.605 E.01185
G1 X89.357 Y64.797 E.00912
G1 X89.634 Y65.12 E.01264
G1 X89.821 Y65.373 E.00933
G1 X90.024 Y65.744 E.01257
G1 X90.239 Y66.263 E.01669
G1 X90.359 Y66.717 E.01391
G1 X90.448 Y67.18 E.01402
G1 X90.491 Y67.655 E.01414
G1 X90.507 Y68.151 E.01474
G1 X90.49 Y68.706 E.0165
G1 X90.444 Y69.24 E.01592
G1 X90.346 Y69.762 E.01577
G1 X90.214 Y70.272 E.01563
G1 X90.064 Y70.641 E.01184
G1 X89.89 Y70.989 E.01157
G1 X89.671 Y71.309 E.0115
G1 X89.427 Y71.609 E.01149
G1 X89.084 Y71.911 E.01355
G1 X88.883 Y72.052 E.00729
G1 X88.667 Y72.165 E.00724
G1 X88.245 Y72.331 E.01346
G1 X87.445 Y72.463 E.0241
G1 X86.545 Y72.493 E.02672
G1 X83.602 Y72.491 E.08738
G1 X83.609 Y64.027 E.25131
G1 X83.252 Y63.629 F36000
;TYPE:Outer wall
G1 F12000
G1 X83.387 Y63.629 E.00399
G1 X87.105 Y63.641 E.1104
G1 X87.733 Y63.699 E.01871
G1 X88.342 Y63.829 E.01849
G1 X88.944 Y64.072 E.01928
G1 X89.325 Y64.313 E.01339
G1 X89.607 Y64.539 E.01072
G1 X89.914 Y64.898 E.01403
G1 X90.122 Y65.18 E.01043
G1 X90.347 Y65.589 E.01386
G1 X90.578 Y66.149 E.01799
G1 X90.707 Y66.637 E.01498
G1 X90.802 Y67.13 E.01491
G1 X90.847 Y67.633 E.01499
G1 X90.864 Y68.15 E.01537
G1 X90.847 Y68.727 E.01712
G1 X90.799 Y69.289 E.01675
G1 X90.695 Y69.84 E.01665
G1 X90.554 Y70.384 E.01669
G1 X90.39 Y70.789 E.01297
G1 X90.198 Y71.171 E.01271
G1 X89.957 Y71.523 E.01266
G1 X89.685 Y71.858 E.01282
G1 X89.305 Y72.191 E.015
G1 X89.07 Y72.358 E.00856
G1 X88.815 Y72.49 E.00852
G1 X88.346 Y72.675 E.01498
G1 X87.917 Y72.759 E.01299
G1 X87.475 Y72.82 E.01324
G1 X86.551 Y72.85 E.02745
G1 X83.245 Y72.847 E.09816
G1 X83.252 Y63.669 E.27253
G1 E-.35 F2100
;WIPE_START
G1 F12000
G1 X83.387 Y63.629 E-.02102
G1 X84.247 Y63.631 E-.12898
;WIPE_END
G1 X83.903 Y64.166 F36000
G1 E.5 F2100
;TYPE:Gap infill
;WIDTH:0.274394
G1 F12000
G1 X83.897 Y72.312 E.15679
G1 E-.35 F2100
;WIPE_START
G1 F12000
G1 X83.897 Y71.312 E-.15
;WIPE_END
G1 X88.25 Y72.112 F36000
G1 E.5 F2100
;WIDTH:0.11608
G1 F12000
G1 X88.532 Y71.987 E.00188
;WIDTH:0.140664
G1 X88.759 Y71.848 E.00216
;WIDTH:0.171086
G1 X89.012 Y71.66 E.00335
G1 X89.24 Y71.43 E.00346
;WIDTH:0.205196
G1 X89.458 Y71.15 E.00479
;WIDTH:0.234794
G1 X89.649 Y70.848 E.00571
G1 X89.803 Y70.523 E.00574
;WIDTH:0.281873
G1 X89.93 Y70.178 E.00731
G1 X90.043 Y69.695 E.00986
;WIDTH:0.331361
G1 X90.127 Y69.197 E.01211
G1 X90.165 Y68.687 E.01225
G1 X90.177 Y68.151 E.01287
G1 X90.131 Y67.228 E.02216
;WIDTH:0.304553
G1 X90.055 Y66.786 E.00977
G1 X89.957 Y66.359 E.00954
;WIDTH:0.262482
G1 X89.896 Y66.163 E.00375
;WIDTH:0.230478
G1 X89.76 Y65.81 E.00588
;WIDTH:0.194339
G1 X89.583 Y65.459 E.00496
;WIDTH:0.154321
G1 X89.346 Y65.126 E.00378
;WIDTH:0.119815
G1 X89.064 Y64.818 E.00267
G1 E-.42694 F2100
;WIPE_START
G1 F12000
G1 X89.346 Y65.126 E-.07306
;WIPE_END
G1 X94.246 Y72.004 F36000
G1 E.5 F2100
;TYPE:Inner wall
;WIDTH:0.4
G1 F12000
G1 X94.246 Y72.649 E.01915
G1 X93.459 Y72.649 E.02337
G1 X93.459 Y72.004 E.01915
G1 X94.206 Y72.004 E.02218
G1 X94.604 Y71.648 F36000
;TYPE:Outer wall
G1 F12000
G1 X94.603 Y73.007 E.04035
G1 X93.101 Y73.006 E.04457
G1 X93.103 Y71.646 E.04035
G1 X94.564 Y71.648 E.04339
G1 E-.35 F2100
;WIPE_START
G1 F12000
G1 X94.592 Y72.647 E-.15
;WIPE_END
G1 X94.098 Y69.766 F36000
G1 E.5 F2100
;TYPE:Inner wall
G1 F12000
G1 X93.611 Y69.766 E.01446
G1 X93.616 Y63.994 E.17136
G1 X94.103 Y63.995 E.01446
G1 X94.098 Y69.726 E.17017
G1 X94.455 Y70.123 F36000
;TYPE:Outer wall
G1 F12000
G1 X93.254 Y70.122 E.03567
G1 X93.259 Y63.637 E.19256
G1 X94.193 Y63.638 E.02771
G1 X94.46 Y63.638 E.00795
G1 X94.455 Y70.083 E.19137
G1 X93.855 Y69.587 F36000
;TYPE:Gap infill
;WIDTH:0.172901
G1 F12000
G1 X93.859 Y64.173 E.05852
G1 E-.35 F2100
;WIPE_START
G1 F12000
G1 X93.859 Y65.173 E-.15
;WIPE_END
G1 X100.395 Y69.201 F36000
G1 E.5 F2100
;TYPE:Inner wall
;WIDTH:0.4
G1 F12000
G1 X100.751 Y69.267 E.01074
G1 X100.419 Y69.555 E.01304
G1 X100.239 Y69.632 E.00584
G1 X100.141 Y69.479 E.00541
G1 X100.368 Y69.23 E.00999
G1 E-.35 F2100
;WIPE_START
G1 F12000
G1 X100.751 Y69.267 E-.05765
G1 X100.419 Y69.555 E-.06586
G1 X100.257 Y69.625 E-.02649
;WIPE_END
G1 X97.742 Y67.03 F36000
G1 E.5 F2100
G1 F12000
G1 X98.061 Y66.925 E.01
G1 X98.768 Y66.74 E.02168
G1 X99.808 Y66.507 E.03166
G1 X100.067 Y66.41 E.0082
G1 X100.481 Y66.174 E.01415
G1 X100.715 Y65.834 E.01225
G1 X100.823 Y65.488 E.01076
G1 X100.825 Y65.118 E.011
G1 X100.714 Y64.693 E.01304
G1 X100.554 Y64.463 E.00831
G1 X100.707 Y64.338 E.00589
G1 X100.939 Y64.579 E.00994
G1 X101.114 Y64.797 E.00831
G1 X101.231 Y65.035 E.00785
G1 X101.323 Y65.557 E.01574
G1 X101.296 Y65.83 E.00814
G1 X101.255 Y66.012 E.00555
G1 X101.18 Y66.16 E.00491
G1 X100.978 Y66.403 E.0094
G1 X100.381 Y66.74 E.02035
G1 X100.056 Y66.871 E.0104
G1 X99.696 Y66.979 E.01117
G1 X98.217 Y67.329 E.04512
G1 X97.724 Y67.492 E.01543
G1 X97.146 Y67.728 E.01853
G1 X96.848 Y68.021 E.01239
G1 X96.685 Y68.373 E.01153
G1 X96.633 Y68.673 E.00905
G1 X96.681 Y68.967 E.00883
G1 X96.756 Y69.17 E.00641
G1 X96.59 Y69.257 E.00558
G1 X96.436 Y69.04 E.00789
G1 X96.392 Y68.947 E.00306
G1 X96.359 Y68.835 E.00346
G1 X96.299 Y68.433 E.01208
G1 X96.365 Y68.012 E.01262
G1 X96.428 Y67.842 E.00538
G1 X96.532 Y67.695 E.00538
G1 X96.835 Y67.411 E.01231
G1 X97.705 Y67.046 E.02802
G1 E-.35 F2100
;WIPE_START
G1 F12000
G1 X98.061 Y66.925 E-.05649
G1 X98.664 Y66.767 E-.09351
;WIPE_END
G1 X96.761 Y64.844 F36000
G1 E.5 F2100
G1 F12000
G1 X96.323 Y64.777 E.01318
G1 X96.841 Y64.316 E.02058
G1 X97.05 Y64.215 E.00689
G1 X97.155 Y64.361 E.00536
G1 X97.014 Y64.504 E.00596
G1 X96.785 Y64.812 E.01138
G1 X96.998 Y65.241 F36000
;TYPE:Outer wall
G1 F12000
G1 X95.805 Y65.058 E.03582
G1 X95.869 Y64.898 E.00512
G1 X96.022 Y64.627 E.00927
G1 X96.222 Y64.388 E.00924
G1 X96.64 Y64.016 E.01662
G1 X97.264 Y63.714 E.02056
G1 X97.641 Y63.59 E.01179
G1 X98.188 Y63.507 E.01644
G1 X98.77 Y63.479 E.01729
G1 X99.046 Y63.489 E.00818
G1 X99.691 Y63.547 E.01925
G1 X99.964 Y63.606 E.00829
G1 X100.224 Y63.695 E.00815
G1 X100.619 Y63.893 E.01312
G1 X100.99 Y64.117 E.01288
G1 X101.207 Y64.343 E.0093
G1 X101.409 Y64.593 E.00953
G1 X101.503 Y64.752 E.0055
G1 X101.571 Y64.925 E.0055
G1 X101.62 Y65.119 E.00595
G1 X101.683 Y65.549 E.01289
G1 X101.649 Y65.886 E.01008
G1 X101.597 Y66.12 E.00711
G1 X101.472 Y66.367 E.00822
G1 X101.21 Y66.682 E.01214
G1 X100.536 Y67.062 E.02299
G1 X100.174 Y67.208 E.01158
G1 X99.788 Y67.324 E.01197
G1 X98.314 Y67.673 E.04497
G1 X97.847 Y67.827 E.01461
G1 X97.346 Y68.032 E.01608
G1 X97.145 Y68.23 E.00838
G1 X97.029 Y68.48 E.00819
G1 X96.995 Y68.675 E.00586
G1 X97.028 Y68.876 E.00605
G1 X97.1 Y69.071 E.00617
G1 X97.228 Y69.231 E.00609
G1 X97.381 Y69.364 E.00602
G1 X97.704 Y69.496 E.01038
G1 X97.867 Y69.548 E.00506
G1 X98.188 Y69.606 E.00968
G1 X98.644 Y69.623 E.01356
G1 X98.912 Y69.612 E.00796
G1 X99.198 Y69.572 E.00859
G1 X99.478 Y69.478 E.00876
G1 X99.755 Y69.344 E.00914
G1 X99.956 Y69.165 E.00798
G1 X100.129 Y68.963 E.00789
G1 X100.206 Y68.803 E.00529
G1 X101.312 Y69.008 E.03339
G1 X101.18 Y69.271 E.00872
G1 X101.084 Y69.41 E.00503
G1 X100.893 Y69.616 E.00835
G1 X100.611 Y69.861 E.01107
G1 X100.028 Y70.111 E.01885
G1 X99.672 Y70.211 E.01099
G1 X99.159 Y70.273 E.01534
G1 X98.312 Y70.281 E.02514
G1 X97.883 Y70.251 E.01276
G1 X97.618 Y70.211 E.00796
G1 X97.37 Y70.146 E.00763
G1 X97.132 Y70.052 E.00759
G1 X96.54 Y69.723 E.02009
G1 X96.285 Y69.444 E.01124
G1 X96.127 Y69.221 E.00813
G1 X96.058 Y69.075 E.00478
G1 X96.009 Y68.913 E.00502
G1 X95.938 Y68.431 E.01446
G1 X96.017 Y67.922 E.01531
G1 X96.109 Y67.674 E.00784
G1 X96.262 Y67.459 E.00784
G1 X96.634 Y67.11 E.01513
G1 X96.928 Y66.977 E.00961
G1 X97.618 Y66.695 E.02213
G1 X97.96 Y66.582 E.0107
G1 X98.684 Y66.393 E.0222
G1 X99.706 Y66.164 E.03112
G1 X99.915 Y66.086 E.00662
G1 X100.233 Y65.904 E.01088
G1 X100.39 Y65.677 E.00821
G1 X100.466 Y65.433 E.00759
G1 X100.468 Y65.163 E.00802
G1 X100.385 Y64.845 E.00974
G1 X100.248 Y64.65 E.00707
G1 X100.081 Y64.484 E.007
G1 X99.6 Y64.262 E.01574
G1 X99.34 Y64.195 E.00797
G1 X98.766 Y64.152 E.01711
G1 X98.454 Y64.168 E.00926
G1 X98.055 Y64.243 E.01205
G1 X97.816 Y64.341 E.00769
G1 X97.513 Y64.507 E.01026
G1 X97.286 Y64.737 E.0096
G1 X97.097 Y64.992 E.00941
G1 X97.012 Y65.204 E.00679
G1 E-.35 F2100
;WIPE_START
G1 F12000
G1 X96.02 Y65.084 E-.15
;WIPE_END
G1 X97.238 Y64.171 F36000
G1 E.5 F2100
;TYPE:Gap infill
;WIDTH:0.458703
G1 F12000
G1 X97.639 Y63.997 E.01511
;WIDTH:0.445347
G1 X97.833 Y63.935 E.00682
;WIDTH:0.411734
G1 X97.937 Y63.906 E.00329
;WIDTH:0.368492
G1 X98.404 Y63.834 E.0128
G1 X98.772 Y63.816 E.00998
G1 X99.119 Y63.831 E.00938
G1 X99.637 Y63.902 E.01417
;WIDTH:0.414989
G1 X99.863 Y63.969 E.00729
;WIDTH:0.448034
G1 X100.307 Y64.171 E.01643
G1 X100.305 Y64.304 E.00448
;WIDTH:0.402806
G1 X100.304 Y64.437 E.00398
G1 E-.47671 F2100
;WIPE_START
G1 F12000
G1 X100.305 Y64.304 E-.02329
;WIPE_END
G1 X101.006 Y65.013 F36000
G1 E.5 F2100
;WIDTH:0.0947227
G1 F12000
G1 X101.033 Y65.098 E.00038
;WIDTH:0.119205
G1 X101.05 Y65.307 E.00133
;WIDTH:0.159235
G1 X101.068 Y65.537 E.00223
;WIDTH:0.189377
G1 X101.066 Y65.564 E.00033
;WIDTH:0.218546
G1 X101.022 Y65.784 E.00327
;WIDTH:0.245712
G1 X100.971 Y65.957 E.00304
G1 X100.665 Y66.375 E.00874
G1 X101.023 Y66.057 F36000
;WIDTH:0.121448
G1 F12000
G1 X100.626 Y66.347 E.00321
G1 X100.285 Y66.54 E.00256
G1 X99.985 Y66.669 E.00213
G1 X99.639 Y66.768 E.00235
G1 X98.123 Y67.132 E.01018
G1 X97.652 Y67.295 E.00325
G1 X97.035 Y67.55 E.00436
G1 X96.96 Y67.599 E.00059
G1 X96.704 Y67.844 E.00231
G1 X96.631 Y67.95 E.00084
G1 X96.581 Y68.069 E.00084
;WIDTH:0.130603
G1 X96.533 Y68.227 E.00121
G1 E-.47102 F2100
;WIPE_START
G1 F12000
G1 X96.581 Y68.069 E-.02898
;WIPE_END
G1 X96.998 Y69.244 F36000
G1 E.5 F2100
;WIDTH:0.431985
G1 F12000
G1 X96.975 Y69.375 E.00431
;WIDTH:0.448318
G1 X96.952 Y69.507 E.00449
;WIDTH:0.450132
G1 X97.063 Y69.585 E.00459
;WIDTH:0.422705
G1 X97.165 Y69.656 E.00395
;WIDTH:0.411205
G1 X97.484 Y69.796 E.01066
G1 X97.763 Y69.88 E.00894
;WIDTH:0.356105
G1 X98.322 Y69.946 E.01465
G1 X99.137 Y69.929 E.02122
;WIDTH:0.387257
G1 X99.445 Y69.872 E.00899
;WIDTH:0.429111
G1 X99.597 Y69.838 E.005
;WIDTH:0.466065
G1 X100.05 Y69.669 E.01701
G1 E-.41539 F2100
;WIPE_START
G1 F12000
G1 X99.597 Y69.838 E-.08461
;WIPE_END
G1 X108.206 Y68.901 F36000
G1 E.5 F2100
;TYPE:Inner wall
;WIDTH:0.4
G1 F12000
G1 X108.013 Y69.153 E.00942
G1 X107.658 Y69.502 E.01478
G1 X107.285 Y69.693 E.01244
G1 X107.184 Y69.515 E.00608
G1 X107.351 Y69.409 E.00589
G1 X107.615 Y69.108 E.01189
G1 X107.787 Y68.825 E.00983
G1 X108.166 Y68.894 E.01143
G1 E-.35 F2100
;WIPE_START
G1 F12000
G1 X108.013 Y69.153 E-.04517
G1 X107.658 Y69.502 E-.07468
G1 X107.479 Y69.594 E-.03015
;WIPE_END
G1 X108.138 Y65.214 F36000
G1 E.5 F2100
G1 F12000
G1 X107.925 Y65.25 E.0064
G1 X107.864 Y65.1 E.00481
G1 X107.748 Y64.9 E.00686
G1 X107.426 Y64.472 E.01591
G1 X107.02 Y64.198 E.01453
G1 X107.115 Y64.026 E.00583
G1 X107.337 Y64.125 E.00723
G1 X107.727 Y64.351 E.01337
G1 X108.108 Y64.762 E.01663
G1 X108.281 Y65.015 E.00911
G1 X108.355 Y65.177 E.00528
G1 X108.177 Y65.207 E.00536
G1 E-.35 F2100
;WIPE_START
G1 F12000
G1 X107.925 Y65.25 E-.03832
G1 X107.864 Y65.1 E-.02431
G1 X107.748 Y64.9 E-.03466
G1 X107.536 Y64.619 E-.05272
;WIPE_END
G1 X104.771 Y69.498 F36000
G1 E.5 F2100
G1 F12000
G1 X104.665 Y69.654 E.00563
G1 X104.518 Y69.58 E.00489
G1 X104.286 Y69.418 E.00838
G1 X103.967 Y69.164 E.01212
G1 X103.555 Y68.536 E.02231
G1 X103.38 Y68.14 E.01284
G1 X103.284 Y67.717 E.01289
G1 X103.217 Y66.882 E.02486
G1 X103.286 Y66.053 E.02471
G1 X103.383 Y65.633 E.0128
G1 X103.557 Y65.24 E.01277
G1 X103.969 Y64.615 E.02223
G1 X104.513 Y64.2 E.02031
G1 X104.86 Y64.02 E.01161
G1 X105.177 Y63.923 E.00984
G1 X105.248 Y64.111 E.00597
G1 X104.995 Y64.226 E.00825
G1 X104.773 Y64.371 E.00789
G1 X104.319 Y64.778 E.0181
G1 X103.976 Y65.481 E.02321
G1 X103.84 Y65.926 E.01382
G1 X103.768 Y66.49 E.01689
G1 X103.755 Y67.019 E.0157
G1 X103.769 Y67.509 E.01457
G1 X103.841 Y68.031 E.01563
G1 X103.928 Y68.322 E.00901
G1 X104.04 Y68.585 E.00849
G1 X104.323 Y69.107 E.01763
G1 X104.741 Y69.471 E.01644
G1 E-.35 F2100
;WIPE_START
G1 F12000
G1 X104.665 Y69.654 E-.02975
G1 X104.518 Y69.58 E-.02471
G1 X104.286 Y69.418 E-.04233
G1 X104.009 Y69.197 E-.05321
;WIPE_END
G1 X108.717 Y68.631 F36000
G1 E.5 F2100
;TYPE:Outer wall
G1 F12000
G1 X108.639 Y68.83 E.00636
G1 X108.482 Y69.128 E.01
G1 X108.282 Y69.39 E.00978
G1 X107.87 Y69.795 E.01716
G1 X107.324 Y70.074 E.01819
G1 X106.991 Y70.19 E.01047
