; HEADER_BLOCK_START
; generated by OrcaSlicer 2.2.0 on 2025-11-12 at 08:53:33
; total layer number: 115
; filament_density: 1.24,1.24
; filament_diameter: 1.75,1.75
; max_z_height: 23.00
; HEADER_BLOCK_END

; THUMBNAIL_BLOCK_START

;
; THUMBNAIL_BLOCK_END

; external perimeters extrusion width = 0.40mm
; perimeters extrusion width = 0.40mm
; infill extrusion width = 0.40mm
; solid infill extrusion width = 0.40mm
; top infill extrusion width = 0.40mm
; first layer extrusion width = 0.40mm

; EXECUTABLE_BLOCK_START
EXCLUDE_OBJECT_DEFINE NAME=Snackgrip_stronger_spring.STL_id_0_copy_0 CENTER=125,122.5 POLYGON=[[103.042,83.2273],[103.042,82.8336],[103.043,82.7899],[103.047,82.6141],[103.056,82.399],[103.063,82.2515],[103.086,81.9093],[103.096,81.7841],[103.144,81.2899],[103.246,80.4478],[103.282,80.1699],[103.338,79.746],[103.47,78.854],[103.511,78.6182],[103.578,78.2565],[103.612,78.0903],[103.671,77.8198],[103.733,77.56],[103.768,77.4229],[103.859,77.0919],[103.869,77.058],[103.948,76.8008],[103.974,76.719],[104.039,76.5287],[104.083,76.4026],[104.131,76.2732],[104.141,76.2476],[104.196,76.1055],[104.236,76.0059],[104.243,75.9889],[104.312,75.8266],[104.354,75.7317],[104.431,75.5634],[104.554,75.3152],[104.678,75.0807],[104.74,74.9706],[104.806,74.8574],[104.888,74.7218],[104.936,74.6456],[104.966,74.5993],[105.008,74.5356],[105.073,74.4395],[105.129,74.3585],[105.207,74.2498],[105.302,74.1234],[105.344,74.0697],[105.392,74.0081],[105.482,73.8988],[105.581,73.7824],[105.622,73.7362],[105.68,73.6721],[105.692,73.6597],[105.765,73.5815],[105.91,73.4342],[105.995,73.3522],[106.058,73.2929],[106.105,73.2496],[106.157,73.2034],[106.21,73.1568],[106.275,73.1014],[106.334,73.0526],[106.366,73.0266],[106.452,72.9588],[106.526,72.9016],[106.571,72.868],[106.638,72.8192],[106.691,72.7814],[106.762,72.7322],[106.816,72.6959],[106.863,72.6653],[106.941,72.6147],[107.04,72.5533],[107.197,72.4617],[107.227,72.4448],[107.327,72.3899],[107.422,72.3395],[107.458,72.3212],[107.567,72.2668],[107.628,72.2377],[107.724,72.1929],[107.846,72.139],[107.996,72.0764],[123.64,65.6832],[123.753,65.638],[123.867,65.5967],[123.983,65.5594],[124.099,65.5261],[124.217,65.4969],[124.336,65.4718],[124.456,65.4509],[124.576,65.4341],[124.697,65.4215],[124.818,65.413],[124.939,65.4088],[125.061,65.4088],[125.182,65.413],[125.303,65.4215],[125.424,65.4341],[125.544,65.4509],[125.664,65.4718],[125.783,65.4969],[125.901,65.5261],[126.017,65.5594],[126.133,65.5967],[126.247,65.638],[126.36,65.6832],[142.004,72.0764],[142.154,72.139],[142.286,72.1974],[142.372,72.2377],[142.433,72.2668],[142.542,72.3212],[142.578,72.3395],[142.673,72.3899],[142.773,72.4448],[142.803,72.4617],[142.85,72.4883],[142.96,72.5533],[143.059,72.6147],[143.137,72.6653],[143.184,72.6959],[143.238,72.7322],[143.309,72.7814],[143.362,72.8192],[143.429,72.868],[143.474,72.9016],[143.548,72.9588],[143.634,73.0266],[143.666,73.0526],[143.725,73.1014],[143.79,73.1568],[143.843,73.2034],[143.895,73.2496],[143.942,73.2929],[144.005,73.3522],[144.09,73.4342],[144.235,73.5815],[144.308,73.6597],[144.32,73.6721],[144.378,73.7362],[144.419,73.7824],[144.423,73.7878],[144.518,73.8988],[144.608,74.0081],[144.656,74.0697],[144.698,74.1234],[144.793,74.2498],[144.879,74.3698],[144.927,74.4395],[144.992,74.5356],[145.034,74.5993],[145.064,74.6456],[145.105,74.7106],[145.194,74.8574],[145.26,74.9706],[145.322,75.0807],[145.446,75.3152],[145.569,75.5634],[145.646,75.7317],[145.688,75.8266],[145.764,76.0059],[145.804,76.1055],[145.869,76.2732],[145.917,76.4026],[145.961,76.5287],[146.026,76.719],[146.052,76.8008],[146.131,77.058],[146.141,77.0919],[146.232,77.4229],[146.267,77.56],[146.329,77.8198],[146.388,78.0903],[146.422,78.2565],[146.489,78.6182],[146.53,78.854],[146.662,79.746],[146.718,80.1699],[146.754,80.4478],[146.856,81.2899],[146.914,81.9093],[146.937,82.2515],[146.944,82.399],[146.953,82.6141],[146.958,82.8336],[146.958,83.2273],[145.072,179.232],[142.345,179.591],[107.655,179.591],[104.928,179.232],[103.042,83.2273]]
M73 P0 R14
;TYPE:Custom
PRINT_START EXTRUDER_TEMP=245 BED_TEMP=65
G90
G21
M83 ; use relative distances for extrusion
SET_PRESSURE_ADVANCE ADVANCE=0.015; Override pressure advance value
T0
M106 S0
;LAYER_CHANGE
;Z:0.2
;HEIGHT:0.2
;BEFORE_LAYER_CHANGE
;0.2
G92 E0

G1 E-.5 F2100
;AFTER_LAYER_CHANGE
;0.2
;_SET_FAN_SPEED_CHANGING_LAYER
SET_VELOCITY_LIMIT ACCEL=7500
SET_VELOCITY_LIMIT SQUARE_CORNER_VELOCITY=12
; printing object Snackgrip_stronger_spring.STL id:0 copy 0
EXCLUDE_OBJECT_START NAME=Snackgrip_stronger_spring.STL_id_0_copy_0
G1 X120.184 Y82.016 F36000
G1 Z.2
G1 E.5 F2100
;TYPE:Inner wall
;WIDTH:0.4
G1 F18000
G1 X111.414 Y148.626 E1.8472
G1 X110.078 Y149.651 E.0463
G1 X110.724 Y150.493 E.02916
G1 X109.883 Y151.139 E.02916
G1 X110.528 Y151.98 E.02916
G1 X109.687 Y152.626 E.02916
G1 X110.332 Y153.467 E.02916
G1 X109.491 Y154.113 E.02916
G1 X110.137 Y154.954 E.02916
G1 X109.295 Y155.6 E.02916
G1 X109.941 Y156.442 E.02916
G1 X109.099 Y157.087 E.02916
G1 X109.745 Y157.929 E.02916
G1 X108.904 Y158.574 E.02916
G1 X109.549 Y159.416 E.02916
G1 X108.708 Y160.062 E.02916
G1 X109.353 Y160.903 E.02916
G1 X108.512 Y161.549 E.02916
G1 X109.158 Y162.39 E.02916
G1 X108.316 Y163.036 E.02916
G1 X108.962 Y163.877 E.02916
G1 X108.12 Y164.523 E.02916
G1 X108.766 Y165.365 E.02916
G1 X107.925 Y166.01 E.02916
G1 X108.57 Y166.852 E.02916
G1 X107.729 Y167.497 E.02916
G1 X108.375 Y168.339 E.02916
G1 X107.533 Y168.985 E.02916
G1 X108.179 Y169.826 E.02916
G1 X107.37 Y170.446 E.02801
G1 X107.598 Y167.598 E.07856
G1 X108.016 Y163.468 E.11414
G1 X108.495 Y159.524 E.10923
G1 X117.626 Y90.166 E1.92338
G1 X111.905 Y89.395 E.15872
G1 X110.492 Y89.125 E.03955
G1 X109.579 Y88.887 E.02595
G1 X108.913 Y88.669 E.01927
G1 X108.03 Y88.303 E.02627
G1 X107.633 Y88.1 E.01228
G1 X107.225 Y87.86 E.013
G1 X106.903 Y87.639 E.01073
G1 X106.578 Y87.38 E.01144
G1 X106.349 Y87.168 E.00857
G1 X106.102 Y86.901 E.01001
G1 X105.878 Y86.616 E.00997
G1 X105.695 Y86.335 E.00922
G1 X105.498 Y85.969 E.01142
G1 X105.3 Y85.497 E.01408
G1 X105.163 Y85.061 E.01256
G1 X105.055 Y84.595 E.01317
G1 X104.991 Y84.203 E.01091
G1 X104.921 Y83.345 E.02366
G1 X104.935 Y82.347 E.02744
G1 X105.028 Y81.292 E.02912
G1 X105.323 Y79.133 E.05992
G1 X105.446 Y78.474 E.01843
G1 X105.662 Y77.606 E.02459
G1 X105.834 Y77.083 E.01514
G1 X106.025 Y76.603 E.0142
G1 X106.203 Y76.227 E.01144
G1 X106.39 Y75.888 E.01065
G1 X106.71 Y75.408 E.01587
G1 X106.909 Y75.158 E.00877
G1 X107.224 Y74.824 E.01264
G1 X107.439 Y74.632 E.00791
G1 X107.772 Y74.381 E.01146
G1 X108.031 Y74.219 E.00841
G1 X108.404 Y74.024 E.01158
G1 X109.077 Y73.763 E.01984
G1 X109.434 Y73.662 E.01019
G1 X109.99 Y73.54 E.01565
G1 X110.676 Y73.442 E.01904
G1 X111.582 Y73.381 E.02497
G1 X112.564 Y73.386 E.02701
G1 X113.654 Y73.457 E.03003
G1 X114.5 Y73.546 E.02339
G1 X121.184 Y74.421 E.18532
G1 X120.189 Y81.976 E.20951
G1 E-.38333 F2100
;WIPE_START
G1 F18000
G1 X120.058 Y82.968 E-.11667
;WIPE_END
G1 X107.265 Y171.864 F36000
G1 E.5 F2100
G1 F18000
G1 X107.365 Y170.508 E.03737
G1 X107.983 Y171.313 E.02789
G1 X107.297 Y171.839 E.02377
G1 E-.38333 F2100
;WIPE_START
G1 F18000
G1 X107.348 Y170.841 E-.11667
;WIPE_END
G1 X107.18 Y173.266 F36000
G1 E.5 F2100
G1 F18000
G1 X107.251 Y172.102 E.03209
G1 X107.787 Y172.8 E.02422
G1 X107.212 Y173.242 E.01995
G1 E-.38333 F2100
;WIPE_START
G1 F18000
G1 X107.246 Y172.243 E-.11667
;WIPE_END
G1 X107.094 Y174.669 F36000
G1 E.5 F2100
G1 F18000
G1 X107.152 Y173.715 E.02627
G1 X107.591 Y174.288 E.01983
G1 X107.126 Y174.645 E.01613
G1 E-.38333 F2100
;WIPE_START
G1 F18000
G1 X107.152 Y173.715 E-.10846
G1 X107.195 Y173.771 E-.00821
;WIPE_END
G1 X107.024 Y176.06 F36000
G1 E.5 F2100
G1 F18000
G1 X107.054 Y175.329 E.0201
G1 X107.396 Y175.775 E.01543
G1 X107.056 Y176.035 E.01177
G1 E-.38333 F2100
;WIPE_START
G1 F18000
G1 X107.054 Y175.329 E-.08236
G1 X107.233 Y175.563 E-.0343
;WIPE_END
G1 X120.605 Y81.55 F36000
G1 E.5 F2100
G1 F18000
G1 X111.749 Y148.819 E1.86548
G1 X110.579 Y149.717 E.04055
G1 X111.225 Y150.559 E.02916
G1 X110.383 Y151.204 E.02916
G1 X111.029 Y152.046 E.02916
G1 X110.187 Y152.692 E.02916
G1 X110.833 Y153.533 E.02916
G1 X109.992 Y154.179 E.02916
G1 X110.637 Y155.02 E.02916
G1 X109.796 Y155.666 E.02916
G1 X110.442 Y156.507 E.02916
G1 X109.6 Y157.153 E.02916
G1 X110.246 Y157.995 E.02916
G1 X109.404 Y158.64 E.02916
G1 X110.05 Y159.482 E.02916
G1 X109.208 Y160.127 E.02916
G1 X109.854 Y160.969 E.02916
G1 X109.013 Y161.615 E.02916
G1 X109.658 Y162.456 E.02916
G1 X108.817 Y163.102 E.02916
G1 X109.463 Y163.943 E.02916
G1 X108.621 Y164.589 E.02916
G1 X109.267 Y165.43 E.02916
G1 X108.425 Y166.076 E.02916
G1 X109.071 Y166.918 E.02916
G1 X108.229 Y167.563 E.02916
G1 X108.875 Y168.405 E.02916
G1 X108.034 Y169.05 E.02916
G1 X108.679 Y169.892 E.02916
G1 X107.838 Y170.538 E.02916
G1 X108.484 Y171.379 E.02916
G1 X107.642 Y172.025 E.02916
G1 X108.288 Y172.866 E.02916
G1 X107.446 Y173.512 E.02916
G1 X108.092 Y174.353 E.02916
G1 X107.251 Y174.999 E.02916
G1 X107.896 Y175.841 E.02916
G1 X107.055 Y176.486 E.02916
G1 X107.7 Y177.328 E.02916
G1 X106.859 Y177.973 E.02916
G1 X107.542 Y178.863 E.03083
G1 X106.558 Y178.734 E.02728
G1 X106.697 Y175.311 E.09418
G1 X106.939 Y171.344 E.10927
G1 X107.261 Y167.382 E.10928
G1 X107.661 Y163.428 E.10927
G1 X108.141 Y159.479 E.10937
G1 X117.226 Y90.473 E1.91364
G1 X111.848 Y89.748 E.1492
G1 X110.414 Y89.474 E.04015
G1 X109.479 Y89.229 E.02657
G1 X108.793 Y89.006 E.01983
G1 X108.321 Y88.823 E.01391
G1 X107.877 Y88.626 E.01337
G1 X107.461 Y88.413 E.01284
G1 X107.033 Y88.161 E.01364
G1 X106.691 Y87.926 E.01142
G1 X106.345 Y87.651 E.01216
G1 X106.097 Y87.421 E.00931
G1 X105.829 Y87.133 E.0108
G1 X105.588 Y86.824 E.01079
G1 X105.388 Y86.518 E.01005
G1 X105.175 Y86.123 E.01232
G1 X104.964 Y85.62 E.015
G1 X104.818 Y85.155 E.01339
G1 X104.704 Y84.664 E.01388
G1 X104.636 Y84.246 E.01163
G1 X104.564 Y83.358 E.02452
G1 X104.578 Y82.329 E.02828
G1 X104.673 Y81.253 E.02972
G1 X104.97 Y79.076 E.06039
G1 X105.096 Y78.401 E.01888
G1 X105.32 Y77.504 E.02543
G1 X105.498 Y76.961 E.0157
G1 X105.697 Y76.461 E.01482
G1 X105.885 Y76.064 E.01205
G1 X106.085 Y75.703 E.01136
G1 X106.421 Y75.197 E.0167
G1 X106.639 Y74.924 E.0096
G1 X106.975 Y74.568 E.01346
G1 X107.212 Y74.356 E.00874
G1 X107.569 Y74.087 E.01229
G1 X107.853 Y73.909 E.00923
G1 X108.252 Y73.701 E.01236
G1 X108.611 Y73.548 E.01073
G1 X108.969 Y73.423 E.01043
G1 X109.347 Y73.315 E.01079
G1 X109.927 Y73.188 E.01632
G1 X110.638 Y73.086 E.01977
G1 X111.571 Y73.024 E.02569
G1 X112.577 Y73.029 E.02766
G1 X113.685 Y73.101 E.03052
G1 X114.542 Y73.192 E.02371
G1 X121.584 Y74.114 E.19527
G1 X120.611 Y81.51 E.20511
G1 E-.38333 F2100
;WIPE_START
G1 F18000
G1 X120.48 Y82.502 E-.11667
;WIPE_END
G1 X120.65 Y82.524 F36000
G1 X122.643 Y67.111
G1 X125.461 Y65.98
G1 X127.797 Y67.927
G1 X128.649 Y73.911
G1 X128.747 Y73.898
G1 X128.816 Y74.421
G1 E.5 F2100
G1 F18000
G1 X135.5 Y73.546 E.18532
G1 X136.347 Y73.457 E.02343
G1 X137.339 Y73.389 E.02734
G1 X138.391 Y73.38 E.02892
G1 X139.007 Y73.412 E.01694
G1 X139.418 Y73.452 E.01138
G1 X140.29 Y73.596 E.02428
G1 X140.721 Y73.703 E.01222
G1 X141.112 Y73.827 E.01128
G1 X141.495 Y73.979 E.01133
G1 X141.848 Y74.15 E.01077
G1 X142.143 Y74.325 E.00944
G1 X142.393 Y74.499 E.00838
G1 X142.66 Y74.717 E.00947
G1 X142.936 Y74.985 E.01057
G1 X143.181 Y75.266 E.01025
G1 X143.402 Y75.564 E.01019
G1 X143.615 Y75.896 E.01085
G1 X143.796 Y76.226 E.01034
G1 X143.988 Y76.634 E.0124
G1 X144.166 Y77.082 E.01326
G1 X144.338 Y77.606 E.01517
G1 X144.588 Y78.64 E.02924
G1 X144.688 Y79.198 E.01558
G1 X144.972 Y81.292 E.05811
G1 X145.065 Y82.347 E.02913
G1 X145.079 Y83.357 E.02775
G1 X145.006 Y84.225 E.02397
G1 X144.942 Y84.61 E.01071
G1 X144.833 Y85.077 E.01318
G1 X144.693 Y85.516 E.01266
G1 X144.536 Y85.899 E.01139
G1 X144.358 Y86.244 E.01068
G1 X144.151 Y86.574 E.01072
G1 X143.934 Y86.859 E.00983
G1 X143.677 Y87.142 E.01052
G1 X143.363 Y87.43 E.01171
G1 X143.071 Y87.659 E.01021
G1 X142.72 Y87.894 E.01161
G1 X142.37 Y88.099 E.01116
G1 X141.966 Y88.304 E.01244
G1 X141.395 Y88.552 E.01713
G1 X140.424 Y88.886 E.02822
G1 X139.499 Y89.127 E.02628
G1 X138.863 Y89.261 E.01789
G1 X138.102 Y89.394 E.02123
G1 X132.374 Y90.166 E.15892
G1 X141.505 Y159.524 E1.92338
G1 X141.984 Y163.468 E.10923
G1 X142.402 Y167.598 E.11414
G1 X142.63 Y170.446 E.07856
G1 X141.821 Y169.826 E.02801
G1 X142.467 Y168.985 E.02916
G1 X141.625 Y168.339 E.02916
G1 X142.271 Y167.497 E.02916
G1 X141.43 Y166.852 E.02916
G1 X142.075 Y166.01 E.02916
G1 X141.234 Y165.365 E.02916
G1 X141.88 Y164.523 E.02916
G1 X141.038 Y163.877 E.02916
G1 X141.684 Y163.036 E.02916
G1 X140.842 Y162.39 E.02916
G1 X141.488 Y161.549 E.02916
G1 X140.647 Y160.903 E.02916
G1 X141.292 Y160.062 E.02916
G1 X140.451 Y159.416 E.02916
G1 X141.096 Y158.574 E.02916
G1 X140.255 Y157.929 E.02916
G1 X140.901 Y157.087 E.02916
G1 X140.059 Y156.442 E.02916
G1 X140.705 Y155.6 E.02916
G1 X139.863 Y154.954 E.02916
G1 X140.509 Y154.113 E.02916
G1 X139.668 Y153.467 E.02916
G1 X140.313 Y152.626 E.02916
G1 X139.472 Y151.98 E.02916
G1 X140.117 Y151.139 E.02916
G1 X139.276 Y150.493 E.02916
G1 X139.922 Y149.651 E.02916
G1 X138.586 Y148.626 E.0463
G1 X128.822 Y74.461 E2.05671
G1 E-.38333 F2100
;WIPE_START
G1 F18000
G1 X129.812 Y74.325 E-.11667
;WIPE_END
G1 X142.017 Y171.313 F36000
G1 E.5 F2100
G1 F18000
G1 X142.635 Y170.508 E.02789
G1 X142.704 Y171.369 E.02374
G1 X142.735 Y171.864 E.01362
G1 X142.049 Y171.338 E.02377
G1 E-.38333 F2100
;WIPE_START
G1 F18000
G1 X142.626 Y170.521 E-.11667
;WIPE_END
G1 X142.213 Y172.8 F36000
G1 E.5 F2100
G1 F18000
G1 X142.749 Y172.102 E.02422
G1 X142.82 Y173.266 E.03209
G1 X142.245 Y172.825 E.01995
G1 E-.38333 F2100
;WIPE_START
G1 F18000
G1 X142.749 Y172.102 E-.10288
G1 X142.756 Y172.219 E-.01379
;WIPE_END
G1 X142.409 Y174.288 F36000
G1 E.5 F2100
G1 F18000
G1 X142.848 Y173.715 E.01983
G1 X142.906 Y174.669 E.02627
G1 X142.44 Y174.312 E.01613
G1 E-.38333 F2100
;WIPE_START
G1 F18000
G1 X142.848 Y173.715 E-.08426
G1 X142.865 Y173.993 E-.03241
;WIPE_END
G1 X142.604 Y175.775 F36000
G1 E.5 F2100
G1 F18000
G1 X142.946 Y175.329 E.01543
G1 X142.976 Y176.06 E.0201
G1 X142.636 Y175.799 E.01177
G1 E-.38333 F2100
;WIPE_START
G1 F18000
G1 X142.946 Y175.329 E-.06565
G1 X142.964 Y175.766 E-.05102
;WIPE_END
G1 X128.501 Y74.102 F36000
G1 E.5 F2100
G1 F18000
G1 X135.458 Y73.192 E.19289
G1 X136.316 Y73.101 E.02373
G1 X137.325 Y73.032 E.02782
G1 X138.399 Y73.023 E.02951
G1 X139.033 Y73.056 E.01746
G1 X139.465 Y73.098 E.01192
G1 X140.362 Y73.246 E.02501
G1 X140.818 Y73.359 E.01293
G1 X141.232 Y73.491 E.01193
G1 X141.639 Y73.652 E.01205
G1 X142.017 Y73.836 E.01154
G1 X142.336 Y74.024 E.0102
G1 X142.609 Y74.214 E.00913
G1 X142.898 Y74.45 E.01027
G1 X143.195 Y74.739 E.0114
G1 X143.459 Y75.042 E.01104
G1 X143.696 Y75.361 E.01092
G1 X143.922 Y75.714 E.01152
G1 X144.114 Y76.063 E.01097
G1 X144.316 Y76.492 E.01302
G1 X144.502 Y76.961 E.01387
G1 X144.68 Y77.504 E.01572
G1 X144.795 Y77.928 E.01208
G1 X144.938 Y78.57 E.01807
G1 X145.041 Y79.142 E.016
G1 X145.327 Y81.252 E.05854
G1 X145.422 Y82.329 E.02972
G1 X145.436 Y83.364 E.02845
G1 X145.414 Y83.767 E.01108
G1 X145.36 Y84.274 E.01403
G1 X145.293 Y84.68 E.01131
G1 X145.178 Y85.172 E.01389
G1 X145.029 Y85.638 E.01345
G1 X144.86 Y86.049 E.01221
G1 X144.669 Y86.421 E.01152
G1 X144.444 Y86.778 E.01158
G1 X144.209 Y87.088 E.0107
G1 X143.93 Y87.394 E.01139
G1 X143.594 Y87.703 E.01254
G1 X143.28 Y87.948 E.01094
G1 X142.91 Y88.197 E.01227
G1 X142.541 Y88.413 E.01176
G1 X142.119 Y88.628 E.01303
G1 X141.528 Y88.884 E.01771
G1 X140.523 Y89.229 E.02919
G1 X139.581 Y89.475 E.02677
G1 X138.93 Y89.612 E.0183
G1 X138.157 Y89.747 E.02159
G1 X132.774 Y90.473 E.14932
G1 X141.859 Y159.479 E1.91364
G1 X142.339 Y163.428 E.10937
G1 X142.739 Y167.382 E.10927
G1 X143.061 Y171.344 E.10928
G1 X143.303 Y175.311 E.10927
G1 X143.442 Y178.734 E.09419
G1 X142.458 Y178.863 E.02728
G1 X143.141 Y177.973 E.03083
G1 X142.3 Y177.328 E.02916
G1 X142.945 Y176.486 E.02916
M73 P1 R14
G1 X142.104 Y175.841 E.02916
M73 P1 R14
G1 X142.749 Y174.999 E.02916
G1 X141.908 Y174.353 E.02916
