; HEADER_BLOCK_START
; generated by OrcaSlicer 2.2.0 on 2025-12-02 at 21:22:15
; total layer number: 150
; filament_density: 1.04
; filament_diameter: 1.75
; max_z_height: 30.00
; HEADER_BLOCK_END

; THUMBNAIL_BLOCK_START

;
; THUMBNAIL_BLOCK_END

; external perimeters extrusion width = 0.40mm
; perimeters extrusion width = 0.40mm
; infill extrusion width = 0.40mm
; solid infill extrusion width = 0.40mm
; top infill extrusion width = 0.40mm
; support material extrusion width = 0.40mm
; first layer extrusion width = 0.40mm

; EXECUTABLE_BLOCK_START
EXCLUDE_OBJECT_DEFINE NAME=Voron_Design_Cube_v7_id_0_copy_0 CENTER=125,122.5 POLYGON=[[110,107.5],[140,107.5],[140,137.5],[110,137.5],[110,107.5]]
M73 P0 R24
;TYPE:Custom
PRINT_START EXTRUDER_TEMP=260 BED_TEMP=90
G90
G21
M83 ; use relative distances for extrusion
; Filament gcode
SET_PRESSURE_ADVANCE ADVANCE=0.01; Override pressure advance value
M106 S0
;LAYER_CHANGE
;Z:0.2
;HEIGHT:0.2
;BEFORE_LAYER_CHANGE
;0.2
G92 E0

G1 E-.5 F2100
;AFTER_LAYER_CHANGE
;0.2
;_SET_FAN_SPEED_CHANGING_LAYER
SET_VELOCITY_LIMIT ACCEL=10000
SET_VELOCITY_LIMIT SQUARE_CORNER_VELOCITY=10
; printing object Voron_Design_Cube_v7 id:0 copy 0
EXCLUDE_OBJECT_START NAME=Voron_Design_Cube_v7_id_0_copy_0
G1 X122.991 Y131.448 F36000
G1 Z.2
G1 E.5 F2100
;TYPE:Inner wall
;WIDTH:0.4
G1 F13500
G1 X122.942 Y131.439 E.0014
G1 X122.03 Y131.179 E.02674
G1 X121.15 Y130.826 E.02676
G1 X120.311 Y130.384 E.02675
G1 X119.522 Y129.858 E.02675
G1 X118.792 Y129.253 E.02675
G1 X118.128 Y128.576 E.02675
G1 X117.537 Y127.834 E.02675
G1 X117.026 Y127.035 E.02675
G1 X116.608 Y126.202 E.02628
G1 X116.416 Y125.733 E.01431
G1 X116.132 Y124.845 E.02628
G1 X115.937 Y123.917 E.02675
G1 X115.839 Y122.974 E.02675
G1 X115.839 Y122.026 E.02675
G1 X115.937 Y121.083 E.02675
G1 X116.132 Y120.155 E.02675
G1 X116.421 Y119.252 E.02675
G1 X116.803 Y118.383 E.02675
G1 X117.263 Y117.573 E.02628
G1 X117.547 Y117.153 E.01431
G1 X118.128 Y116.424 E.02628
G1 X118.792 Y115.747 E.02675
G1 X119.522 Y115.142 E.02675
G1 X120.311 Y114.616 E.02675
G1 X121.135 Y114.182 E.02627
G1 X121.601 Y113.981 E.01433
G1 X122.483 Y113.679 E.02627
G1 X123.407 Y113.467 E.02675
G1 X124.348 Y113.35 E.02675
G1 X125.296 Y113.332 E.02675
G1 X126.241 Y113.412 E.02675
G1 X127.172 Y113.588 E.02675
G1 X128.065 Y113.855 E.02627
G1 X128.539 Y114.038 E.01434
G1 X129.379 Y114.44 E.02626
G1 X130.188 Y114.935 E.02675
G1 X130.941 Y115.511 E.02675
G1 X131.631 Y116.162 E.02675
G1 X132.239 Y116.868 E.02628
G1 X132.539 Y117.276 E.0143
G1 X133.031 Y118.068 E.02628
G1 X133.446 Y118.922 E.02677
G1 X133.77 Y119.812 E.02672
G1 X134 Y120.731 E.02675
G1 X134.135 Y121.669 E.02672
G1 X134.171 Y122.609 E.02654
G1 X134.133 Y123.339 E.02061
G1 X134 Y124.269 E.02649
G1 X133.77 Y125.188 E.02675
G1 X133.445 Y126.079 E.02675
G1 X133.031 Y126.932 E.02675
G1 X132.53 Y127.738 E.02675
G1 X131.949 Y128.487 E.02675
G1 X131.294 Y129.172 E.02675
G1 X130.572 Y129.787 E.02675
G1 X129.79 Y130.323 E.02675
G1 X128.971 Y130.767 E.02626
G1 X128.507 Y130.975 E.01434
G1 X127.63 Y131.288 E.02627
G1 X126.709 Y131.512 E.02675
G1 X125.769 Y131.64 E.02675
G1 X124.822 Y131.671 E.02675
G1 X123.876 Y131.604 E.02675
G1 X123.03 Y131.455 E.02422
G1 X123.053 Y131.096 F36000
G1 F13500
G1 X123.022 Y131.091 E.00088
G1 X122.146 Y130.841 E.02569
G1 X121.3 Y130.501 E.02572
G1 X120.494 Y130.077 E.02571
G1 X119.736 Y129.571 E.0257
G1 X119.034 Y128.99 E.02571
G1 X118.396 Y128.339 E.0257
G1 X117.828 Y127.626 E.02571
G1 X117.337 Y126.858 E.02571
G1 X116.934 Y126.054 E.02537
G1 X116.752 Y125.611 E.01352
G1 X116.478 Y124.754 E.02537
G1 X116.29 Y123.862 E.02571
G1 X116.196 Y122.956 E.02571
G1 X116.196 Y122.044 E.0257
G1 X116.29 Y121.138 E.02571
G1 X116.478 Y120.246 E.02571
G1 X116.756 Y119.378 E.0257
G1 X117.122 Y118.544 E.02571
G1 X117.567 Y117.762 E.02537
G1 X117.835 Y117.365 E.01352
G1 X118.396 Y116.661 E.02537
G1 X119.034 Y116.01 E.0257
G1 X119.736 Y115.429 E.02571
G1 X120.494 Y114.923 E.0257
G1 X121.289 Y114.504 E.02536
G1 X121.73 Y114.314 E.01354
G1 X122.581 Y114.023 E.02536
G1 X123.469 Y113.819 E.0257
G1 X124.373 Y113.707 E.0257
G1 X125.284 Y113.689 E.0257
G1 X126.192 Y113.766 E.02571
G1 X127.088 Y113.936 E.0257
G1 X127.949 Y114.193 E.02535
G1 X128.397 Y114.366 E.01356
G1 X129.208 Y114.754 E.02535
G1 X129.985 Y115.23 E.0257
G1 X130.709 Y115.784 E.0257
G1 X131.372 Y116.409 E.0257
G1 X131.959 Y117.09 E.02537
G1 X132.243 Y117.477 E.01352
G1 X132.718 Y118.241 E.02537
G1 X133.116 Y119.061 E.02573
G1 X133.428 Y119.917 E.02568
G1 X133.649 Y120.8 E.0257
G1 X133.779 Y121.701 E.02568
G1 X133.814 Y122.607 E.02556
G1 X133.778 Y123.304 E.01969
G1 X133.649 Y124.2 E.02551
G1 X133.428 Y125.083 E.0257
G1 X133.116 Y125.94 E.0257
G1 X132.718 Y126.759 E.0257
G1 X132.237 Y127.533 E.0257
G1 X131.678 Y128.254 E.0257
G1 X131.049 Y128.912 E.0257
G1 X130.354 Y129.503 E.02571
G1 X129.603 Y130.018 E.0257
G1 X128.813 Y130.447 E.02535
G1 X128.374 Y130.643 E.01356
G1 X127.528 Y130.945 E.02535
G1 X126.642 Y131.161 E.0257
G1 X125.739 Y131.284 E.0257
G1 X124.829 Y131.314 E.02571
G1 X123.92 Y131.249 E.02571
G1 X123.092 Y131.103 E.0237
G1 X123.115 Y130.744 F36000
G1 F13500
G1 X123.102 Y130.742 E.00036
G1 X122.262 Y130.502 E.02465
G1 X121.45 Y130.177 E.02467
G1 X120.676 Y129.769 E.02466
G1 X119.949 Y129.284 E.02466
G1 X119.276 Y128.726 E.02466
G1 X118.664 Y128.102 E.02466
G1 X118.119 Y127.418 E.02466
G1 X117.648 Y126.681 E.02466
G1 X117.259 Y125.906 E.02446
G1 X117.088 Y125.488 E.01274
G1 X116.823 Y124.663 E.02446
G1 X116.644 Y123.807 E.02466
G1 X116.553 Y122.937 E.02466
G1 X116.553 Y122.063 E.02466
G1 X116.644 Y121.193 E.02466
G1 X116.823 Y120.337 E.02466
G1 X117.09 Y119.505 E.02466
G1 X117.442 Y118.704 E.02466
G1 X117.87 Y117.95 E.02446
G1 X118.123 Y117.576 E.01274
G1 X118.664 Y116.898 E.02446
G1 X119.276 Y116.274 E.02466
G1 X119.949 Y115.716 E.02466
G1 X120.676 Y115.231 E.02466
G1 X121.443 Y114.827 E.02445
G1 X121.859 Y114.648 E.01276
G1 X122.679 Y114.367 E.02445
G1 X123.531 Y114.171 E.02466
G1 X124.399 Y114.064 E.02466
G1 X125.273 Y114.047 E.02466
G1 X126.144 Y114.12 E.02466
G1 X127.003 Y114.283 E.02466
G1 X127.833 Y114.531 E.02444
G1 X128.256 Y114.695 E.01277
G1 X129.037 Y115.068 E.02444
G1 X129.783 Y115.525 E.02466
G1 X130.478 Y116.056 E.02466
G1 X131.114 Y116.656 E.02466
G1 X131.68 Y117.313 E.02446
G1 X131.947 Y117.677 E.01274
G1 X132.405 Y118.413 E.02446
G1 X132.787 Y119.201 E.02469
G1 X133.086 Y120.021 E.02464
G1 X133.299 Y120.869 E.02466
G1 X133.422 Y121.734 E.02463
G1 X133.456 Y122.605 E.02459
G1 X133.422 Y123.27 E.01878
G1 X133.299 Y124.131 E.02453
G1 X133.086 Y124.979 E.02466
G1 X132.787 Y125.8 E.02466
G1 X132.405 Y126.587 E.02466
G1 X131.943 Y127.329 E.02466
G1 X131.408 Y128.02 E.02466
G1 X130.803 Y128.652 E.02466
G1 X130.137 Y129.219 E.02466
G1 X129.416 Y129.713 E.02466
G1 X128.655 Y130.127 E.02444
G1 X128.241 Y130.311 E.01278
G1 X127.425 Y130.603 E.02444
G1 X126.576 Y130.81 E.02466
G1 X125.709 Y130.928 E.02466
G1 X124.836 Y130.956 E.02466
G1 X123.963 Y130.894 E.02466
G1 X123.154 Y130.751 E.02317
G1 X123.183 Y130.394 F36000
;TYPE:Outer wall
G1 F13500
G1 X122.378 Y130.164 E.02361
G1 X121.6 Y129.852 E.02363
G1 X120.859 Y129.462 E.02362
G1 X120.163 Y128.997 E.02362
G1 X119.518 Y128.463 E.02362
G1 X118.931 Y127.865 E.02362
G1 X118.41 Y127.21 E.02362
G1 X117.959 Y126.505 E.02362
G1 X117.584 Y125.759 E.02355
G1 X117.424 Y125.366 E.01196
G1 X117.169 Y124.571 E.02355
G1 X116.997 Y123.752 E.02362
G1 X116.911 Y122.919 E.02362
G1 X116.911 Y122.081 E.02362
G1 X116.997 Y121.248 E.02362
G1 X117.169 Y120.429 E.02362
G1 X117.425 Y119.631 E.02362
G1 X117.761 Y118.865 E.02362
G1 X118.174 Y118.139 E.02355
G1 X118.412 Y117.788 E.01196
G1 X118.931 Y117.135 E.02355
G1 X119.518 Y116.537 E.02362
G1 X120.163 Y116.003 E.02362
G1 X120.859 Y115.538 E.02362
G1 X121.598 Y115.149 E.02354
G1 X121.987 Y114.981 E.01198
G1 X122.777 Y114.711 E.02354
G1 X123.593 Y114.523 E.02362
G1 X124.424 Y114.42 E.02362
G1 X125.261 Y114.404 E.02362
G1 X126.096 Y114.474 E.02362
G1 X126.918 Y114.63 E.02362
G1 X127.718 Y114.87 E.02353
G1 X128.114 Y115.023 E.01199
G1 X128.867 Y115.383 E.02353
G1 X129.581 Y115.82 E.02362
G1 X130.246 Y116.328 E.02362
G1 X130.855 Y116.903 E.02362
G1 X131.4 Y117.535 E.02355
G1 X131.651 Y117.877 E.01196
G1 X132.092 Y118.586 E.02355
G1 X132.458 Y119.34 E.02364
G1 X132.744 Y120.126 E.02359
G1 X132.948 Y120.938 E.02362
G1 X133.066 Y121.766 E.02359
G1 X133.099 Y122.603 E.02361
G1 X133.066 Y123.235 E.01787
G1 X132.948 Y124.062 E.02356
G1 X132.744 Y124.874 E.02362
G1 X132.458 Y125.661 E.02362
G1 X132.092 Y126.414 E.02362
G1 X131.65 Y127.125 E.02362
G1 X131.137 Y127.787 E.02362
G1 X130.558 Y128.392 E.02362
G1 X129.92 Y128.935 E.02362
G1 X129.23 Y129.408 E.02362
G1 X128.497 Y129.806 E.02353
G1 X128.108 Y129.98 E.01199
G1 X127.323 Y130.26 E.02353
G1 X126.509 Y130.458 E.02362
G1 X125.679 Y130.572 E.02362
G1 X124.842 Y130.599 E.02362
G1 X124.007 Y130.539 E.02362
G1 X123.222 Y130.401 E.02249
G1 E-.35 F2100
;WIPE_START
G1 F13500
G1 X122.378 Y130.164 E-.13152
G1 X122.263 Y130.118 E-.01848
;WIPE_END
G1 X122.198 Y130.296 F36000
G1 X122.319 Y130.34
G1 X122.726 Y130.468
G1 X123.141 Y130.575
G1 X123.561 Y130.66
G1 X123.984 Y130.723
G1 X124.411 Y130.765
G1 X124.839 Y130.784
G1 X125.267 Y130.781
G1 X125.695 Y130.757
G1 X126.121 Y130.71
G1 X126.544 Y130.641
G1 X126.962 Y130.55
G1 X127.376 Y130.438
G1 X127.783 Y130.304
G1 X128.181 Y130.151
G1 X128.38 Y130.063
G1 X128.576 Y129.974
G1 X128.955 Y129.781
G1 X129.326 Y129.566
G1 X129.686 Y129.333
G1 X130.033 Y129.082
G1 X130.366 Y128.813
G1 X130.685 Y128.527
G1 X130.989 Y128.225
G1 X131.277 Y127.908
G1 X131.548 Y127.576
G1 X131.802 Y127.231
G1 X132.037 Y126.873
G1 X132.254 Y126.503
G1 X132.451 Y126.123
G1 X132.629 Y125.733
G1 X132.785 Y125.335
G1 X132.922 Y124.928
G1 X133.036 Y124.516
G1 X133.13 Y124.098
G1 X133.202 Y123.675
G1 X133.251 Y123.253
G1 X133.268 Y123.034
G1 X133.279 Y122.822
G1 X133.284 Y122.606
G1 X133.502 Y109.021
G1 E.5 F2100
;TYPE:Inner wall
G1 F13500
G1 X138.479 Y113.998 E.19854
G1 X138.479 Y131.002 E.47961
G1 X133.502 Y135.979 E.19854
G1 X116.498 Y135.979 E.47961
G1 X111.521 Y131.002 E.19854
G1 X111.521 Y113.998 E.47961
G1 X116.498 Y109.021 E.19854
G1 X133.462 Y109.021 E.47848
G1 X133.65 Y108.664 F36000
G1 F13500
G1 X138.836 Y113.85 E.20688
G1 X138.836 Y131.15 E.48795
G1 X133.65 Y136.336 E.20688
G1 X116.35 Y136.336 E.48795
G1 X111.164 Y131.15 E.20688
G1 X111.164 Y113.85 E.48795
G1 X116.35 Y108.664 E.20688
G1 X133.61 Y108.664 E.48682
G1 X133.797 Y108.307 F36000
G1 F13500
G1 X133.916 Y108.426 E.00473
G1 X139.193 Y113.703 E.21049
G1 X139.193 Y131.297 E.4963
G1 X133.797 Y136.693 E.21523
G1 X116.203 Y136.693 E.4963
G1 X110.807 Y131.297 E.21523
G1 X110.807 Y113.703 E.4963
G1 X116.203 Y108.307 E.21523
G1 X133.757 Y108.307 E.49517
G1 X133.945 Y107.95 F36000
;TYPE:Outer wall
G1 F13500
G1 X134.169 Y108.173 E.00891
G1 X139.55 Y113.555 E.21466
G1 X139.55 Y131.445 E.50464
G1 X133.945 Y137.05 E.22357
G1 X116.055 Y137.05 E.50464
G1 X110.45 Y131.445 E.22357
G1 X110.45 Y113.555 E.50464
G1 X116.055 Y107.95 E.22357
G1 X133.905 Y107.95 E.50351
G1 E-.35 F2100
;WIPE_START
G1 F13500
G1 X134.169 Y108.173 E-.05178
G1 X134.632 Y108.636 E-.09822
;WIPE_END
G1 X138.372 Y114.272 F36000
G1 E.5 F2100
;TYPE:Bottom surface
;WIDTH:0.402297
G1 F13500
G1 X133.389 Y109.289 E.20004
G1 X132.881 Y109.289 E.01443
G1 X138.211 Y114.619 E.21399
G1 X138.211 Y115.127 E.01443
G1 X132.373 Y109.289 E.23439
G1 X131.864 Y109.289 E.01443
G1 X138.211 Y115.636 E.2548
G1 X138.211 Y116.144 E.01443
G1 X131.356 Y109.289 E.2752
G1 X130.848 Y109.289 E.01443
G1 X138.211 Y116.652 E.29561
G1 X138.211 Y117.16 E.01443
G1 X130.34 Y109.289 E.31601
G1 X129.831 Y109.289 E.01443
G1 X138.211 Y117.669 E.33641
G1 X138.211 Y118.177 E.01443
G1 X129.323 Y109.289 E.35682
G1 X128.815 Y109.289 E.01443
G1 X138.211 Y118.685 E.37722
G1 X138.211 Y119.193 E.01443
G1 X128.307 Y109.289 E.39763
G1 X127.798 Y109.289 E.01443
G1 X138.211 Y119.702 E.41803
G1 X138.211 Y120.21 E.01443
G1 X127.29 Y109.289 E.43844
G1 X126.782 Y109.289 E.01443
G1 X138.211 Y120.718 E.45884
G1 X138.211 Y121.226 E.01443
G1 X126.274 Y109.289 E.47924
G1 X125.766 Y109.289 E.01443
G1 X138.211 Y121.734 E.49965
G1 X138.211 Y122.243 E.01443
G1 X125.257 Y109.289 E.52005
G1 X124.749 Y109.289 E.01443
G1 X129.913 Y114.453 E.20732
G1 X130.339 Y114.714 E.01419
G1 X131.115 Y115.307 E.02771
G1 X131.824 Y115.977 E.02771
G1 X132.448 Y116.701 E.02714
G1 X132.761 Y117.126 E.01499
G1 X133.047 Y117.587 E.01541
G1 X138.211 Y122.751 E.2073
G1 X138.211 Y123.259 E.01443
G1 X133.621 Y118.669 E.18429
G1 X133.693 Y118.817 E.00468
G1 X133.94 Y119.496 E.02053
G1 X138.211 Y123.767 E.17147
G1 X138.211 Y124.276 E.01443
G1 X134.146 Y120.21 E.16321
G1 X134.263 Y120.68 E.01373
G1 X134.29 Y120.863 E.00524
G1 X138.211 Y124.784 E.15743
G1 X138.211 Y125.292 E.01443
G1 X134.375 Y121.456 E.15402
G1 X134.402 Y121.645 E.00542
G1 X134.416 Y122.005 E.01024
G1 X138.211 Y125.8 E.15237
G1 X138.211 Y126.309 E.01443
G1 X134.436 Y122.534 E.15154
G1 X134.418 Y123.024 E.01392
G1 X138.211 Y126.817 E.15228
G1 X138.211 Y127.325 E.01443
G1 X134.382 Y123.496 E.15374
G1 X134.318 Y123.94 E.01275
G1 X138.211 Y127.833 E.1563
G1 X138.211 Y128.342 E.01443
G1 X134.249 Y124.379 E.15907
G1 X134.147 Y124.786 E.01189
G1 X138.211 Y128.85 E.16317
G1 X138.211 Y129.358 E.01443
G1 X134.045 Y125.192 E.16726
G1 X133.915 Y125.571 E.01136
G1 X138.211 Y129.866 E.17245
G1 X138.211 Y130.375 E.01443
G1 X133.78 Y125.943 E.1779
G1 X133.633 Y126.305 E.01108
G1 X138.211 Y130.891 E.18394
G1 X137.961 Y131.141 E.01004
G1 X133.467 Y126.647 E.18041
G1 X133.301 Y126.989 E.01079
G1 X137.707 Y131.395 E.17688
G1 X137.453 Y131.649 E.0102
G1 X133.112 Y127.309 E.17426
G1 X132.917 Y127.622 E.01048
G1 X137.198 Y131.903 E.17188
G1 X136.944 Y132.157 E.0102
G1 X132.719 Y127.932 E.16965
G1 X132.497 Y128.218 E.01028
G1 X136.69 Y132.411 E.16836
G1 X136.436 Y132.666 E.0102
G1 X132.275 Y128.504 E.16707
G1 X132.041 Y128.779 E.01023
G1 X136.182 Y132.92 E.16625
G1 X135.928 Y133.174 E.0102
G1 X131.793 Y129.039 E.16602
G1 X131.544 Y129.298 E.0102
G1 X135.674 Y133.428 E.16579
G1 X135.42 Y133.682 E.0102
G1 X131.277 Y129.539 E.16633
G1 X131.002 Y129.772 E.01024
G1 X135.166 Y133.936 E.16716
G1 X134.911 Y134.19 E.0102
G1 X130.726 Y130.005 E.16802
G1 X130.425 Y130.212 E.01038
G1 X134.657 Y134.444 E.16992
G1 X134.403 Y134.699 E.0102
G1 X130.123 Y130.419 E.17182
G1 X129.812 Y130.616 E.01046
G1 X134.149 Y134.953 E.17412
G1 X133.895 Y135.207 E.0102
G1 X129.483 Y130.794 E.17714
G1 X129.153 Y130.973 E.01064
G1 X133.641 Y135.461 E.18016
G1 X133.391 Y135.711 E.01004
G1 X128.806 Y131.135 E.18389
G1 X128.445 Y131.281 E.01107
G1 X132.874 Y135.711 E.17783
G1 X132.366 Y135.711 E.01443
G1 X128.07 Y131.415 E.17247
G1 X127.695 Y131.548 E.01131
G1 X131.858 Y135.711 E.16715
G1 X131.35 Y135.711 E.01443
G1 X127.286 Y131.647 E.16315
G1 X126.877 Y131.747 E.01194
G1 X130.842 Y135.711 E.15915
G1 X130.333 Y135.711 E.01443
G1 X126.441 Y131.819 E.15625
G1 X125.994 Y131.88 E.01281
G1 X129.825 Y135.711 E.1538
G1 X129.317 Y135.711 E.01443
G1 X125.522 Y131.916 E.15234
G1 X125.03 Y131.932 E.01398
G1 X128.809 Y135.711 E.1517
G1 X128.3 Y135.711 E.01443
G1 X124.506 Y131.917 E.15231
G1 X123.959 Y131.878 E.01557
G1 X127.792 Y135.711 E.15388
G1 X127.284 Y135.711 E.01443
G1 X123.357 Y131.784 E.15765
G1 X122.882 Y131.7 E.0137
G1 X122.718 Y131.654 E.00482
G1 X126.776 Y135.711 E.16289
G1 X126.267 Y135.711 E.01443
G1 X122.007 Y131.451 E.17103
G1 X121.171 Y131.123 E.0255
G1 X125.92 Y135.872 E.19065
G1 E-.35 F2100
;WIPE_START
G1 F13500
G1 X125.213 Y135.165 E-.15
;WIPE_END
G1 X131.277 Y127.908 F36000
G1 X131.548 Y127.576
G1 X131.802 Y127.231
G1 X132.037 Y126.873
G1 X132.254 Y126.503
G1 X132.451 Y126.123
G1 X132.629 Y125.733
G1 X132.785 Y125.335
G1 X132.922 Y124.928
G1 X133.036 Y124.516
G1 X133.13 Y124.098
G1 X133.202 Y123.675
G1 X133.251 Y123.253
G1 X133.268 Y123.034
G1 X133.279 Y122.822
G1 X133.284 Y122.606
G1 X133.284 Y122.394
G1 X133.279 Y122.178
G1 X133.268 Y121.966
G1 X133.251 Y121.747
G1 X133.202 Y121.325
G1 X133.13 Y120.902
G1 X133.036 Y120.484
G1 X132.922 Y120.072
G1 X132.785 Y119.665
