; HEADER_BLOCK_START
; generated by OrcaSlicer 2.2.0 on 2025-10-27 at 12:38:52
; total layer number: 150
; filament_density: 1.24
; filament_diameter: 1.75
; max_z_height: 30.00
; HEADER_BLOCK_END

; THUMBNAIL_BLOCK_START

;
; THUMBNAIL_BLOCK_END

; THUMBNAIL_BLOCK_START

;
; THUMBNAIL_BLOCK_END

; external perimeters extrusion width = 0.40mm
; perimeters extrusion width = 0.40mm
; infill extrusion width = 0.40mm
; solid infill extrusion width = 0.40mm
; top infill extrusion width = 0.40mm
; first layer extrusion width = 0.40mm

; EXECUTABLE_BLOCK_START
EXCLUDE_OBJECT_DEFINE NAME=Voron_Design_Cube_v7_id_0_copy_0 CENTER=125,122.5 POLYGON=[[110,107.5],[140,107.5],[140,137.5],[110,137.5],[110,107.5]]
M73 P0 R20
;TYPE:Custom
PRINT_START EXTRUDER_TEMP=245 BED_TEMP=65
G90
G21
M83 ; use relative distances for extrusion
; filament start gcode
M106 P3 S255


SET_PRESSURE_ADVANCE ADVANCE=0.02; Override pressure advance value
M106 S0
;LAYER_CHANGE
;Z:0.2
;HEIGHT:0.2
;BEFORE_LAYER_CHANGE
;0.2
G92 E0

G1 E-.5 F2100
;AFTER_LAYER_CHANGE
;0.2
;_SET_FAN_SPEED_CHANGING_LAYER
SET_VELOCITY_LIMIT ACCEL=2500
SET_VELOCITY_LIMIT SQUARE_CORNER_VELOCITY=12
; printing object Voron_Design_Cube_v7 id:0 copy 0
EXCLUDE_OBJECT_START NAME=Voron_Design_Cube_v7_id_0_copy_0
G1 X123.115 Y130.744 F36000
G1 Z.2
G1 E.5 F2100
;TYPE:Inner wall
;WIDTH:0.4
G1 F12000
G1 X123.102 Y130.742 E.00035
G1 X122.262 Y130.502 E.02403
G1 X121.45 Y130.177 E.02405
G1 X120.676 Y129.769 E.02404
G1 X119.949 Y129.284 E.02404
G1 X119.276 Y128.726 E.02404
G1 X118.664 Y128.102 E.02404
G1 X118.119 Y127.418 E.02404
G1 X117.648 Y126.681 E.02404
G1 X117.259 Y125.906 E.02384
G1 X117.088 Y125.488 E.01242
G1 X116.823 Y124.663 E.02384
G1 X116.644 Y123.807 E.02404
G1 X116.553 Y122.937 E.02404
G1 X116.553 Y122.063 E.02404
G1 X116.644 Y121.193 E.02404
G1 X116.823 Y120.337 E.02404
G1 X117.09 Y119.505 E.02404
G1 X117.442 Y118.704 E.02404
G1 X117.87 Y117.95 E.02384
G1 X118.123 Y117.576 E.01242
G1 X118.664 Y116.898 E.02384
G1 X119.276 Y116.274 E.02404
G1 X119.949 Y115.716 E.02404
G1 X120.676 Y115.231 E.02404
G1 X121.443 Y114.827 E.02383
G1 X121.859 Y114.648 E.01244
G1 X122.679 Y114.367 E.02383
G1 X123.531 Y114.171 E.02404
G1 X124.399 Y114.064 E.02404
G1 X125.273 Y114.047 E.02404
G1 X126.144 Y114.12 E.02404
G1 X127.003 Y114.283 E.02404
G1 X127.833 Y114.531 E.02382
G1 X128.256 Y114.695 E.01245
G1 X129.037 Y115.068 E.02382
G1 X129.783 Y115.525 E.02404
G1 X130.478 Y116.056 E.02404
G1 X131.114 Y116.656 E.02404
G1 X131.68 Y117.313 E.02384
G1 X131.947 Y117.677 E.01242
G1 X132.405 Y118.413 E.02384
G1 X132.787 Y119.201 E.02406
G1 X133.086 Y120.021 E.02401
G1 X133.299 Y120.869 E.02404
G1 X133.422 Y121.734 E.02401
G1 X133.456 Y122.605 E.02396
G1 X133.422 Y123.27 E.01831
G1 X133.299 Y124.131 E.02391
G1 X133.086 Y124.979 E.02404
G1 X132.787 Y125.8 E.02404
G1 X132.405 Y126.587 E.02404
G1 X131.943 Y127.329 E.02404
G1 X131.408 Y128.02 E.02404
G1 X130.803 Y128.652 E.02404
G1 X130.137 Y129.219 E.02404
G1 X129.416 Y129.713 E.02404
G1 X128.655 Y130.127 E.02382
G1 X128.241 Y130.311 E.01245
G1 X127.425 Y130.602 E.02382
G1 X126.576 Y130.81 E.02404
G1 X125.709 Y130.928 E.02404
G1 X124.836 Y130.956 E.02404
G1 X123.963 Y130.894 E.02404
G1 X123.154 Y130.751 E.02259
G1 X123.183 Y130.394 F36000
;TYPE:Outer wall
G1 F12000
G1 X122.378 Y130.164 E.02301
G1 X121.6 Y129.852 E.02303
G1 X120.859 Y129.462 E.02302
G1 X120.163 Y128.997 E.02302
G1 X119.518 Y128.463 E.02302
G1 X118.931 Y127.865 E.02302
G1 X118.41 Y127.21 E.02302
G1 X117.959 Y126.505 E.02302
G1 X117.584 Y125.759 E.02295
G1 X117.424 Y125.366 E.01166
G1 X117.169 Y124.571 E.02295
G1 X116.997 Y123.752 E.02302
G1 X116.911 Y122.919 E.02302
G1 X116.911 Y122.081 E.02302
G1 X116.997 Y121.248 E.02302
G1 X117.169 Y120.429 E.02302
G1 X117.425 Y119.631 E.02302
G1 X117.761 Y118.865 E.02302
G1 X118.174 Y118.139 E.02295
G1 X118.412 Y117.788 E.01166
G1 X118.931 Y117.135 E.02295
G1 X119.518 Y116.537 E.02302
G1 X120.163 Y116.003 E.02302
G1 X120.859 Y115.538 E.02302
G1 X121.598 Y115.149 E.02294
G1 X121.987 Y114.981 E.01168
G1 X122.777 Y114.711 E.02294
G1 X123.593 Y114.523 E.02302
G1 X124.424 Y114.42 E.02302
G1 X125.261 Y114.404 E.02302
G1 X126.096 Y114.474 E.02302
G1 X126.918 Y114.63 E.02302
G1 X127.718 Y114.87 E.02293
G1 X128.114 Y115.023 E.01169
G1 X128.867 Y115.383 E.02293
G1 X129.581 Y115.82 E.02302
G1 X130.246 Y116.328 E.02302
G1 X130.855 Y116.903 E.02302
G1 X131.4 Y117.535 E.02295
G1 X131.651 Y117.877 E.01166
G1 X132.092 Y118.586 E.02295
G1 X132.458 Y119.34 E.02305
G1 X132.744 Y120.126 E.023
G1 X132.948 Y120.938 E.02302
G1 X133.066 Y121.766 E.023
G1 X133.099 Y122.603 E.02301
G1 X133.066 Y123.235 E.01742
G1 X132.948 Y124.062 E.02296
G1 X132.744 Y124.874 E.02302
G1 X132.458 Y125.661 E.02302
G1 X132.092 Y126.414 E.02302
G1 X131.65 Y127.125 E.02302
G1 X131.137 Y127.787 E.02302
G1 X130.558 Y128.392 E.02302
G1 X129.92 Y128.935 E.02302
G1 X129.23 Y129.408 E.02302
G1 X128.497 Y129.806 E.02293
G1 X128.108 Y129.98 E.01169
G1 X127.323 Y130.26 E.02294
G1 X126.509 Y130.458 E.02302
G1 X125.679 Y130.572 E.02302
G1 X124.842 Y130.599 E.02302
G1 X124.007 Y130.539 E.02302
G1 X123.222 Y130.401 E.02192
G1 E-.35 F2100
;WIPE_START
G1 F12000
G1 X122.378 Y130.164 E-.13152
G1 X122.263 Y130.118 E-.01848
;WIPE_END
G1 X133.797 Y108.307 F36000
G1 E.5 F2100
;TYPE:Inner wall
G1 F12000
G1 X133.916 Y108.426 E.00461
G1 X139.193 Y113.703 E.20517
G1 X139.193 Y131.297 E.48376
G1 X133.797 Y136.693 E.20979
G1 X116.203 Y136.693 E.48376
G1 X110.807 Y131.297 E.20979
G1 X110.807 Y113.703 E.48376
G1 X116.203 Y108.307 E.20979
G1 X133.757 Y108.307 E.48266
G1 X133.945 Y107.95 F36000
;TYPE:Outer wall
G1 F12000
G1 X134.169 Y108.173 E.00868
G1 X139.55 Y113.555 E.20924
G1 X139.55 Y131.445 E.49189
G1 X133.945 Y137.05 E.21792
G1 X116.055 Y137.05 E.49189
G1 X110.45 Y131.445 E.21792
G1 X110.45 Y113.555 E.49189
G1 X116.055 Y107.95 E.21792
G1 X133.905 Y107.95 E.49079
G1 X133.524 Y108.414 F36000
;TYPE:Bottom surface
;WIDTH:0.402195
G1 F12000
G1 X138.925 Y113.815 E.21129
G1 X138.925 Y114.323 E.01406
G1 X133.177 Y108.575 E.22488
G1 X132.669 Y108.575 E.01406
G1 X138.925 Y114.831 E.24476
G1 X138.925 Y115.339 E.01406
G1 X132.161 Y108.575 E.26464
G1 X131.653 Y108.575 E.01406
G1 X138.925 Y115.847 E.28451
G1 X138.925 Y116.356 E.01406
G1 X131.144 Y108.575 E.30439
G1 X130.636 Y108.575 E.01406
G1 X138.925 Y116.864 E.32427
G1 X138.925 Y117.372 E.01406
G1 X130.128 Y108.575 E.34415
G1 X129.62 Y108.575 E.01406
G1 X138.925 Y117.88 E.36402
G1 X138.925 Y118.388 E.01406
G1 X129.112 Y108.575 E.3839
G1 X128.604 Y108.575 E.01406
G1 X138.925 Y118.896 E.40378
G1 X138.925 Y119.404 E.01406
G1 X128.096 Y108.575 E.42366
G1 X127.588 Y108.575 E.01406
G1 X138.925 Y119.912 E.44353
G1 X138.925 Y120.42 E.01406
G1 X127.08 Y108.575 E.46341
G1 X126.572 Y108.575 E.01406
G1 X138.925 Y120.928 E.48329
G1 X138.925 Y121.436 E.01406
G1 X126.064 Y108.575 E.50317
G1 X125.555 Y108.575 E.01406
G1 X138.925 Y121.945 E.52304
G1 X138.925 Y122.453 E.01406
G1 X125.047 Y108.575 E.54292
G1 X124.539 Y108.575 E.01406
G1 X138.925 Y122.961 E.5628
G1 X138.925 Y123.469 E.01406
G1 X124.031 Y108.575 E.58267
G1 X123.523 Y108.575 E.01406
G1 X138.925 Y123.977 E.60255
G1 X138.925 Y124.485 E.01406
G1 X132.501 Y118.06 E.25134
G1 X132.169 Y117.527 E.01738
G1 X131.889 Y117.146 E.01307
G1 X131.308 Y116.471 E.02466
G1 X130.651 Y115.852 E.02495
G1 X129.935 Y115.304 E.02495
G1 X129.442 Y115.002 E.01597
G1 X123.015 Y108.575 E.25145
G1 X122.507 Y108.575 E.01406
G1 X128.398 Y114.465 E.23045
G1 X127.92 Y114.278 E.01419
G1 X127.609 Y114.185 E.00899
G1 X121.999 Y108.575 E.21946
G1 X121.491 Y108.575 E.01406
G1 X126.908 Y113.992 E.21194
G1 X126.281 Y113.873 E.01765
G1 X120.983 Y108.575 E.20729
G1 X120.475 Y108.575 E.01406
G1 X125.715 Y113.815 E.20501
G1 X125.172 Y113.781 E.01504
G1 X119.966 Y108.575 E.20366
G1 X119.458 Y108.575 E.01406
G1 X124.674 Y113.79 E.20404
G1 X124.194 Y113.819 E.01329
G1 X118.95 Y108.575 E.20516
G1 X118.442 Y108.575 E.01406
G1 X123.742 Y113.875 E.20734
G1 X123.307 Y113.948 E.01221
G1 X117.934 Y108.575 E.21019
G1 X117.426 Y108.575 E.01406
G1 X122.894 Y114.043 E.21391
G1 X122.491 Y114.148 E.01151
G1 X116.918 Y108.575 E.21804
G1 X116.41 Y108.575 E.01406
G1 X122.113 Y114.278 E.2231
G1 X121.736 Y114.409 E.01104
G1 X116.108 Y108.781 E.22019
G1 X115.854 Y109.035 E.00994
G1 X121.381 Y114.562 E.21624
G1 X121.045 Y114.734 E.01044
G1 X115.599 Y109.289 E.21303
G1 X115.345 Y109.543 E.00994
G1 X120.712 Y114.909 E.20995
G1 X120.393 Y115.098 E.01026
G1 X115.091 Y109.797 E.20739
G1 X114.837 Y110.051 E.00994
G1 X120.088 Y115.301 E.20541
G1 X119.784 Y115.505 E.01013
G1 X114.583 Y110.305 E.20344
G1 X114.329 Y110.559 E.00994
G1 X119.506 Y115.735 E.20251
G1 X119.228 Y115.966 E.00998
G1 X114.075 Y110.813 E.20158
G1 X113.821 Y111.067 E.00994
G1 X118.964 Y116.21 E.20118
G1 X118.712 Y116.466 E.00994
G1 X113.567 Y111.321 E.20127
G1 X113.313 Y111.575 E.00994
G1 X118.461 Y116.723 E.20138
G1 X118.235 Y117.006 E.01
G1 X113.059 Y111.829 E.20251
G1 X112.805 Y112.083 E.00994
G1 X118.01 Y117.289 E.20364
G1 X117.796 Y117.582 E.01006
G1 X112.551 Y112.337 E.2052
G1 X112.297 Y112.591 E.00994
G1 X117.596 Y117.891 E.20732
G1 X117.412 Y118.215 E.01031
G1 X112.043 Y112.845 E.21005
G1 X111.789 Y113.1 E.00994
G1 X117.228 Y118.539 E.21278
G1 X117.069 Y118.888 E.01061
G1 X111.535 Y113.354 E.2165
G1 X111.281 Y113.608 E.00994
G1 X116.914 Y119.241 E.22037
G1 X116.775 Y119.61 E.01092
G1 X111.075 Y113.91 E.22301
G1 X111.075 Y114.418 E.01406
G1 X116.652 Y119.995 E.21818
G1 X116.539 Y120.39 E.01136
G1 X111.075 Y114.926 E.21375
G1 X111.075 Y115.434 E.01406
G1 X116.451 Y120.81 E.2103
G1 X116.37 Y121.237 E.01203
G1 X111.075 Y115.942 E.20715
G1 X111.075 Y116.45 E.01406
G1 X116.322 Y121.698 E.20528
M73 P1 R20
G1 X116.286 Y122.169 E.01309
M73 P1 R20
G1 X111.075 Y116.958 E.20385
G1 X111.075 Y117.467 E.01406
G1 X116.286 Y122.677 E.20385
G1 X116.286 Y122.951 E.00757
G1 X116.313 Y123.212 E.00727
G1 X111.075 Y117.975 E.20491
G1 X111.075 Y118.483 E.01406
G1 X116.372 Y123.779 E.20722
G1 X116.497 Y124.413 E.01787
G1 X111.075 Y118.991 E.21213
G1 X111.075 Y119.499 E.01406
G1 X116.685 Y125.109 E.21949
G1 X116.836 Y125.58 E.01367
G1 X116.966 Y125.898 E.00951
G1 X110.914 Y119.846 E.23677
G1 E-.35 F2100
;WIPE_START
G1 F12000
G1 X111.621 Y120.553 E-.15
;WIPE_END
G1 X132.692 Y118.76 F36000
G1 E.5 F2100
G1 F12000
G1 X138.925 Y124.993 E.24384
G1 X138.925 Y125.501 E.01406
G1 X133.328 Y119.905 E.21895
G1 X133.504 Y120.588 E.01953
G1 X138.925 Y126.009 E.21207
G1 X138.925 Y126.517 E.01406
G1 X133.618 Y121.21 E.20762
G1 X133.693 Y121.793 E.01626
G1 X138.925 Y127.025 E.2047
G1 X138.925 Y127.534 E.01406
G1 X133.713 Y122.322 E.20389
G1 X133.713 Y122.829 E.01404
G1 X138.925 Y128.042 E.20391
G1 X138.925 Y128.55 E.01406
G1 X133.687 Y123.311 E.20494
G1 X133.623 Y123.756 E.01242
G1 X138.925 Y129.058 E.20743
G1 X138.925 Y129.566 E.01406
G1 X133.558 Y124.198 E.20998
G1 X133.456 Y124.605 E.01159
G1 X138.925 Y130.074 E.21397
G1 X138.925 Y130.582 E.01406
G1 X133.354 Y125.011 E.21795
G1 X133.222 Y125.387 E.01103
G1 X138.925 Y131.09 E.22311
G1 X138.925 Y131.187 E.00267
G1 X138.719 Y131.392 E.00805
G1 X133.087 Y125.76 E.22036
G1 X132.932 Y126.114 E.01068
G1 X138.465 Y131.646 E.21646
G1 X138.211 Y131.901 E.00994
G1 X132.766 Y126.455 E.21302
G1 X132.593 Y126.791 E.01043
G1 X137.957 Y132.155 E.20985
G1 X137.703 Y132.409 E.00994
G1 X132.398 Y127.104 E.20753
G1 X132.204 Y127.417 E.01021
G1 X137.449 Y132.663 E.20521
G1 X137.195 Y132.917 E.00994
G1 X131.987 Y127.709 E.20373
G1 X131.766 Y127.995 E.01002
G1 X136.941 Y133.171 E.20247
G1 X136.687 Y133.425 E.00994
G1 X131.536 Y128.274 E.20152
G1 X131.287 Y128.533 E.00994
G1 X136.433 Y133.679 E.2013
G1 X136.179 Y133.933 E.00994
G1 X131.039 Y128.793 E.20107
G1 X130.77 Y129.032 E.00996
G1 X135.925 Y134.187 E.20166
G1 X135.671 Y134.441 E.00994
G1 X130.495 Y129.266 E.20247
G1 X130.213 Y129.491 E.01
G1 X135.417 Y134.695 E.20358
G1 X135.163 Y134.949 E.00994
G1 X129.912 Y129.698 E.20543
G1 X129.61 Y129.905 E.01011
G1 X134.909 Y135.203 E.20728
G1 X134.655 Y135.457 E.00994
G1 X129.286 Y130.089 E.21003
G1 X128.957 Y130.267 E.01036
G1 X134.4 Y135.711 E.21297
G1 X134.146 Y135.965 E.00994
G1 X128.618 Y130.437 E.21629
G1 X128.262 Y130.589 E.01071
G1 X133.892 Y136.219 E.22028
G1 X133.687 Y136.425 E.00805
G1 X133.59 Y136.425 E.00267
G1 X127.887 Y130.722 E.22311
G1 X127.513 Y130.856 E.011
G1 X133.082 Y136.425 E.21789
G1 X132.574 Y136.425 E.01406
G1 X127.105 Y130.956 E.21395
G1 X126.697 Y131.056 E.01163
G1 X132.066 Y136.425 E.21006
G1 X131.558 Y136.425 E.01406
G1 X126.256 Y131.124 E.20741
G1 X125.809 Y131.185 E.01248
G1 X131.05 Y136.425 E.20502
G1 X130.542 Y136.425 E.01406
G1 X125.325 Y131.208 E.20409
G1 X124.833 Y131.224 E.01362
G1 X130.033 Y136.425 E.20347
G1 X129.525 Y136.425 E.01406
G1 X124.286 Y131.185 E.20499
G1 X123.931 Y131.16 E.00985
G1 X123.714 Y131.122 E.00608
G1 X129.017 Y136.425 E.20747
G1 X128.509 Y136.425 E.01406
G1 X123.097 Y131.013 E.21172
G1 X122.395 Y130.819 E.02017
G1 X128.001 Y136.425 E.21933
G1 X127.493 Y136.425 E.01406
G1 X121.272 Y130.204 E.24338
G1 E-.35 F2100
;WIPE_START
G1 F12000
G1 X121.979 Y130.911 E-.15
;WIPE_END
G1 X127.146 Y136.586 F36000
G1 E.5 F2100
G1 F12000
G1 X120.582 Y130.022 E.25678
G1 X119.789 Y129.499 E.02628
G1 X119.094 Y128.924 E.02495
G1 X118.463 Y128.28 E.02495
G1 X117.901 Y127.574 E.02495
G1 X117.488 Y126.928 E.02121
G1 X111.075 Y120.515 E.25089
G1 X111.075 Y121.023 E.01406
G1 X126.477 Y136.425 E.60255
G1 X125.969 Y136.425 E.01406
G1 X111.075 Y121.531 E.58267
G1 X111.075 Y122.039 E.01406
G1 X125.461 Y136.425 E.56279
G1 X124.953 Y136.425 E.01406
G1 X111.075 Y122.547 E.54292
G1 X111.075 Y123.056 E.01406
G1 X124.444 Y136.425 E.52304
G1 X123.936 Y136.425 E.01406
G1 X111.075 Y123.564 E.50316
G1 X111.075 Y124.072 E.01406
G1 X123.428 Y136.425 E.48329
G1 X122.92 Y136.425 E.01406
G1 X111.075 Y124.58 E.46341
G1 X111.075 Y125.088 E.01406
G1 X122.412 Y136.425 E.44353
G1 X121.904 Y136.425 E.01406
G1 X111.075 Y125.596 E.42365
G1 X111.075 Y126.104 E.01406
G1 X121.396 Y136.425 E.40378
G1 X120.888 Y136.425 E.01406
G1 X111.075 Y126.612 E.3839
G1 X111.075 Y127.12 E.01406
G1 X120.38 Y136.425 E.36402
G1 X119.872 Y136.425 E.01406
G1 X111.075 Y127.628 E.34414
G1 X111.075 Y128.136 E.01406
G1 X119.364 Y136.425 E.32427
G1 X118.855 Y136.425 E.01406
G1 X111.075 Y128.645 E.30439
G1 X111.075 Y129.153 E.01406
G1 X118.347 Y136.425 E.28451
G1 X117.839 Y136.425 E.01406
G1 X111.075 Y129.661 E.26463
G1 X111.075 Y130.169 E.01406
G1 X117.331 Y136.425 E.24476
G1 X116.823 Y136.425 E.01406
G1 X111.075 Y130.677 E.22488
G1 X111.075 Y131.185 E.01406
G1 X116.476 Y136.586 E.21129
; stop printing object Voron_Design_Cube_v7 id:0 copy 0
;LAYER_CHANGE
;Z:0.4
;HEIGHT:0.2
;BEFORE_LAYER_CHANGE
;0.4
G92 E0

G1 E-.35 F2100
;WIPE_START
G1 F12000
G1 X115.769 Y135.879 E-.15
;WIPE_END
EXCLUDE_OBJECT_END NAME=Voron_Design_Cube_v7_id_0_copy_0
;AFTER_LAYER_CHANGE
;0.4
;_SET_FAN_SPEED_CHANGING_LAYER
SET_VELOCITY_LIMIT ACCEL=12500
M140 S65 ; set bed temperature
; printing object Voron_Design_Cube_v7 id:0 copy 0
EXCLUDE_OBJECT_START NAME=Voron_Design_Cube_v7_id_0_copy_0
G1 X123.174 Y130.491 Z.4 F36000
G1 E.5 F2100
;TYPE:Inner wall
;WIDTH:0.4
G1 F18000
G1 X122.79 Y130.405 E.01082
G1 X122.028 Y130.15 E.0221
G1 X121.585 Y129.963 E.01321
G1 X120.835 Y129.572 E.02326
G1 X120.124 Y129.102 E.02343
G1 X119.466 Y128.561 E.02343
G1 X118.867 Y127.955 E.02343
G1 X118.335 Y127.29 E.02343
G1 X117.874 Y126.573 E.02342
G1 X117.511 Y125.856 E.0221
G1 X117.327 Y125.413 E.01322
G1 X117.067 Y124.607 E.02326
G1 X116.892 Y123.773 E.02343
G1 X116.803 Y122.926 E.02343
G1 X116.803 Y122.074 E.02342
G1 X116.885 Y121.275 E.0221
G1 X116.97 Y120.802 E.01322
G1 X117.187 Y119.984 E.02326
G1 X117.49 Y119.188 E.02343
G1 X117.874 Y118.427 E.02343
G1 X118.335 Y117.71 E.02343
G1 X118.867 Y117.045 E.02343
G1 X119.466 Y116.439 E.02343
G1 X120.124 Y115.898 E.02343
G1 X120.835 Y115.428 E.02343
G1 X121.59 Y115.034 E.02343
G1 X122.383 Y114.721 E.02343
G1 X123.203 Y114.491 E.02343
G1 X124.036 Y114.349 E.02323
G1 X124.475 Y114.309 E.01211
G1 X125.32 Y114.298 E.02323
G1 X126.161 Y114.375 E.02323
