; HEADER_BLOCK_START
; generated by OrcaSlicer 2.2.0 on 2025-10-14 at 13:54:14
; total layer number: 18
; filament_density: 1.04
; filament_diameter: 1.75
; max_z_height: 4.75
; HEADER_BLOCK_END

; THUMBNAIL_BLOCK_START

;
; THUMBNAIL_BLOCK_END

; THUMBNAIL_BLOCK_START

;
; THUMBNAIL_BLOCK_END

; external perimeters extrusion width = 0.50mm
; perimeters extrusion width = 0.50mm
; infill extrusion width = 0.50mm
; solid infill extrusion width = 0.50mm
; top infill extrusion width = 0.50mm
; first layer extrusion width = 0.50mm

; EXECUTABLE_BLOCK_START
EXCLUDE_OBJECT_DEFINE NAME=baseplate-7-7.stl_id_0_copy_0 CENTER=150,172.5 POLYGON=[[3,29.5],[3.10028,28.6099],[3.39612,27.7645],[3.87268,27.006],[4.50604,26.3727],[5.26447,25.8961],[6.10991,25.6003],[7,25.5],[293,25.5],[293.89,25.6003],[294.736,25.8961],[295.494,26.3727],[296.127,27.006],[296.604,27.7645],[296.9,28.6099],[297,29.5],[297,315.5],[296.9,316.39],[296.604,317.236],[296.127,317.994],[295.494,318.627],[294.736,319.104],[293.89,319.4],[293,319.5],[7,319.5],[6.10991,319.4],[5.26447,319.104],[4.50604,318.627],[3.87268,317.994],[3.39612,317.236],[3.10028,316.39],[3,315.5],[3,29.5]]
M73 P0 R34
;TYPE:Custom
PRINT_START EXTRUDER_TEMP=245 BED_TEMP=70
G90
G21
M83 ; use relative distances for extrusion
; Filament gcode
SET_PRESSURE_ADVANCE ADVANCE=0.014; Override pressure advance value
M106 S0
;LAYER_CHANGE
;Z:0.25
;HEIGHT:0.25
;BEFORE_LAYER_CHANGE
;0.25
G92 E0

G1 E-.5 F2100
;AFTER_LAYER_CHANGE
;0.25
;_SET_FAN_SPEED_CHANGING_LAYER
SET_VELOCITY_LIMIT ACCEL=5000
SET_VELOCITY_LIMIT SQUARE_CORNER_VELOCITY=5
; printing object baseplate-7-7.stl id:0 copy 0
EXCLUDE_OBJECT_START NAME=baseplate-7-7.stl_id_0_copy_0
G1 X169.121 Y191.175 F72000
G1 Z.25
G1 E.5 F2100
;TYPE:Inner wall
;WIDTH:0.5
G1 F32261.712
G1 X169.121 Y191.621 E.01918
G1 X130.879 Y191.621 E1.64289
G1 X130.879 Y153.379 E1.64289
G1 X169.121 Y153.379 E1.64289
G1 X169.121 Y191.125 E1.62157
G1 X168.675 Y191.175 F72000
;TYPE:Outer wall
G1 F32261.712
G1 X131.325 Y191.175 E1.60454
G1 X131.325 Y153.825 E1.60454
G1 X168.675 Y153.825 E1.60454
G1 X168.675 Y191.125 E1.60239
G1 E-.43491 F2100
;WIPE_START
G1 F32261.712
G1 X167.675 Y191.126 E-.06509
;WIPE_END
G1 X168.675 Y111.379 F72000
G1 E.5 F2100
;TYPE:Inner wall
G1 F32261.712
G1 X169.121 Y111.379 E.01918
G1 X169.121 Y149.621 E1.64289
G1 X130.879 Y149.621 E1.64289
G1 X130.879 Y111.379 E1.64289
G1 X168.625 Y111.379 E1.62157
G1 X168.675 Y111.825 F72000
;TYPE:Outer wall
G1 F32261.712
G1 X168.675 Y149.175 E1.60454
G1 X131.325 Y149.175 E1.60454
G1 X131.325 Y111.825 E1.60454
G1 X168.625 Y111.825 E1.60239
G1 E-.43491 F2100
;WIPE_START
G1 F32261.712
G1 X168.626 Y112.825 E-.06509
;WIPE_END
G1 X168.675 Y107.621 F72000
G1 E.5 F2100
;TYPE:Inner wall
G1 F32261.712
G1 X130.879 Y107.621 E1.62372
G1 X130.879 Y69.379 E1.64289
G1 X169.121 Y69.379 E1.64289
G1 X169.121 Y107.621 E1.64289
G1 X168.725 Y107.621 E.01703
G1 X168.675 Y107.175 F72000
;TYPE:Outer wall
G1 F32261.712
G1 X131.325 Y107.175 E1.60454
G1 X131.325 Y69.825 E1.60454
G1 X168.675 Y69.825 E1.60454
G1 X168.675 Y107.125 E1.60239
G1 E-.43491 F2100
;WIPE_START
G1 F32261.712
G1 X167.675 Y107.126 E-.06509
;WIPE_END
G1 X131.325 Y65.621 F72000
G1 E.5 F2100
;TYPE:Inner wall
G1 F32261.712
G1 X130.879 Y65.621 E.01918
G1 X130.879 Y27.379 E1.64289
G1 X169.121 Y27.379 E1.64289
G1 X169.121 Y65.621 E1.64289
G1 X131.375 Y65.621 E1.62157
G1 X131.325 Y65.175 F72000
;TYPE:Outer wall
G1 F32261.712
G1 X131.325 Y27.825 E1.60454
G1 X168.675 Y27.825 E1.60454
G1 X168.675 Y65.175 E1.60454
G1 X131.375 Y65.175 E1.60239
G1 E-.43491 F2100
;WIPE_START
G1 F32261.712
G1 X131.374 Y64.175 E-.06509
;WIPE_END
G1 X126.675 Y65.621 F72000
G1 E.5 F2100
;TYPE:Inner wall
G1 F32261.712
G1 X88.879 Y65.621 E1.62372
G1 X88.879 Y27.379 E1.64289
G1 X127.121 Y27.379 E1.64289
G1 X127.121 Y65.621 E1.64289
G1 X126.725 Y65.621 E.01703
G1 X126.675 Y65.175 F72000
;TYPE:Outer wall
G1 F32261.712
G1 X89.325 Y65.175 E1.60454
G1 X89.325 Y27.825 E1.60454
G1 X126.675 Y27.825 E1.60454
G1 X126.675 Y65.125 E1.60239
G1 E-.43491 F2100
;WIPE_START
G1 F32261.712
G1 X125.675 Y65.126 E-.06509
;WIPE_END
G1 X85.121 Y65.175 F72000
G1 E.5 F2100
;TYPE:Inner wall
G1 F32261.712
G1 X85.121 Y65.621 E.01917
G1 X46.879 Y65.621 E1.64289
G1 X46.879 Y27.379 E1.64289
G1 X85.121 Y27.379 E1.64289
G1 X85.121 Y65.125 E1.62157
G1 X84.675 Y65.175 F72000
;TYPE:Outer wall
G1 F32261.712
G1 X47.325 Y65.175 E1.60454
G1 X47.325 Y27.825 E1.60454
G1 X84.675 Y27.825 E1.60454
G1 X84.675 Y65.125 E1.60239
G1 E-.43491 F2100
;WIPE_START
G1 F32261.712
G1 X83.675 Y65.126 E-.06509
;WIPE_END
G1 X43.121 Y27.825 F72000
G1 E.5 F2100
;TYPE:Inner wall
G1 F32261.712
G1 X43.121 Y65.621 E1.62372
G1 X4.879 Y65.621 E1.64289
G1 X4.879 Y29.43 E1.55477
G1 X4.959 Y28.926 E.02194
G1 X5.073 Y28.6 E.01484
G1 X5.383 Y28.124 E.02437
G1 X5.624 Y27.883 E.01465
G1 X6.1 Y27.573 E.02437
G1 X6.426 Y27.459 E.01484
G1 X6.93 Y27.379 E.02194
G1 X43.121 Y27.379 E1.55477
G1 X43.121 Y27.775 E.01703
G1 X42.675 Y27.825 F72000
;TYPE:Outer wall
G1 F32261.712
G1 X42.675 Y65.175 E1.60454
G1 X5.325 Y65.175 E1.60454
G1 X5.325 Y29.465 E1.53407
G1 X5.394 Y29.035 E.01871
G1 X5.477 Y28.798 E.01082
G1 X5.731 Y28.406 E.02005
G1 X5.906 Y28.231 E.01063
G1 X6.298 Y27.977 E.02005
G1 X6.535 Y27.894 E.01082
G1 X6.965 Y27.825 E.01871
G1 X42.625 Y27.825 E1.53192
G1 E-.43491 F2100
;WIPE_START
G1 F32261.712
G1 X42.626 Y28.825 E-.06509
;WIPE_END
G1 X43.121 Y107.175 F72000
G1 E.5 F2100
;TYPE:Inner wall
G1 F32261.712
G1 X43.121 Y107.621 E.01917
G1 X4.879 Y107.621 E1.64289
G1 X4.879 Y69.379 E1.64289
G1 X43.121 Y69.379 E1.64289
G1 X43.121 Y107.125 E1.62157
G1 X42.675 Y107.175 F72000
;TYPE:Outer wall
G1 F32261.712
G1 X5.325 Y107.175 E1.60454
G1 X5.325 Y69.825 E1.60454
G1 X42.675 Y69.825 E1.60454
G1 X42.675 Y107.125 E1.60239
G1 E-.43491 F2100
;WIPE_START
G1 F32261.712
G1 X41.675 Y107.126 E-.06509
;WIPE_END
G1 X43.121 Y149.175 F72000
G1 E.5 F2100
;TYPE:Inner wall
G1 F32261.712
G1 X43.121 Y149.621 E.01917
G1 X4.879 Y149.621 E1.64289
G1 X4.879 Y111.379 E1.64289
G1 X43.121 Y111.379 E1.64289
G1 X43.121 Y149.125 E1.62157
G1 X42.675 Y149.175 F72000
;TYPE:Outer wall
G1 F32261.712
G1 X5.325 Y149.175 E1.60454
G1 X5.325 Y111.825 E1.60454
G1 X42.675 Y111.825 E1.60454
G1 X42.675 Y149.125 E1.60239
G1 E-.43491 F2100
;WIPE_START
G1 F32261.712
G1 X41.675 Y149.126 E-.06509
;WIPE_END
G1 X43.121 Y153.825 F72000
G1 E.5 F2100
;TYPE:Inner wall
G1 F32261.712
G1 X43.121 Y191.621 E1.62372
G1 X4.879 Y191.621 E1.64289
G1 X4.879 Y153.379 E1.64289
G1 X43.121 Y153.379 E1.64289
G1 X43.121 Y153.775 E.01703
G1 X42.675 Y153.825 F72000
;TYPE:Outer wall
G1 F32261.712
G1 X42.675 Y191.175 E1.60454
G1 X5.325 Y191.175 E1.60454
G1 X5.325 Y153.825 E1.60454
G1 X42.625 Y153.825 E1.60239
G1 E-.43491 F2100
;WIPE_START
G1 F32261.712
G1 X42.626 Y154.825 E-.06509
;WIPE_END
G1 X85.121 Y191.175 F72000
G1 E.5 F2100
;TYPE:Inner wall
G1 F32261.712
G1 X85.121 Y191.621 E.01918
G1 X46.879 Y191.621 E1.64289
G1 X46.879 Y153.379 E1.64289
G1 X85.121 Y153.379 E1.64289
G1 X85.121 Y191.125 E1.62157
G1 X84.675 Y191.175 F72000
;TYPE:Outer wall
G1 F32261.712
G1 X47.325 Y191.175 E1.60454
G1 X47.325 Y153.825 E1.60454
G1 X84.675 Y153.825 E1.60454
G1 X84.675 Y191.125 E1.60239
G1 E-.43491 F2100
;WIPE_START
G1 F32261.712
G1 X83.675 Y191.126 E-.06509
;WIPE_END
G1 X89.325 Y191.621 F72000
G1 E.5 F2100
;TYPE:Inner wall
G1 F32261.712
G1 X88.879 Y191.621 E.01918
G1 X88.879 Y153.379 E1.64289
G1 X127.121 Y153.379 E1.64289
G1 X127.121 Y191.621 E1.64289
G1 X89.375 Y191.621 E1.62157
G1 X89.325 Y191.175 F72000
;TYPE:Outer wall
G1 F32261.712
G1 X89.325 Y153.825 E1.60454
G1 X126.675 Y153.825 E1.60454
G1 X126.675 Y191.175 E1.60454
G1 X89.375 Y191.175 E1.60239
G1 E-.43491 F2100
;WIPE_START
G1 F32261.712
G1 X89.374 Y190.175 E-.06509
;WIPE_END
G1 X127.121 Y111.825 F72000
G1 E.5 F2100
;TYPE:Inner wall
G1 F32261.712
G1 X127.121 Y149.621 E1.62372
G1 X88.879 Y149.621 E1.64289
M73 P1 R34
G1 X88.879 Y111.379 E1.64289
M73 P1 R34
G1 X127.121 Y111.379 E1.64289
G1 X127.121 Y111.775 E.01703
G1 X126.675 Y111.825 F72000
;TYPE:Outer wall
G1 F32261.712
G1 X126.675 Y149.175 E1.60454
G1 X89.325 Y149.175 E1.60454
G1 X89.325 Y111.825 E1.60454
G1 X126.625 Y111.825 E1.60239
G1 E-.43491 F2100
;WIPE_START
G1 F32261.712
G1 X126.626 Y112.825 E-.06509
;WIPE_END
G1 X46.879 Y149.175 F72000
G1 E.5 F2100
;TYPE:Inner wall
G1 F32261.712
G1 X46.879 Y111.379 E1.62372
G1 X85.121 Y111.379 E1.64289
G1 X85.121 Y149.621 E1.64289
G1 X46.879 Y149.621 E1.64289
G1 X46.879 Y149.225 E.01703
G1 X47.325 Y149.175 F72000
;TYPE:Outer wall
G1 F32261.712
G1 X47.325 Y111.825 E1.60454
G1 X84.675 Y111.825 E1.60454
G1 X84.675 Y149.175 E1.60454
G1 X47.375 Y149.175 E1.60239
G1 E-.43491 F2100
;WIPE_START
G1 F32261.712
G1 X47.374 Y148.175 E-.06509
;WIPE_END
G1 X47.325 Y107.621 F72000
G1 E.5 F2100
;TYPE:Inner wall
G1 F32261.712
G1 X46.879 Y107.621 E.01917
G1 X46.879 Y69.379 E1.64289
G1 X85.121 Y69.379 E1.64289
G1 X85.121 Y107.621 E1.64289
G1 X47.375 Y107.621 E1.62157
G1 X47.325 Y107.175 F72000
;TYPE:Outer wall
G1 F32261.712
G1 X47.325 Y69.825 E1.60454
G1 X84.675 Y69.825 E1.60454
G1 X84.675 Y107.175 E1.60454
G1 X47.375 Y107.175 E1.60239
G1 E-.43491 F2100
;WIPE_START
G1 F32261.712
G1 X47.374 Y106.175 E-.06509
;WIPE_END
G1 X126.675 Y107.621 F72000
G1 E.5 F2100
;TYPE:Inner wall
G1 F32261.712
G1 X88.879 Y107.621 E1.62372
G1 X88.879 Y69.379 E1.64289
G1 X127.121 Y69.379 E1.64289
G1 X127.121 Y107.621 E1.64289
G1 X126.725 Y107.621 E.01703
G1 X126.675 Y107.175 F72000
;TYPE:Outer wall
G1 F32261.712
G1 X89.325 Y107.175 E1.60454
G1 X89.325 Y69.825 E1.60454
G1 X126.675 Y69.825 E1.60454
G1 X126.675 Y107.125 E1.60239
G1 E-.43491 F2100
;WIPE_START
G1 F32261.712
G1 X125.675 Y107.126 E-.06509
;WIPE_END
G1 X214.879 Y69.825 F72000
G1 E.5 F2100
;TYPE:Inner wall
G1 F32261.712
G1 X214.879 Y69.379 E.01917
G1 X253.121 Y69.379 E1.64289
G1 X253.121 Y107.621 E1.64289
G1 X214.879 Y107.621 E1.64289
G1 X214.879 Y69.875 E1.62157
G1 X215.325 Y69.825 F72000
;TYPE:Outer wall
G1 F32261.712
G1 X252.675 Y69.825 E1.60454
G1 X252.675 Y107.175 E1.60454
G1 X215.325 Y107.175 E1.60454
G1 X215.325 Y69.875 E1.60239
G1 E-.43491 F2100
;WIPE_START
G1 F32261.712
G1 X216.325 Y69.874 E-.06509
;WIPE_END
G1 X173.325 Y107.621 F72000
G1 E.5 F2100
;TYPE:Inner wall
G1 F32261.712
G1 X172.879 Y107.621 E.01917
G1 X172.879 Y69.379 E1.64289
G1 X211.121 Y69.379 E1.64289
G1 X211.121 Y107.621 E1.64289
G1 X173.375 Y107.621 E1.62157
G1 X173.325 Y107.175 F72000
;TYPE:Outer wall
G1 F32261.712
G1 X173.325 Y69.825 E1.60454
G1 X210.675 Y69.825 E1.60454
G1 X210.675 Y107.175 E1.60454
G1 X173.375 Y107.175 E1.60239
G1 E-.43491 F2100
;WIPE_START
G1 F32261.712
G1 X173.374 Y106.175 E-.06509
;WIPE_END
G1 X173.325 Y65.621 F72000
G1 E.5 F2100
;TYPE:Inner wall
G1 F32261.712
G1 X172.879 Y65.621 E.01917
G1 X172.879 Y27.379 E1.64289
M73 P1 R33
G1 X211.121 Y27.379 E1.64289
M73 P1 R33
G1 X211.121 Y65.621 E1.64289
G1 X173.375 Y65.621 E1.62157
G1 X173.325 Y65.175 F72000
;TYPE:Outer wall
G1 F32261.712
G1 X173.325 Y27.825 E1.60454
G1 X210.675 Y27.825 E1.60454
G1 X210.675 Y65.175 E1.60454
G1 X173.375 Y65.175 E1.60239
G1 E-.43491 F2100
;WIPE_START
G1 F32261.712
G1 X173.374 Y64.175 E-.06509
;WIPE_END
G1 X215.325 Y65.621 F72000
G1 E.5 F2100
;TYPE:Inner wall
G1 F32261.712
G1 X214.879 Y65.621 E.01917
G1 X214.879 Y27.379 E1.64289
G1 X253.121 Y27.379 E1.64289
G1 X253.121 Y65.621 E1.64289
G1 X215.375 Y65.621 E1.62157
G1 X215.325 Y65.175 F72000
;TYPE:Outer wall
G1 F32261.712
G1 X215.325 Y27.825 E1.60454
G1 X252.675 Y27.825 E1.60454
G1 X252.675 Y65.175 E1.60454
G1 X215.375 Y65.175 E1.60239
G1 E-.43491 F2100
;WIPE_START
G1 F32261.712
G1 X215.374 Y64.175 E-.06509
;WIPE_END
G1 X294.675 Y65.621 F72000
G1 E.5 F2100
;TYPE:Inner wall
G1 F32261.712
G1 X256.879 Y65.621 E1.62372
G1 X256.879 Y27.379 E1.64289
G1 X293.07 Y27.379 E1.55477
G1 X293.574 Y27.459 E.02194
G1 X293.9 Y27.573 E.01484
G1 X294.376 Y27.883 E.02437
G1 X294.617 Y28.124 E.01465
G1 X294.927 Y28.6 E.02437
G1 X295.041 Y28.926 E.01484
G1 X295.121 Y29.43 E.02194
G1 X295.121 Y65.621 E1.55477
G1 X294.725 Y65.621 E.01703
G1 X294.675 Y65.175 F72000
;TYPE:Outer wall
G1 F32261.712
G1 X257.325 Y65.175 E1.60454
G1 X257.325 Y27.825 E1.60454
G1 X293.035 Y27.825 E1.53407
G1 X293.465 Y27.894 E.01871
G1 X293.702 Y27.977 E.01082
G1 X294.094 Y28.231 E.02005
G1 X294.269 Y28.406 E.01063
G1 X294.523 Y28.798 E.02005
G1 X294.606 Y29.035 E.01082
G1 X294.675 Y29.465 E.01871
G1 X294.675 Y65.125 E1.53192
G1 E-.43491 F2100
;WIPE_START
G1 F32261.712
G1 X293.675 Y65.126 E-.06509
;WIPE_END
G1 X294.675 Y69.379 F72000
G1 E.5 F2100
;TYPE:Inner wall
G1 F32261.712
G1 X295.121 Y69.379 E.01917
G1 X295.121 Y107.621 E1.64289
G1 X256.879 Y107.621 E1.64289
G1 X256.879 Y69.379 E1.64289
G1 X294.625 Y69.379 E1.62157
G1 X294.675 Y69.825 F72000
;TYPE:Outer wall
G1 F32261.712
G1 X294.675 Y107.175 E1.60454
G1 X257.325 Y107.175 E1.60454
G1 X257.325 Y69.825 E1.60454
G1 X294.625 Y69.825 E1.60239
G1 E-.43491 F2100
;WIPE_START
G1 F32261.712
G1 X294.626 Y70.825 E-.06509
;WIPE_END
G1 X256.879 Y149.175 F72000
G1 E.5 F2100
;TYPE:Inner wall
G1 F32261.712
G1 X256.879 Y111.379 E1.62372
G1 X295.121 Y111.379 E1.64289
G1 X295.121 Y149.621 E1.64289
G1 X256.879 Y149.621 E1.64289
G1 X256.879 Y149.225 E.01703
G1 X257.325 Y149.175 F72000
;TYPE:Outer wall
G1 F32261.712
G1 X257.325 Y111.825 E1.60454
G1 X294.675 Y111.825 E1.60454
G1 X294.675 Y149.175 E1.60454
G1 X257.375 Y149.175 E1.60239
G1 E-.43491 F2100
;WIPE_START
G1 F32261.712
G1 X257.374 Y148.175 E-.06509
;WIPE_END
G1 X214.879 Y111.825 F72000
G1 E.5 F2100
;TYPE:Inner wall
G1 F32261.712
G1 X214.879 Y111.379 E.01918
G1 X253.121 Y111.379 E1.64289
G1 X253.121 Y149.621 E1.64289
G1 X214.879 Y149.621 E1.64289
G1 X214.879 Y111.875 E1.62157
G1 X215.325 Y111.825 F72000
;TYPE:Outer wall
G1 F32261.712
G1 X252.675 Y111.825 E1.60454
G1 X252.675 Y149.175 E1.60454
G1 X215.325 Y149.175 E1.60454
G1 X215.325 Y111.875 E1.60239
G1 E-.43491 F2100
;WIPE_START
G1 F32261.712
G1 X216.325 Y111.874 E-.06509
;WIPE_END
G1 X210.675 Y111.379 F72000
G1 E.5 F2100
;TYPE:Inner wall
G1 F32261.712
G1 X211.121 Y111.379 E.01918
G1 X211.121 Y149.621 E1.64289
G1 X172.879 Y149.621 E1.64289
G1 X172.879 Y111.379 E1.64289
G1 X210.625 Y111.379 E1.62157
G1 X210.675 Y111.825 F72000
;TYPE:Outer wall
G1 F32261.712
G1 X210.675 Y149.175 E1.60454
M73 P2 R33
G1 X173.325 Y149.175 E1.60454
M73 P2 R33
G1 X173.325 Y111.825 E1.60454
G1 X210.625 Y111.825 E1.60239
G1 E-.43491 F2100
;WIPE_START
G1 F32261.712
G1 X210.626 Y112.825 E-.06509
;WIPE_END
G1 X172.879 Y191.175 F72000
G1 E.5 F2100
;TYPE:Inner wall
G1 F32261.712
G1 X172.879 Y153.379 E1.62372
G1 X211.121 Y153.379 E1.64289
G1 X211.121 Y191.621 E1.64289
G1 X172.879 Y191.621 E1.64289
G1 X172.879 Y191.225 E.01703
G1 X173.325 Y191.175 F72000
;TYPE:Outer wall
G1 F32261.712
G1 X173.325 Y153.825 E1.60454
G1 X210.675 Y153.825 E1.60454
G1 X210.675 Y191.175 E1.60454
G1 X173.375 Y191.175 E1.60239
G1 E-.43491 F2100
;WIPE_START
G1 F32261.712
G1 X173.374 Y190.175 E-.06509
;WIPE_END
G1 X253.121 Y191.175 F72000
G1 E.5 F2100
;TYPE:Inner wall
G1 F32261.712
G1 X253.121 Y191.621 E.01918
G1 X214.879 Y191.621 E1.64289
G1 X214.879 Y153.379 E1.64289
G1 X253.121 Y153.379 E1.64289
G1 X253.121 Y191.125 E1.62157
G1 X252.675 Y191.175 F72000
;TYPE:Outer wall
G1 F32261.712
G1 X215.325 Y191.175 E1.60454
G1 X215.325 Y153.825 E1.60454
G1 X252.675 Y153.825 E1.60454
G1 X252.675 Y191.125 E1.60239
G1 E-.43491 F2100
;WIPE_START
G1 F32261.712
G1 X251.675 Y191.126 E-.06509
;WIPE_END
G1 X295.121 Y191.175 F72000
G1 E.5 F2100
;TYPE:Inner wall
G1 F32261.712
G1 X295.121 Y191.621 E.01918
G1 X256.879 Y191.621 E1.64289
G1 X256.879 Y153.379 E1.64289
G1 X295.121 Y153.379 E1.64289
G1 X295.121 Y191.125 E1.62157
G1 X294.675 Y191.175 F72000
;TYPE:Outer wall
G1 F32261.712
G1 X257.325 Y191.175 E1.60454
G1 X257.325 Y153.825 E1.60454
G1 X294.675 Y153.825 E1.60454
G1 X294.675 Y191.125 E1.60239
G1 E-.43491 F2100
;WIPE_START
G1 F32261.712
G1 X293.675 Y191.126 E-.06509
;WIPE_END
G1 X295.121 Y195.825 F72000
G1 E.5 F2100
;TYPE:Inner wall
G1 F32261.712
G1 X295.121 Y233.621 E1.62372
G1 X256.879 Y233.621 E1.64289
G1 X256.879 Y195.379 E1.64289
