; HEADER_BLOCK_START
; generated by OrcaSlicer 2.2.0 on 2025-10-14 at 15:55:40
; total layer number: 78
; filament_density: 1.04
; filament_diameter: 1.75
; max_z_height: 19.50
; HEADER_BLOCK_END

; THUMBNAIL_BLOCK_START

;
; THUMBNAIL_BLOCK_END

; THUMBNAIL_BLOCK_START

;
; THUMBNAIL_BLOCK_END

; external perimeters extrusion width = 0.50mm
; perimeters extrusion width = 0.50mm
; infill extrusion width = 0.50mm
; solid infill extrusion width = 0.50mm
; top infill extrusion width = 0.50mm
; first layer extrusion width = 0.50mm

; external perimeters extrusion width = 0.50mm
; perimeters extrusion width = 0.50mm
; infill extrusion width = 0.50mm
; solid infill extrusion width = 0.50mm
; top infill extrusion width = 0.50mm
; first layer extrusion width = 0.50mm

; external perimeters extrusion width = 0.50mm
; perimeters extrusion width = 0.50mm
; infill extrusion width = 0.50mm
; solid infill extrusion width = 0.50mm
; top infill extrusion width = 0.50mm
; first layer extrusion width = 0.50mm

; external perimeters extrusion width = 0.50mm
; perimeters extrusion width = 0.50mm
; infill extrusion width = 0.50mm
; solid infill extrusion width = 0.50mm
; top infill extrusion width = 0.50mm
; first layer extrusion width = 0.50mm

; external perimeters extrusion width = 0.50mm
; perimeters extrusion width = 0.50mm
; infill extrusion width = 0.50mm
; solid infill extrusion width = 0.50mm
; top infill extrusion width = 0.50mm
; first layer extrusion width = 0.50mm

; EXECUTABLE_BLOCK_START
EXCLUDE_OBJECT_DEFINE NAME=baseplate-7-1-cut.stl_id_0_copy_0 CENTER=150,199.5 POLYGON=[[3,195.5],[3.10028,194.61],[3.39612,193.764],[3.87268,193.006],[4.50604,192.373],[5.26447,191.896],[6.10991,191.6],[7,191.5],[293,191.5],[293.89,191.6],[294.736,191.896],[295.494,192.373],[296.127,193.006],[296.604,193.764],[296.9,194.61],[297,195.5],[297,207.5],[3,207.5],[3,195.5]]
EXCLUDE_OBJECT_DEFINE NAME=baseplate-7-1-cut.stl_id_1_copy_0 CENTER=150,181.5 POLYGON=[[3,173.5],[255,173.5],[297,173.5],[297,185.5],[296.9,186.39],[296.604,187.236],[296.127,187.994],[295.494,188.627],[294.736,189.104],[293.89,189.4],[293,189.5],[7,189.5],[6.10991,189.4],[5.26447,189.104],[4.50604,188.627],[3.87268,187.994],[3.39612,187.236],[3.10028,186.39],[3,185.5],[3,173.5]]
EXCLUDE_OBJECT_DEFINE NAME=baseplate-2-1-cut_1_.stl_id_2_copy_0 CENTER=152.698,163.5 POLYGON=[[110.698,159.5],[110.799,158.61],[111.094,157.764],[111.571,157.006],[112.204,156.373],[112.963,155.896],[113.808,155.6],[114.698,155.5],[190.698,155.5],[191.588,155.6],[192.434,155.896],[193.192,156.373],[193.826,157.006],[194.302,157.764],[194.598,158.61],[194.698,159.5],[194.698,171.5],[110.698,171.5],[110.698,159.5]]
EXCLUDE_OBJECT_DEFINE NAME=baseplate-2-1-cut_1_.stl_id_3_copy_0 CENTER=154.525,145.5 POLYGON=[[112.525,137.5],[154.525,137.5],[196.525,137.5],[196.525,149.5],[196.425,150.39],[196.129,151.236],[195.653,151.994],[195.019,152.627],[194.261,153.104],[193.416,153.4],[192.525,153.5],[116.525,153.5],[115.635,153.4],[114.79,153.104],[114.031,152.627],[113.398,151.994],[112.922,151.236],[112.626,150.39],[112.525,149.5],[112.525,137.5]]
EXCLUDE_OBJECT_DEFINE NAME=Assembly_id_4_copy_0 CENTER=224.834,126.277 POLYGON=[[210.586,124.44],[212.553,113.093],[216.853,113.093],[223.153,113.093],[229.165,115.86],[235.012,124.37],[239.081,132.881],[239.081,134.531],[237.143,136.469],[237.09,136.511],[231.219,139.418],[231.158,139.447],[231.093,139.462],[219.21,139.462],[212.843,139.462],[212.777,139.447],[212.716,139.418],[212.664,139.376],[210.726,137.438],[210.586,126.09],[210.586,124.44]]
M73 P0 R17
;TYPE:Custom
PRINT_START EXTRUDER_TEMP=245 BED_TEMP=70
G90
G21
M83 ; use relative distances for extrusion
; Filament gcode
SET_PRESSURE_ADVANCE ADVANCE=0.014; Override pressure advance value
M106 S0
;LAYER_CHANGE
;Z:0.25
;HEIGHT:0.25
;BEFORE_LAYER_CHANGE
;0.25
G92 E0

G1 E-.5 F2100
;AFTER_LAYER_CHANGE
;0.25
;_SET_FAN_SPEED_CHANGING_LAYER
SET_VELOCITY_LIMIT ACCEL=5000
SET_VELOCITY_LIMIT SQUARE_CORNER_VELOCITY=5
; printing object Assembly id:4 copy 0
EXCLUDE_OBJECT_START NAME=Assembly_id_4_copy_0
G1 X208.746 Y111.036 F72000
G1 Z.25
G1 E.5 F2100
;TYPE:Brim
;WIDTH:0.5
G1 F32261.712
G1 X209.139 Y110.424 E.03126
G1 X209.561 Y109.952 E.0272
G1 X210.05 Y109.548 E.02724
G1 X210.591 Y109.222 E.02715
G1 X211.331 Y108.933 E.03413
G1 X212.004 Y108.789 E.02957
G1 X212.561 Y108.752 E.02396
G1 X213.645 Y108.752 E.04658
G1 X214.286 Y108.8 E.0276
G1 X214.649 Y108.883 E.01601
G1 X214.744 Y108.884 E.00409
G1 X215.203 Y108.789 E.02016
G1 X215.761 Y108.752 E.02398
G1 X216.845 Y108.752 E.04658
G1 X217.486 Y108.8 E.0276
G1 X217.801 Y108.872 E.01391
G1 X217.896 Y108.873 E.00409
G1 X218.303 Y108.789 E.01786
G1 X218.861 Y108.752 E.02399
G1 X219.945 Y108.752 E.04658
G1 X220.586 Y108.8 E.0276
G1 X220.949 Y108.883 E.01601
G1 X221.044 Y108.884 E.00409
G1 X221.503 Y108.789 E.02016
G1 X222.061 Y108.752 E.02398
G1 X223.145 Y108.752 E.04658
G1 X223.786 Y108.8 E.0276
G1 X224.4 Y108.941 E.02706
G1 X225.292 Y109.331 E.04185
G1 X225.821 Y109.677 E.02715
G1 X226.293 Y110.1 E.02724
G1 X226.698 Y110.589 E.02724
G1 X227.023 Y111.13 E.02715
G1 X227.146 Y111.443 E.0144
G1 X227.242 Y111.554 E.00633
G1 X227.399 Y111.58 E.00685
G1 X227.515 Y111.556 E.00508
G1 X228.072 Y111.519 E.02398
G1 X229.156 Y111.519 E.04658
G1 X229.797 Y111.567 E.0276
G1 X230.412 Y111.708 E.02711
G1 X231.221 Y112.052 E.03775
G1 X231.833 Y112.445 E.03126
G1 X232.305 Y112.867 E.0272
G1 X232.709 Y113.356 E.02724
G1 X233.035 Y113.898 E.02715
G1 X233.325 Y114.637 E.03413
G1 X233.469 Y115.31 E.02957
G1 X233.505 Y115.867 E.02396
G1 X233.505 Y117.501 E.07021
G1 X233.457 Y118.142 E.0276
G1 X233.315 Y118.763 E.02734
G1 X233.154 Y119.199 E.02
G1 X232.997 Y119.511 E.01499
G1 X232.988 Y119.693 E.00783
G1 X233.083 Y119.935 E.01117
G1 X233.179 Y120.046 E.00633
G1 X233.308 Y120.076 E.00566
G1 X233.92 Y120.03 E.0264
G1 X235.004 Y120.03 E.04654
G1 X235.645 Y120.078 E.0276
G1 X236.259 Y120.218 E.02706
G1 X237.151 Y120.609 E.04185
G1 X237.68 Y120.955 E.02715
G1 X238.152 Y121.378 E.02724
G1 X238.557 Y121.867 E.02724
G1 X238.882 Y122.408 E.02715
G1 X239.172 Y123.148 E.03413
G1 X239.316 Y123.821 E.02957
G1 X239.352 Y124.378 E.02396
G1 X239.352 Y126.012 E.07021
G1 X239.304 Y126.653 E.0276
G1 X239.163 Y127.273 E.02734
G1 X239.002 Y127.71 E.02
G1 X238.746 Y128.217 E.0244
G1 X238.726 Y128.363 E.00633
G1 X238.802 Y128.489 E.00633
G1 X238.931 Y128.54 E.00595
G1 X239.715 Y128.589 E.03373
G1 X240.328 Y128.729 E.02705
G1 X241.137 Y129.074 E.03775
G1 X241.749 Y129.467 E.03126
G1 X242.221 Y129.889 E.0272
G1 X242.625 Y130.377 E.02724
G1 X242.951 Y130.919 E.02713
G1 X243.256 Y131.711 E.03647
G1 X243.385 Y132.331 E.02723
G1 X243.421 Y132.888 E.02399
G1 X243.421 Y134.523 E.07021
G1 X243.373 Y135.164 E.0276
G1 X243.231 Y135.785 E.02738
G1 X243.099 Y136.152 E.01675
G1 X242.782 Y136.791 E.03066
G1 X242.414 Y137.31 E.02734
G1 X242.146 Y137.604 E.01707
G1 X240.216 Y139.534 E.11726
G1 X239.884 Y139.833 E.01922
G1 X239.407 Y140.18 E.02531
G1 X238.972 Y140.422 E.02136
G1 X238.473 Y140.633 E.02331
G1 X237.995 Y140.771 E.02139
G1 X237.46 Y140.866 E.0233
G1 X236.963 Y140.895 E.02139
G1 X236.421 Y140.868 E.02332
G1 X236.102 Y140.815 E.0139
G1 X235.908 Y140.878 E.00877
G1 X234.345 Y142.44 E.09494
G1 X233.953 Y142.788 E.02253
G1 X233.518 Y143.098 E.02291
G1 X233.042 Y143.357 E.02329
G1 X232.582 Y143.546 E.02139
G1 X232.059 Y143.693 E.02332
G1 X231.589 Y143.773 E.02047
G1 X231.092 Y143.802 E.02141
G1 X230.529 Y143.773 E.02422
G1 X229.995 Y143.678 E.02328
G1 X229.517 Y143.539 E.02141
G1 X229.076 Y143.357 E.02047
G1 X228.599 Y143.097 E.02332
G1 X228.193 Y142.81 E.02138
G1 X227.782 Y142.448 E.02353
G1 X226.26 Y140.927 E.09243
G1 X226.066 Y140.865 E.00878
G1 X225.626 Y140.938 E.01914
G1 X225.15 Y140.965 E.02047
G1 X224.608 Y140.938 E.02333
G1 X224.17 Y140.865 E.0191
G1 X223.975 Y140.927 E.00878
G1 X222.462 Y142.44 E.09193
G1 X222.07 Y142.788 E.02253
G1 X221.635 Y143.098 E.02291
G1 X221.159 Y143.357 E.02329
G1 X220.699 Y143.546 E.02139
G1 X220.176 Y143.693 E.02331
G1 X219.685 Y143.775 E.02139
G1 X219.144 Y143.802 E.02331
G1 X218.647 Y143.773 E.02139
G1 X218.112 Y143.678 E.02331
G1 X217.634 Y143.539 E.02138
G1 X217.134 Y143.328 E.02331
G1 X216.699 Y143.086 E.02142
G1 X216.173 Y142.693 E.02822
G1 X216.035 Y142.639 E.00633
G1 X215.894 Y142.683 E.00635
G1 X215.333 Y143.099 E.03
G1 X214.859 Y143.357 E.0232
G1 X214.399 Y143.546 E.02139
G1 X213.876 Y143.693 E.02331
G1 X213.385 Y143.775 E.02138
G1 X212.844 Y143.802 E.02331
G1 X212.346 Y143.773 E.02139
G1 X211.812 Y143.678 E.02331
G1 X211.334 Y143.539 E.02138
G1 X210.834 Y143.328 E.02332
G1 X210.417 Y143.098 E.02047
G1 X210.01 Y142.81 E.02142
G1 X209.599 Y142.448 E.02352
G1 X207.664 Y140.514 E.11755
G1 X207.244 Y140.027 E.0276
G1 X206.906 Y139.488 E.02734
G1 X206.71 Y139.064 E.02004
G1 X206.511 Y138.458 E.02741
G1 X206.404 Y137.83 E.02738
G1 X206.386 Y137.433 E.01707
G1 X206.386 Y135.796 E.0703
G1 X206.434 Y135.156 E.0276
G1 X206.574 Y134.54 E.02711
G1 X206.855 Y133.881 E.03078
G1 X206.853 Y133.701 E.00775
G1 X206.71 Y133.391 E.01466
G1 X206.511 Y132.784 E.02743
G1 X206.404 Y132.156 E.02738
G1 X206.386 Y131.759 E.01707
G1 X206.386 Y130.122 E.0703
G1 X206.434 Y129.482 E.0276
G1 X206.574 Y128.867 E.02711
G1 X206.79 Y128.359 E.0237
G1 X206.787 Y128.177 E.00783
G1 X206.57 Y127.716 E.02188
G1 X206.371 Y127.11 E.02738
G1 X206.265 Y126.482 E.02738
G1 X206.246 Y126.085 E.01707
G1 X206.246 Y124.449 E.0703
G1 X206.294 Y123.808 E.0276
G1 X206.435 Y123.193 E.02711
G1 X206.779 Y122.384 E.03775
G1 X207.172 Y121.772 E.03126
G1 X207.594 Y121.3 E.0272
G1 X208.054 Y120.92 E.02562
G1 X208.134 Y120.738 E.00857
G1 X208.119 Y120.411 E.01404
G1 X208.119 Y118.775 E.0703
G1 X208.167 Y118.134 E.0276
G1 X208.308 Y117.519 E.02711
G1 X208.633 Y116.755 E.03568
G1 X208.631 Y116.575 E.0077
G1 X208.538 Y116.37 E.0097
G1 X208.338 Y115.763 E.02745
G1 X208.231 Y115.134 E.02738
G1 X208.213 Y114.737 E.01707
G1 X208.213 Y113.101 E.0703
G1 X208.261 Y112.46 E.0276
G1 X208.402 Y111.845 E.02711
G1 X208.726 Y111.082 E.03561
G1 X209.138 Y111.259 F72000
G1 F32261.712
G1 X209.148 Y111.236 E.00105
G1 X209.502 Y110.687 E.02808
G1 X209.879 Y110.269 E.0242
G1 X210.317 Y109.908 E.02436
G1 X210.8 Y109.62 E.02415
G1 X211.45 Y109.365 E.03
G1 X212.056 Y109.234 E.02665
G1 X212.579 Y109.199 E.02253
G1 X213.633 Y109.199 E.04527
G1 X214.209 Y109.242 E.0248
G1 X214.539 Y109.316 E.01455
G1 X214.731 Y109.33 E.00825
G1 X215.258 Y109.233 E.023
G1 X215.779 Y109.199 E.02246
G1 X216.833 Y109.199 E.04527
G1 X217.409 Y109.242 E.0248
G1 X217.692 Y109.305 E.01245
G1 X217.883 Y109.319 E.00826
G1 X218.373 Y109.231 E.02137
G1 X218.879 Y109.199 E.0218
G1 X219.933 Y109.199 E.04527
G1 X220.509 Y109.242 E.0248
G1 X220.839 Y109.316 E.01455
G1 X221.031 Y109.33 E.00825
G1 X221.558 Y109.233 E.023
G1 X222.079 Y109.199 E.02246
G1 X223.123 Y109.199 E.04484
G1 X223.729 Y109.245 E.02609
G1 X224.271 Y109.371 E.02392
G1 X225.069 Y109.72 E.0374
G1 X225.556 Y110.039 E.02501
G1 X225.963 Y110.404 E.0235
G1 X226.326 Y110.84 E.02436
G1 X226.616 Y111.319 E.02404
G1 X226.726 Y111.595 E.01278
G1 X226.814 Y111.742 E.00737
G1 X226.894 Y111.835 E.00524
G1 X227.05 Y111.954 E.00846
G1 X227.318 Y112.018 E.0118
G1 X228.091 Y111.966 E.03328
G1 X229.145 Y111.966 E.04527
G1 X229.72 Y112.009 E.0248
G1 X230.262 Y112.131 E.02387
G1 X231.021 Y112.454 E.03541
G1 X231.553 Y112.796 E.02717
G1 X231.989 Y113.185 E.02511
G1 X232.349 Y113.623 E.02436
G1 X232.637 Y114.106 E.02415
G1 X232.892 Y114.756 E.03
G1 X233.026 Y115.382 E.02749
G1 X233.059 Y115.886 E.0217
G1 X233.059 Y117.48 E.06847
G1 X233.015 Y118.065 E.02523
G1 X232.883 Y118.643 E.02546
G1 X232.747 Y119.014 E.01696
G1 X232.605 Y119.297 E.01361
G1 X232.55 Y119.504 E.00919
G1 X232.543 Y119.657 E.00661
G1 X232.578 Y119.869 E.00919
G1 X232.663 Y120.087 E.01008
G1 X232.831 Y120.327 E.01257
G1 X232.99 Y120.448 E.0086
G1 X233.202 Y120.509 E.00945
G1 X233.351 Y120.52 E.00642
G1 X233.942 Y120.476 E.02547
G1 X234.992 Y120.477 E.04511
G1 X235.568 Y120.52 E.0248
G1 X236.106 Y120.641 E.0237
G1 X236.947 Y121.009 E.03944
G1 X237.415 Y121.317 E.02404
G1 X237.836 Y121.696 E.02436
G1 X238.196 Y122.134 E.02436
G1 X238.485 Y122.617 E.02415
G1 X238.739 Y123.267 E.03
G1 X238.873 Y123.893 E.02749
G1 X238.906 Y124.397 E.0217
G1 X238.906 Y125.99 E.06847
G1 X238.863 Y126.576 E.02523
G1 X238.731 Y127.154 E.02546
G1 X238.594 Y127.524 E.01696
G1 X238.352 Y128.006 E.02315
G1 X238.302 Y128.17 E.00737
G1 X238.286 Y128.291 E.00524
G1 X238.301 Y128.493 E.00872
G1 X238.348 Y128.6 E.00503
G1 X238.412 Y128.707 E.00536
G1 X238.551 Y128.856 E.00875
G1 X238.64 Y128.904 E.00432
G1 X238.918 Y128.987 E.01249
G1 X239.64 Y129.032 E.03105
G1 X240.178 Y129.153 E.02373
G1 X240.917 Y129.465 E.03445
G1 X241.469 Y129.817 E.02813
G1 X241.891 Y130.192 E.02425
G1 X242.265 Y130.645 E.02522
G1 X242.552 Y131.126 E.02408
G1 X242.828 Y131.848 E.0332
G1 X242.939 Y132.382 E.02345
G1 X242.974 Y132.899 E.02223
G1 X242.975 Y134.501 E.06884
G1 X242.928 Y135.107 E.02609
G1 X242.804 Y135.651 E.02399
G1 X242.69 Y135.969 E.01451
G1 X242.402 Y136.552 E.02793
G1 X242.06 Y137.036 E.02546
G1 X241.821 Y137.298 E.01524
G1 X239.911 Y139.208 E.11603
G1 X239.608 Y139.481 E.01756
G1 X239.173 Y139.798 E.02309
G1 X238.783 Y140.016 E.0192
G1 X238.33 Y140.208 E.02113
G1 X237.9 Y140.334 E.01925
G1 X237.416 Y140.42 E.02113
G1 X236.969 Y140.448 E.01926
G1 X236.477 Y140.424 E.02116
G1 X236.191 Y140.377 E.01244
G1 X235.951 Y140.395 E.01036
G1 X235.787 Y140.448 E.0074
G1 X235.581 Y140.573 E.01036
G1 X234.036 Y142.118 E.09385
G1 X233.669 Y142.443 E.02107
G1 X233.274 Y142.722 E.02076
G1 X232.856 Y142.95 E.02044
G1 X232.429 Y143.125 E.01987
G1 X231.954 Y143.258 E.02116
G1 X231.531 Y143.329 E.01841
G1 X231.098 Y143.354 E.01866
G1 X230.588 Y143.329 E.02194
G1 X230.09 Y143.241 E.02172
G1 X229.672 Y143.119 E.0187
G1 X229.276 Y142.956 E.01841
G1 X228.842 Y142.721 E.02116
G1 X228.464 Y142.455 E.01987
G1 X228.091 Y142.125 E.0214
G1 X226.587 Y140.623 E.09133
G1 X226.381 Y140.497 E.01036
G1 X226.217 Y140.445 E.0074
G1 X225.976 Y140.427 E.01036
G1 X225.569 Y140.494 E.01772
G1 X225.156 Y140.518 E.01779
G1 X224.664 Y140.494 E.02117
G1 X224.259 Y140.427 E.01763
G1 X224.018 Y140.445 E.01037
G1 X223.854 Y140.497 E.0074
G1 X223.648 Y140.623 E.01037
G1 X222.159 Y142.112 E.0905
G1 X221.786 Y142.443 E.02141
G1 X221.391 Y142.722 E.02076
G1 X220.96 Y142.956 E.02106
G1 X220.546 Y143.125 E.01925
G1 X220.072 Y143.258 E.02113
G1 X219.63 Y143.331 E.01926
G1 X219.138 Y143.354 E.02113
G1 X218.691 Y143.327 E.01925
G1 X218.207 Y143.241 E.02113
G1 X217.777 Y143.115 E.01925
G1 X217.337 Y142.929 E.02051
G1 X216.935 Y142.705 E.01978
G1 X216.447 Y142.341 E.02614
G1 X216.327 Y142.274 E.00591
G1 X216.211 Y142.228 E.00534
G1 X216.015 Y142.196 E.00852
G1 X215.769 Y142.255 E.01089
G1 X215.619 Y142.331 E.00721
G1 X215.084 Y142.726 E.02857
G1 X214.673 Y142.95 E.02011
G1 X214.245 Y143.125 E.01988
G1 X213.786 Y143.255 E.02051
G1 X213.345 Y143.329 E.0192
G1 X212.853 Y143.354 E.02118
G1 X212.391 Y143.327 E.01988
G1 X211.921 Y143.244 E.02051
G1 X211.477 Y143.115 E.01987
G1 X211.023 Y142.923 E.02115
G1 X210.648 Y142.715 E.01842
G1 X210.293 Y142.464 E.01871
G1 X209.902 Y142.12 E.02238
G1 X207.995 Y140.213 E.11584
G1 X207.611 Y139.768 E.02523
G1 X207.304 Y139.282 E.02472
G1 X207.124 Y138.893 E.0184
G1 X206.944 Y138.34 E.02497
G1 X206.849 Y137.774 E.02469
G1 X206.832 Y137.419 E.01524
G1 X206.832 Y135.818 E.06879
G1 X206.876 Y135.232 E.02523
G1 X206.998 Y134.69 E.02387
G1 X207.26 Y134.069 E.02898
G1 X207.301 Y133.861 E.00909
G1 X207.299 Y133.709 E.00655
G1 X207.253 Y133.502 E.00909
G1 X207.124 Y133.22 E.01331
G1 X206.949 Y132.686 E.02417
G1 X206.85 Y132.116 E.02485
G1 X206.832 Y131.745 E.01594
G1 X206.833 Y130.134 E.06922
G1 X206.879 Y129.539 E.02566
G1 X206.998 Y129.016 E.02302
G1 X207.196 Y128.547 E.02189
G1 X207.236 Y128.336 E.0092
G1 X207.234 Y128.182 E.00662
G1 X207.185 Y127.974 E.0092
G1 X206.983 Y127.543 E.02045
G1 X206.809 Y127.012 E.02399
G1 X206.711 Y126.442 E.02485
G1 X206.692 Y126.072 E.01594
G1 X206.693 Y124.46 E.06922
G1 X206.736 Y123.885 E.0248
