; HEADER_BLOCK_START
; generated by OrcaSlicer 2.2.0 on 2025-10-14 at 15:11:45
; total layer number: 18
; filament_density: 1.04
; filament_diameter: 1.75
; max_z_height: 4.75
; HEADER_BLOCK_END

; THUMBNAIL_BLOCK_START

;
; THUMBNAIL_BLOCK_END

; THUMBNAIL_BLOCK_START

;
; THUMBNAIL_BLOCK_END

; external perimeters extrusion width = 0.50mm
; perimeters extrusion width = 0.50mm
; infill extrusion width = 0.50mm
; solid infill extrusion width = 0.50mm
; top infill extrusion width = 0.50mm
; first layer extrusion width = 0.50mm

; EXECUTABLE_BLOCK_START
EXCLUDE_OBJECT_DEFINE NAME=baseplate-7-4.stl_id_0_copy_0 CENTER=150,172.5 POLYGON=[[3,92.5],[3.10028,91.6099],[3.39612,90.7645],[3.87268,90.006],[4.50604,89.3727],[5.26447,88.8961],[6.10991,88.6003],[7,88.5],[293,88.5],[293.89,88.6003],[294.736,88.8961],[295.494,89.3727],[296.127,90.006],[296.604,90.7645],[296.9,91.6099],[297,92.5],[297,252.5],[296.9,253.39],[296.604,254.236],[296.127,254.994],[295.494,255.627],[294.736,256.104],[293.89,256.4],[293,256.5],[7,256.5],[6.10991,256.4],[5.26447,256.104],[4.50604,255.627],[3.87268,254.994],[3.39612,254.236],[3.10028,253.39],[3,252.5],[3,92.5]]
M73 P0 R19
;TYPE:Custom
PRINT_START EXTRUDER_TEMP=245 BED_TEMP=70
G90
G21
M83 ; use relative distances for extrusion
; Filament gcode
SET_PRESSURE_ADVANCE ADVANCE=0.014; Override pressure advance value
M106 S0
;LAYER_CHANGE
;Z:0.25
;HEIGHT:0.25
;BEFORE_LAYER_CHANGE
;0.25
G92 E0

G1 E-.5 F2100
;AFTER_LAYER_CHANGE
;0.25
;_SET_FAN_SPEED_CHANGING_LAYER
SET_VELOCITY_LIMIT ACCEL=5000
SET_VELOCITY_LIMIT SQUARE_CORNER_VELOCITY=5
; printing object baseplate-7-4.stl id:0 copy 0
EXCLUDE_OBJECT_START NAME=baseplate-7-4.stl_id_0_copy_0
G1 X168.675 Y174.379 F72000
G1 Z.25
G1 E.5 F2100
;TYPE:Inner wall
;WIDTH:0.5
G1 F32261.712
G1 X169.121 Y174.379 E.01918
G1 X169.121 Y212.621 E1.64289
G1 X130.879 Y212.621 E1.64289
G1 X130.879 Y174.379 E1.64289
G1 X168.625 Y174.379 E1.62157
G1 X168.675 Y174.825 F72000
;TYPE:Outer wall
G1 F32261.712
G1 X168.675 Y212.175 E1.60454
G1 X131.325 Y212.175 E1.60454
G1 X131.325 Y174.825 E1.60454
G1 X168.625 Y174.825 E1.60239
G1 E-.43491 F2100
;WIPE_START
G1 F32261.712
G1 X168.626 Y175.825 E-.06509
;WIPE_END
G1 X127.121 Y212.175 F72000
G1 E.5 F2100
;TYPE:Inner wall
G1 F32261.712
G1 X127.121 Y212.621 E.01918
G1 X88.879 Y212.621 E1.64289
G1 X88.879 Y174.379 E1.64289
G1 X127.121 Y174.379 E1.64289
G1 X127.121 Y212.125 E1.62157
G1 X126.675 Y212.175 F72000
;TYPE:Outer wall
G1 F32261.712
G1 X89.325 Y212.175 E1.60454
G1 X89.325 Y174.825 E1.60454
G1 X126.675 Y174.825 E1.60454
G1 X126.675 Y212.125 E1.60239
G1 E-.43491 F2100
;WIPE_START
G1 F32261.712
G1 X125.675 Y212.126 E-.06509
;WIPE_END
G1 X85.121 Y212.175 F72000
G1 E.5 F2100
;TYPE:Inner wall
G1 F32261.712
G1 X85.121 Y212.621 E.01918
G1 X46.879 Y212.621 E1.64289
G1 X46.879 Y174.379 E1.64289
G1 X85.121 Y174.379 E1.64289
G1 X85.121 Y212.125 E1.62157
G1 X84.675 Y212.175 F72000
;TYPE:Outer wall
G1 F32261.712
G1 X47.325 Y212.175 E1.60454
G1 X47.325 Y174.825 E1.60454
G1 X84.675 Y174.825 E1.60454
G1 X84.675 Y212.125 E1.60239
G1 E-.43491 F2100
;WIPE_START
G1 F32261.712
G1 X83.675 Y212.126 E-.06509
;WIPE_END
G1 X43.121 Y212.175 F72000
G1 E.5 F2100
;TYPE:Inner wall
G1 F32261.712
G1 X43.121 Y212.621 E.01918
G1 X4.879 Y212.621 E1.64289
G1 X4.879 Y174.379 E1.64289
G1 X43.121 Y174.379 E1.64289
G1 X43.121 Y212.125 E1.62157
G1 X42.675 Y212.175 F72000
;TYPE:Outer wall
G1 F32261.712
G1 X5.325 Y212.175 E1.60454
G1 X5.325 Y174.825 E1.60454
G1 X42.675 Y174.825 E1.60454
G1 X42.675 Y212.125 E1.60239
G1 E-.43491 F2100
;WIPE_START
G1 F32261.712
G1 X41.675 Y212.126 E-.06509
;WIPE_END
G1 X43.121 Y254.175 F72000
G1 E.5 F2100
;TYPE:Inner wall
G1 F32261.712
G1 X43.121 Y254.621 E.01917
G1 X6.93 Y254.621 E1.55477
G1 X6.426 Y254.541 E.02194
G1 X6.1 Y254.427 E.01484
G1 X5.624 Y254.117 E.02437
G1 X5.383 Y253.876 E.01466
G1 X5.073 Y253.4 E.02437
G1 X4.959 Y253.074 E.01484
G1 X4.879 Y252.57 E.02194
G1 X4.879 Y216.379 E1.55477
G1 X43.121 Y216.379 E1.64289
G1 X43.121 Y254.125 E1.62157
G1 X42.675 Y254.175 F72000
;TYPE:Outer wall
G1 F32261.712
G1 X6.965 Y254.175 E1.53407
G1 X6.535 Y254.106 E.01871
G1 X6.298 Y254.023 E.01082
G1 X5.906 Y253.769 E.02005
G1 X5.731 Y253.594 E.01063
G1 X5.477 Y253.202 E.02005
G1 X5.394 Y252.965 E.01082
G1 X5.325 Y252.535 E.01871
G1 X5.325 Y216.825 E1.53407
G1 X42.675 Y216.825 E1.60454
G1 X42.675 Y254.125 E1.60239
G1 E-.43491 F2100
;WIPE_START
G1 F32261.712
G1 X41.675 Y254.126 E-.06509
;WIPE_END
G1 X85.121 Y254.175 F72000
G1 E.5 F2100
;TYPE:Inner wall
G1 F32261.712
G1 X85.121 Y254.621 E.01917
G1 X46.879 Y254.621 E1.64289
G1 X46.879 Y216.379 E1.64289
G1 X85.121 Y216.379 E1.64289
G1 X85.121 Y254.125 E1.62157
G1 X84.675 Y254.175 F72000
;TYPE:Outer wall
G1 F32261.712
G1 X47.325 Y254.175 E1.60454
G1 X47.325 Y216.825 E1.60454
G1 X84.675 Y216.825 E1.60454
G1 X84.675 Y254.125 E1.60239
G1 E-.43491 F2100
;WIPE_START
G1 F32261.712
G1 X83.675 Y254.126 E-.06509
;WIPE_END
G1 X89.325 Y216.379 F72000
G1 E.5 F2100
;TYPE:Inner wall
G1 F32261.712
G1 X127.121 Y216.379 E1.62372
G1 X127.121 Y254.621 E1.64289
G1 X88.879 Y254.621 E1.64289
G1 X88.879 Y216.379 E1.64289
G1 X89.275 Y216.379 E.01703
G1 X89.325 Y216.825 F72000
;TYPE:Outer wall
G1 F32261.712
G1 X126.675 Y216.825 E1.60454
G1 X126.675 Y254.175 E1.60454
G1 X89.325 Y254.175 E1.60454
G1 X89.325 Y216.875 E1.60239
M73 P1 R19
G1 E-.43491 F2100
M73 P1 R19
;WIPE_START
G1 F32261.712
G1 X90.325 Y216.874 E-.06509
;WIPE_END
G1 X168.675 Y216.379 F72000
G1 E.5 F2100
;TYPE:Inner wall
G1 F32261.712
G1 X169.121 Y216.379 E.01918
G1 X169.121 Y254.621 E1.64289
G1 X130.879 Y254.621 E1.64289
G1 X130.879 Y216.379 E1.64289
G1 X168.625 Y216.379 E1.62157
G1 X168.675 Y216.825 F72000
;TYPE:Outer wall
G1 F32261.712
G1 X168.675 Y254.175 E1.60454
G1 X131.325 Y254.175 E1.60454
G1 X131.325 Y216.825 E1.60454
G1 X168.625 Y216.825 E1.60239
G1 E-.43491 F2100
;WIPE_START
G1 F32261.712
G1 X168.626 Y217.825 E-.06509
;WIPE_END
G1 X253.121 Y216.825 F72000
G1 E.5 F2100
;TYPE:Inner wall
G1 F32261.712
G1 X253.121 Y254.621 E1.62372
G1 X214.879 Y254.621 E1.64289
G1 X214.879 Y216.379 E1.64289
G1 X253.121 Y216.379 E1.64289
G1 X253.121 Y216.775 E.01703
G1 X252.675 Y216.825 F72000
;TYPE:Outer wall
G1 F32261.712
G1 X252.675 Y254.175 E1.60454
G1 X215.325 Y254.175 E1.60454
G1 X215.325 Y216.825 E1.60454
G1 X252.625 Y216.825 E1.60239
G1 E-.43491 F2100
;WIPE_START
G1 F32261.712
G1 X252.626 Y217.825 E-.06509
;WIPE_END
G1 X173.325 Y254.621 F72000
G1 E.5 F2100
;TYPE:Inner wall
G1 F32261.712
G1 X172.879 Y254.621 E.01917
G1 X172.879 Y216.379 E1.64289
G1 X211.121 Y216.379 E1.64289
G1 X211.121 Y254.621 E1.64289
G1 X173.375 Y254.621 E1.62157
G1 X173.325 Y254.175 F72000
;TYPE:Outer wall
G1 F32261.712
G1 X173.325 Y216.825 E1.60454
G1 X210.675 Y216.825 E1.60454
G1 X210.675 Y254.175 E1.60454
G1 X173.375 Y254.175 E1.60239
G1 E-.43491 F2100
;WIPE_START
G1 F32261.712
G1 X173.374 Y253.175 E-.06509
;WIPE_END
G1 X211.121 Y212.175 F72000
G1 E.5 F2100
;TYPE:Inner wall
G1 F32261.712
G1 X211.121 Y212.621 E.01918
G1 X172.879 Y212.621 E1.64289
G1 X172.879 Y174.379 E1.64289
G1 X211.121 Y174.379 E1.64289
G1 X211.121 Y212.125 E1.62157
G1 X210.675 Y212.175 F72000
;TYPE:Outer wall
G1 F32261.712
G1 X173.325 Y212.175 E1.60454
G1 X173.325 Y174.825 E1.60454
G1 X210.675 Y174.825 E1.60454
G1 X210.675 Y212.125 E1.60239
G1 E-.43491 F2100
;WIPE_START
G1 F32261.712
G1 X209.675 Y212.126 E-.06509
;WIPE_END
G1 X253.121 Y212.175 F72000
G1 E.5 F2100
;TYPE:Inner wall
G1 F32261.712
G1 X253.121 Y212.621 E.01918
G1 X214.879 Y212.621 E1.64289
G1 X214.879 Y174.379 E1.64289
G1 X253.121 Y174.379 E1.64289
G1 X253.121 Y212.125 E1.62157
G1 X252.675 Y212.175 F72000
;TYPE:Outer wall
G1 F32261.712
G1 X215.325 Y212.175 E1.60454
G1 X215.325 Y174.825 E1.60454
G1 X252.675 Y174.825 E1.60454
G1 X252.675 Y212.125 E1.60239
G1 E-.43491 F2100
;WIPE_START
G1 F32261.712
G1 X251.675 Y212.126 E-.06509
;WIPE_END
G1 X295.121 Y174.825 F72000
G1 E.5 F2100
;TYPE:Inner wall
G1 F32261.712
G1 X295.121 Y212.621 E1.62372
G1 X256.879 Y212.621 E1.64289
G1 X256.879 Y174.379 E1.64289
G1 X295.121 Y174.379 E1.64289
G1 X295.121 Y174.775 E.01703
G1 X294.675 Y174.825 F72000
;TYPE:Outer wall
G1 F32261.712
G1 X294.675 Y212.175 E1.60454
G1 X257.325 Y212.175 E1.60454
G1 X257.325 Y174.825 E1.60454
G1 X294.625 Y174.825 E1.60239
G1 E-.43491 F2100
;WIPE_START
G1 F32261.712
G1 X294.626 Y175.825 E-.06509
;WIPE_END
G1 X256.879 Y254.175 F72000
G1 E.5 F2100
;TYPE:Inner wall
G1 F32261.712
G1 X256.879 Y216.379 E1.62372
G1 X295.121 Y216.379 E1.64289
G1 X295.121 Y252.57 E1.55477
G1 X295.041 Y253.074 E.02194
G1 X294.927 Y253.4 E.01484
G1 X294.617 Y253.876 E.02437
G1 X294.376 Y254.117 E.01466
G1 X293.9 Y254.427 E.02437
G1 X293.574 Y254.541 E.01484
G1 X293.07 Y254.621 E.02194
G1 X256.879 Y254.621 E1.55477
G1 X256.879 Y254.225 E.01703
G1 X257.325 Y254.175 F72000
;TYPE:Outer wall
G1 F32261.712
G1 X257.325 Y216.825 E1.60454
G1 X294.675 Y216.825 E1.60454
M73 P2 R19
G1 X294.675 Y252.535 E1.53407
M73 P2 R19
G1 X294.606 Y252.965 E.01871
G1 X294.523 Y253.202 E.01082
G1 X294.269 Y253.594 E.02005
G1 X294.094 Y253.769 E.01063
G1 X293.702 Y254.023 E.02005
G1 X293.465 Y254.106 E.01082
G1 X293.035 Y254.175 E.01871
G1 X257.375 Y254.175 E1.53192
G1 E-.43491 F2100
;WIPE_START
G1 F32261.712
G1 X257.374 Y253.175 E-.06509
;WIPE_END
G1 X253.121 Y128.175 F72000
G1 E.5 F2100
;TYPE:Inner wall
G1 F32261.712
G1 X253.121 Y128.621 E.01917
G1 X214.879 Y128.621 E1.64289
G1 X214.879 Y90.379 E1.64289
G1 X253.121 Y90.379 E1.64289
G1 X253.121 Y128.125 E1.62157
G1 X252.675 Y128.175 F72000
;TYPE:Outer wall
G1 F32261.712
G1 X215.325 Y128.175 E1.60454
G1 X215.325 Y90.825 E1.60454
G1 X252.675 Y90.825 E1.60454
G1 X252.675 Y128.125 E1.60239
G1 E-.43491 F2100
;WIPE_START
G1 F32261.712
G1 X251.675 Y128.126 E-.06509
;WIPE_END
G1 X295.121 Y128.175 F72000
G1 E.5 F2100
;TYPE:Inner wall
G1 F32261.712
G1 X295.121 Y128.621 E.01917
G1 X256.879 Y128.621 E1.64289
G1 X256.879 Y90.379 E1.64289
G1 X293.07 Y90.379 E1.55477
G1 X293.574 Y90.459 E.02194
G1 X293.9 Y90.573 E.01484
G1 X294.376 Y90.883 E.02437
G1 X294.617 Y91.124 E.01466
G1 X294.927 Y91.6 E.02437
G1 X295.041 Y91.926 E.01484
G1 X295.121 Y92.43 E.02194
G1 X295.121 Y128.125 E1.53345
G1 X294.675 Y128.175 F72000
;TYPE:Outer wall
G1 F32261.712
G1 X257.325 Y128.175 E1.60454
G1 X257.325 Y90.825 E1.60454
G1 X293.035 Y90.825 E1.53407
G1 X293.465 Y90.894 E.01871
G1 X293.702 Y90.977 E.01082
G1 X294.094 Y91.231 E.02005
G1 X294.269 Y91.406 E.01063
G1 X294.523 Y91.798 E.02005
G1 X294.606 Y92.035 E.01082
G1 X294.675 Y92.465 E.01871
G1 X294.675 Y128.125 E1.53192
G1 E-.43491 F2100
;WIPE_START
G1 F32261.712
G1 X293.675 Y128.126 E-.06509
;WIPE_END
G1 X256.879 Y170.175 F72000
G1 E.5 F2100
;TYPE:Inner wall
G1 F32261.712
G1 X256.879 Y132.379 E1.62372
G1 X295.121 Y132.379 E1.64289
G1 X295.121 Y170.621 E1.64289
G1 X256.879 Y170.621 E1.64289
G1 X256.879 Y170.225 E.01703
G1 X257.325 Y170.175 F72000
;TYPE:Outer wall
G1 F32261.712
G1 X257.325 Y132.825 E1.60454
G1 X294.675 Y132.825 E1.60454
G1 X294.675 Y170.175 E1.60454
G1 X257.375 Y170.175 E1.60239
G1 E-.43491 F2100
;WIPE_START
G1 F32261.712
G1 X257.374 Y169.175 E-.06509
;WIPE_END
G1 X214.879 Y170.175 F72000
G1 E.5 F2100
;TYPE:Inner wall
G1 F32261.712
G1 X214.879 Y132.379 E1.62372
G1 X253.121 Y132.379 E1.64289
G1 X253.121 Y170.621 E1.64289
G1 X214.879 Y170.621 E1.64289
G1 X214.879 Y170.225 E.01703
G1 X215.325 Y170.175 F72000
;TYPE:Outer wall
G1 F32261.712
G1 X215.325 Y132.825 E1.60454
G1 X252.675 Y132.825 E1.60454
G1 X252.675 Y170.175 E1.60454
G1 X215.375 Y170.175 E1.60239
G1 E-.43491 F2100
;WIPE_START
G1 F32261.712
G1 X215.374 Y169.175 E-.06509
;WIPE_END
G1 X210.675 Y170.621 F72000
G1 E.5 F2100
;TYPE:Inner wall
G1 F32261.712
G1 X172.879 Y170.621 E1.62372
G1 X172.879 Y132.379 E1.64289
G1 X211.121 Y132.379 E1.64289
G1 X211.121 Y170.621 E1.64289
G1 X210.725 Y170.621 E.01703
G1 X210.675 Y170.175 F72000
;TYPE:Outer wall
G1 F32261.712
G1 X173.325 Y170.175 E1.60454
G1 X173.325 Y132.825 E1.60454
G1 X210.675 Y132.825 E1.60454
G1 X210.675 Y170.125 E1.60239
G1 E-.43491 F2100
;WIPE_START
G1 F32261.712
G1 X209.675 Y170.126 E-.06509
;WIPE_END
G1 X173.325 Y128.621 F72000
G1 E.5 F2100
;TYPE:Inner wall
G1 F32261.712
G1 X172.879 Y128.621 E.01917
G1 X172.879 Y90.379 E1.64289
G1 X211.121 Y90.379 E1.64289
G1 X211.121 Y128.621 E1.64289
G1 X173.375 Y128.621 E1.62157
G1 X173.325 Y128.175 F72000
;TYPE:Outer wall
G1 F32261.712
G1 X173.325 Y90.825 E1.60454
G1 X210.675 Y90.825 E1.60454
G1 X210.675 Y128.175 E1.60454
G1 X173.375 Y128.175 E1.60239
G1 E-.43491 F2100
;WIPE_START
G1 F32261.712
G1 X173.374 Y127.175 E-.06509
;WIPE_END
G1 X4.879 Y128.175 F72000
G1 E.5 F2100
;TYPE:Inner wall
G1 F32261.712
G1 X4.879 Y92.43 E1.5356
G1 X4.959 Y91.926 E.02194
G1 X5.073 Y91.6 E.01484
G1 X5.383 Y91.124 E.02437
G1 X5.624 Y90.883 E.01466
G1 X6.1 Y90.573 E.02437
G1 X6.426 Y90.459 E.01484
G1 X6.93 Y90.379 E.02194
G1 X43.121 Y90.379 E1.55477
G1 X43.121 Y128.621 E1.64289
G1 X4.879 Y128.621 E1.64289
G1 X4.879 Y128.225 E.01703
G1 X5.325 Y128.175 F72000
;TYPE:Outer wall
G1 F32261.712
G1 X5.325 Y92.465 E1.53407
M73 P3 R19
G1 X5.394 Y92.035 E.01871
M73 P3 R19
G1 X5.477 Y91.798 E.01082
G1 X5.731 Y91.406 E.02005
G1 X5.906 Y91.231 E.01063
G1 X6.298 Y90.977 E.02005
G1 X6.535 Y90.894 E.01082
G1 X6.965 Y90.825 E.01871
G1 X42.675 Y90.825 E1.53407
G1 X42.675 Y128.175 E1.60454
G1 X5.375 Y128.175 E1.60239
G1 E-.43491 F2100
;WIPE_START
G1 F32261.712
G1 X5.374 Y127.175 E-.06509
;WIPE_END
G1 X85.121 Y128.175 F72000
G1 E.5 F2100
;TYPE:Inner wall
G1 F32261.712
G1 X85.121 Y128.621 E.01917
G1 X46.879 Y128.621 E1.64289
G1 X46.879 Y90.379 E1.64289
G1 X85.121 Y90.379 E1.64289
G1 X85.121 Y128.125 E1.62157
G1 X84.675 Y128.175 F72000
;TYPE:Outer wall
G1 F32261.712
G1 X47.325 Y128.175 E1.60454
G1 X47.325 Y90.825 E1.60454
G1 X84.675 Y90.825 E1.60454
G1 X84.675 Y128.125 E1.60239
G1 E-.43491 F2100
;WIPE_START
G1 F32261.712
G1 X83.675 Y128.126 E-.06509
;WIPE_END
G1 X127.121 Y128.175 F72000
G1 E.5 F2100
;TYPE:Inner wall
G1 F32261.712
G1 X127.121 Y128.621 E.01917
G1 X88.879 Y128.621 E1.64289
G1 X88.879 Y90.379 E1.64289
G1 X127.121 Y90.379 E1.64289
G1 X127.121 Y128.125 E1.62157
G1 X126.675 Y128.175 F72000
;TYPE:Outer wall
G1 F32261.712
G1 X89.325 Y128.175 E1.60454
G1 X89.325 Y90.825 E1.60454
G1 X126.675 Y90.825 E1.60454
G1 X126.675 Y128.125 E1.60239
G1 E-.43491 F2100
;WIPE_START
G1 F32261.712
G1 X125.675 Y128.126 E-.06509
;WIPE_END
G1 X168.675 Y128.621 F72000
G1 E.5 F2100
;TYPE:Inner wall
G1 F32261.712
G1 X130.879 Y128.621 E1.62372
G1 X130.879 Y90.379 E1.64289
G1 X169.121 Y90.379 E1.64289
G1 X169.121 Y128.621 E1.64289
G1 X168.725 Y128.621 E.01703
G1 X168.675 Y128.175 F72000
;TYPE:Outer wall
G1 F32261.712
G1 X131.325 Y128.175 E1.60454
G1 X131.325 Y90.825 E1.60454
G1 X168.675 Y90.825 E1.60454
G1 X168.675 Y128.125 E1.60239
G1 E-.43491 F2100
;WIPE_START
G1 F32261.712
G1 X167.675 Y128.126 E-.06509
;WIPE_END
G1 X131.325 Y170.621 F72000
G1 E.5 F2100
;TYPE:Inner wall
G1 F32261.712
G1 X130.879 Y170.621 E.01918
G1 X130.879 Y132.379 E1.64289
G1 X169.121 Y132.379 E1.64289
G1 X169.121 Y170.621 E1.64289
G1 X131.375 Y170.621 E1.62157
G1 X131.325 Y170.175 F72000
;TYPE:Outer wall
G1 F32261.712
G1 X131.325 Y132.825 E1.60454
G1 X168.675 Y132.825 E1.60454
G1 X168.675 Y170.175 E1.60454
G1 X131.375 Y170.175 E1.60239
G1 E-.43491 F2100
;WIPE_START
G1 F32261.712
G1 X131.374 Y169.175 E-.06509
;WIPE_END
G1 X127.121 Y170.175 F72000
G1 E.5 F2100
;TYPE:Inner wall
G1 F32261.712
G1 X127.121 Y170.621 E.01917
G1 X88.879 Y170.621 E1.64289
G1 X88.879 Y132.379 E1.64289
G1 X127.121 Y132.379 E1.64289
G1 X127.121 Y170.125 E1.62157
G1 X126.675 Y170.175 F72000
;TYPE:Outer wall
G1 F32261.712
G1 X89.325 Y170.175 E1.60454
G1 X89.325 Y132.825 E1.60454
G1 X126.675 Y132.825 E1.60454
G1 X126.675 Y170.125 E1.60239
M73 P3 R18
G1 E-.43491 F2100
M73 P3 R18
;WIPE_START
G1 F32261.712
G1 X125.675 Y170.126 E-.06509
;WIPE_END
G1 X85.121 Y132.825 F72000
G1 E.5 F2100
;TYPE:Inner wall
G1 F32261.712
G1 X85.121 Y170.621 E1.62372
G1 X46.879 Y170.621 E1.64289
G1 X46.879 Y132.379 E1.64289
G1 X85.121 Y132.379 E1.64289
G1 X85.121 Y132.775 E.01703
G1 X84.675 Y132.825 F72000
