; HEADER_BLOCK_START
; generated by OrcaSlicer 2.2.0 on 2025-10-14 at 13:16:40
; total layer number: 18
; filament_density: 1.04
; filament_diameter: 1.75
; max_z_height: 4.75
; HEADER_BLOCK_END

; THUMBNAIL_BLOCK_START

;
; THUMBNAIL_BLOCK_END

; THUMBNAIL_BLOCK_START

;
; THUMBNAIL_BLOCK_END

; external perimeters extrusion width = 0.50mm
; perimeters extrusion width = 0.50mm
; infill extrusion width = 0.50mm
; solid infill extrusion width = 0.50mm
; top infill extrusion width = 0.50mm
; first layer extrusion width = 0.50mm

; EXECUTABLE_BLOCK_START
EXCLUDE_OBJECT_DEFINE NAME=baseplate-7-2.stl_id_0_copy_0 CENTER=150,172.5 POLYGON=[[3,134.5],[3.10028,133.61],[3.39612,132.764],[3.87268,132.006],[4.50604,131.373],[5.26447,130.896],[6.10991,130.6],[7,130.5],[293,130.5],[293.89,130.6],[294.736,130.896],[295.494,131.373],[296.127,132.006],[296.604,132.764],[296.9,133.61],[297,134.5],[297,210.5],[296.9,211.39],[296.604,212.236],[296.127,212.994],[295.494,213.627],[294.736,214.104],[293.89,214.4],[293,214.5],[7,214.5],[6.10991,214.4],[5.26447,214.104],[4.50604,213.627],[3.87268,212.994],[3.39612,212.236],[3.10028,211.39],[3,210.5],[3,134.5]]
M73 P0 R9
;TYPE:Custom
PRINT_START EXTRUDER_TEMP=245 BED_TEMP=70
G90
G21
M83 ; use relative distances for extrusion
; Filament gcode
SET_PRESSURE_ADVANCE ADVANCE=0.014; Override pressure advance value
M106 S0
;LAYER_CHANGE
;Z:0.25
;HEIGHT:0.25
;BEFORE_LAYER_CHANGE
;0.25
G92 E0

G1 E-.5 F2100
;AFTER_LAYER_CHANGE
;0.25
;_SET_FAN_SPEED_CHANGING_LAYER
SET_VELOCITY_LIMIT ACCEL=5000
SET_VELOCITY_LIMIT SQUARE_CORNER_VELOCITY=5
; printing object baseplate-7-2.stl id:0 copy 0
EXCLUDE_OBJECT_START NAME=baseplate-7-2.stl_id_0_copy_0
G1 X168.675 Y174.379 F72000
G1 Z.25
G1 E.5 F2100
;TYPE:Inner wall
;WIDTH:0.5
G1 F32261.712
G1 X169.121 Y174.379 E.01918
G1 X169.121 Y212.621 E1.64289
G1 X130.879 Y212.621 E1.64289
G1 X130.879 Y174.379 E1.64289
G1 X168.625 Y174.379 E1.62157
G1 X168.675 Y174.825 F72000
;TYPE:Outer wall
G1 F32261.712
G1 X168.675 Y212.175 E1.60454
G1 X131.325 Y212.175 E1.60454
G1 X131.325 Y174.825 E1.60454
G1 X168.625 Y174.825 E1.60239
G1 E-.43491 F2100
;WIPE_START
G1 F32261.712
G1 X168.626 Y175.825 E-.06509
;WIPE_END
G1 X126.675 Y174.379 F72000
G1 E.5 F2100
;TYPE:Inner wall
G1 F32261.712
G1 X127.121 Y174.379 E.01917
G1 X127.121 Y212.621 E1.64289
G1 X88.879 Y212.621 E1.64289
G1 X88.879 Y174.379 E1.64289
G1 X126.625 Y174.379 E1.62157
G1 X126.675 Y174.825 F72000
;TYPE:Outer wall
G1 F32261.712
G1 X126.675 Y212.175 E1.60454
G1 X89.325 Y212.175 E1.60454
G1 X89.325 Y174.825 E1.60454
G1 X126.625 Y174.825 E1.60239
G1 E-.43491 F2100
;WIPE_START
G1 F32261.712
G1 X126.626 Y175.825 E-.06509
;WIPE_END
G1 X85.121 Y212.175 F72000
G1 E.5 F2100
;TYPE:Inner wall
G1 F32261.712
G1 X85.121 Y212.621 E.01918
G1 X46.879 Y212.621 E1.64289
G1 X46.879 Y174.379 E1.64289
G1 X85.121 Y174.379 E1.64289
G1 X85.121 Y212.125 E1.62157
G1 X84.675 Y212.175 F72000
;TYPE:Outer wall
G1 F32261.712
G1 X47.325 Y212.175 E1.60454
G1 X47.325 Y174.825 E1.60454
G1 X84.675 Y174.825 E1.60454
G1 X84.675 Y212.125 E1.60239
G1 E-.43491 F2100
;WIPE_START
G1 F32261.712
G1 X83.675 Y212.126 E-.06509
;WIPE_END
G1 X43.121 Y212.175 F72000
G1 E.5 F2100
;TYPE:Inner wall
G1 F32261.712
G1 X43.121 Y212.621 E.01918
G1 X6.93 Y212.621 E1.55477
G1 X6.426 Y212.541 E.02194
G1 X6.1 Y212.427 E.01484
G1 X5.624 Y212.117 E.02437
G1 X5.383 Y211.876 E.01465
G1 X5.073 Y211.4 E.02437
G1 X4.959 Y211.074 E.01484
G1 X4.879 Y210.57 E.02194
G1 X4.879 Y174.379 E1.55477
M73 P1 R9
G1 X43.121 Y174.379 E1.64289
M73 P1 R9
G1 X43.121 Y212.125 E1.62157
G1 X42.675 Y212.175 F72000
;TYPE:Outer wall
G1 F32261.712
G1 X6.965 Y212.175 E1.53407
G1 X6.535 Y212.106 E.01871
G1 X6.298 Y212.023 E.01082
G1 X5.906 Y211.769 E.02005
G1 X5.731 Y211.594 E.01063
G1 X5.477 Y211.202 E.02005
G1 X5.394 Y210.965 E.01082
G1 X5.325 Y210.535 E.01871
G1 X5.325 Y174.825 E1.53407
G1 X42.675 Y174.825 E1.60454
G1 X42.675 Y212.125 E1.60239
G1 E-.43491 F2100
;WIPE_START
G1 F32261.712
G1 X41.675 Y212.126 E-.06509
;WIPE_END
G1 X4.879 Y170.175 F72000
G1 E.5 F2100
;TYPE:Inner wall
G1 F32261.712
G1 X4.879 Y134.43 E1.5356
G1 X4.959 Y133.926 E.02194
G1 X5.073 Y133.6 E.01484
G1 X5.383 Y133.124 E.02437
G1 X5.624 Y132.883 E.01465
G1 X6.1 Y132.573 E.02437
G1 X6.426 Y132.459 E.01484
G1 X6.93 Y132.379 E.02194
G1 X43.121 Y132.379 E1.55477
G1 X43.121 Y170.621 E1.64289
G1 X4.879 Y170.621 E1.64289
G1 X4.879 Y170.225 E.01703
G1 X5.325 Y170.175 F72000
;TYPE:Outer wall
G1 F32261.712
G1 X5.325 Y134.465 E1.53407
G1 X5.394 Y134.035 E.01871
G1 X5.477 Y133.798 E.01082
G1 X5.731 Y133.406 E.02005
G1 X5.906 Y133.231 E.01063
G1 X6.298 Y132.977 E.02005
G1 X6.535 Y132.894 E.01082
G1 X6.965 Y132.825 E.01871
G1 X42.675 Y132.825 E1.53407
G1 X42.675 Y170.175 E1.60454
G1 X5.375 Y170.175 E1.60239
G1 E-.43491 F2100
;WIPE_START
G1 F32261.712
G1 X5.374 Y169.175 E-.06509
;WIPE_END
G1 X46.879 Y132.825 F72000
G1 E.5 F2100
;TYPE:Inner wall
G1 F32261.712
G1 X46.879 Y132.379 E.01918
G1 X85.121 Y132.379 E1.64289
G1 X85.121 Y170.621 E1.64289
G1 X46.879 Y170.621 E1.64289
G1 X46.879 Y132.875 E1.62157
G1 X47.325 Y132.825 F72000
;TYPE:Outer wall
G1 F32261.712
G1 X84.675 Y132.825 E1.60454
G1 X84.675 Y170.175 E1.60454
G1 X47.325 Y170.175 E1.60454
G1 X47.325 Y132.875 E1.60239
G1 E-.43491 F2100
;WIPE_START
G1 F32261.712
G1 X48.325 Y132.874 E-.06509
;WIPE_END
G1 X127.121 Y132.825 F72000
G1 E.5 F2100
;TYPE:Inner wall
G1 F32261.712
G1 X127.121 Y170.621 E1.62372
G1 X88.879 Y170.621 E1.64289
G1 X88.879 Y132.379 E1.64289
G1 X127.121 Y132.379 E1.64289
G1 X127.121 Y132.775 E.01703
G1 X126.675 Y132.825 F72000
;TYPE:Outer wall
G1 F32261.712
G1 X126.675 Y170.175 E1.60454
G1 X89.325 Y170.175 E1.60454
M73 P2 R9
G1 X89.325 Y132.825 E1.60454
M73 P2 R9
G1 X126.625 Y132.825 E1.60239
G1 E-.43491 F2100
;WIPE_START
G1 F32261.712
G1 X126.626 Y133.825 E-.06509
;WIPE_END
G1 X131.325 Y170.621 F72000
G1 E.5 F2100
;TYPE:Inner wall
G1 F32261.712
G1 X130.879 Y170.621 E.01918
G1 X130.879 Y132.379 E1.64289
G1 X169.121 Y132.379 E1.64289
G1 X169.121 Y170.621 E1.64289
G1 X131.375 Y170.621 E1.62157
G1 X131.325 Y170.175 F72000
;TYPE:Outer wall
G1 F32261.712
G1 X131.325 Y132.825 E1.60454
G1 X168.675 Y132.825 E1.60454
G1 X168.675 Y170.175 E1.60454
G1 X131.375 Y170.175 E1.60239
G1 E-.43491 F2100
;WIPE_START
G1 F32261.712
G1 X131.374 Y169.175 E-.06509
;WIPE_END
G1 X256.879 Y170.175 F72000
G1 E.5 F2100
;TYPE:Inner wall
G1 F32261.712
G1 X256.879 Y132.379 E1.62372
G1 X293.07 Y132.379 E1.55477
G1 X293.574 Y132.459 E.02194
G1 X293.9 Y132.573 E.01484
G1 X294.376 Y132.883 E.02437
G1 X294.617 Y133.124 E.01465
G1 X294.927 Y133.6 E.02437
G1 X295.041 Y133.926 E.01484
G1 X295.121 Y134.43 E.02194
G1 X295.121 Y170.621 E1.55477
G1 X256.879 Y170.621 E1.64289
G1 X256.879 Y170.225 E.01703
G1 X257.325 Y170.175 F72000
;TYPE:Outer wall
G1 F32261.712
G1 X257.325 Y132.825 E1.60454
G1 X293.035 Y132.825 E1.53407
G1 X293.465 Y132.894 E.01871
G1 X293.702 Y132.977 E.01082
G1 X294.094 Y133.231 E.02005
G1 X294.269 Y133.406 E.01063
G1 X294.523 Y133.798 E.02005
G1 X294.606 Y134.035 E.01082
G1 X294.675 Y134.465 E.01871
G1 X294.675 Y170.175 E1.53407
G1 X257.375 Y170.175 E1.60239
G1 E-.43491 F2100
;WIPE_START
G1 F32261.712
G1 X257.374 Y169.175 E-.06509
;WIPE_END
G1 X253.121 Y170.175 F72000
G1 E.5 F2100
;TYPE:Inner wall
G1 F32261.712
G1 X253.121 Y170.621 E.01917
G1 X214.879 Y170.621 E1.64289
G1 X214.879 Y132.379 E1.64289
G1 X253.121 Y132.379 E1.64289
G1 X253.121 Y170.125 E1.62157
G1 X252.675 Y170.175 F72000
;TYPE:Outer wall
G1 F32261.712
G1 X215.325 Y170.175 E1.60454
G1 X215.325 Y132.825 E1.60454
G1 X252.675 Y132.825 E1.60454
G1 X252.675 Y170.125 E1.60239
G1 E-.43491 F2100
;WIPE_START
G1 F32261.712
G1 X251.675 Y170.126 E-.06509
;WIPE_END
G1 X173.325 Y170.621 F72000
G1 E.5 F2100
;TYPE:Inner wall
G1 F32261.712
G1 X172.879 Y170.621 E.01917
G1 X172.879 Y132.379 E1.64289
M73 P3 R9
G1 X211.121 Y132.379 E1.64289
M73 P3 R9
G1 X211.121 Y170.621 E1.64289
G1 X173.375 Y170.621 E1.62157
G1 X173.325 Y170.175 F72000
;TYPE:Outer wall
G1 F32261.712
G1 X173.325 Y132.825 E1.60454
G1 X210.675 Y132.825 E1.60454
G1 X210.675 Y170.175 E1.60454
G1 X173.375 Y170.175 E1.60239
G1 E-.43491 F2100
;WIPE_START
G1 F32261.712
G1 X173.374 Y169.175 E-.06509
;WIPE_END
G1 X210.675 Y174.379 F72000
G1 E.5 F2100
;TYPE:Inner wall
G1 F32261.712
G1 X211.121 Y174.379 E.01918
G1 X211.121 Y212.621 E1.64289
G1 X172.879 Y212.621 E1.64289
G1 X172.879 Y174.379 E1.64289
G1 X210.625 Y174.379 E1.62157
G1 X210.675 Y174.825 F72000
;TYPE:Outer wall
G1 F32261.712
G1 X210.675 Y212.175 E1.60454
G1 X173.325 Y212.175 E1.60454
G1 X173.325 Y174.825 E1.60454
G1 X210.625 Y174.825 E1.60239
G1 E-.43491 F2100
;WIPE_START
G1 F32261.712
G1 X210.626 Y175.825 E-.06509
;WIPE_END
G1 X253.121 Y212.175 F72000
G1 E.5 F2100
;TYPE:Inner wall
G1 F32261.712
G1 X253.121 Y212.621 E.01918
G1 X214.879 Y212.621 E1.64289
G1 X214.879 Y174.379 E1.64289
G1 X253.121 Y174.379 E1.64289
G1 X253.121 Y212.125 E1.62157
G1 X252.675 Y212.175 F72000
;TYPE:Outer wall
G1 F32261.712
G1 X215.325 Y212.175 E1.60454
G1 X215.325 Y174.825 E1.60454
G1 X252.675 Y174.825 E1.60454
G1 X252.675 Y212.125 E1.60239
G1 E-.43491 F2100
;WIPE_START
G1 F32261.712
G1 X251.675 Y212.126 E-.06509
;WIPE_END
G1 X256.879 Y212.175 F72000
G1 E.5 F2100
;TYPE:Inner wall
G1 F32261.712
G1 X256.879 Y174.379 E1.62372
G1 X295.121 Y174.379 E1.64289
G1 X295.121 Y210.57 E1.55477
G1 X295.041 Y211.074 E.02194
G1 X294.927 Y211.4 E.01484
G1 X294.617 Y211.876 E.02437
G1 X294.376 Y212.117 E.01465
G1 X293.9 Y212.427 E.02437
G1 X293.574 Y212.541 E.01484
G1 X293.07 Y212.621 E.02194
G1 X256.879 Y212.621 E1.55477
G1 X256.879 Y212.225 E.01703
G1 X257.325 Y212.175 F72000
;TYPE:Outer wall
G1 F32261.712
G1 X257.325 Y174.825 E1.60454
G1 X294.675 Y174.825 E1.60454
M73 P4 R9
G1 X294.675 Y210.535 E1.53407
M73 P4 R9
G1 X294.606 Y210.965 E.01871
G1 X294.523 Y211.202 E.01082
G1 X294.269 Y211.594 E.02005
G1 X294.094 Y211.769 E.01063
G1 X293.702 Y212.023 E.02005
G1 X293.465 Y212.106 E.01082
G1 X293.035 Y212.175 E.01871
G1 X257.375 Y212.175 E1.53192
G1 E-.43491 F2100
;WIPE_START
G1 F32261.712
G1 X257.374 Y211.175 E-.06509
;WIPE_END
G1 X4.539 Y132.537 F72000
G1 E.5 F2100
;TYPE:Inner wall
G1 F32261.712
G1 X5.037 Y132.039 E.03029
G1 X5.634 Y131.663 E.03029
G1 X6.299 Y131.431 E.03029
G1 X7.048 Y131.346 E.03234
G1 X292.968 Y131.348 E12.28303
G1 X293.701 Y131.431 E.03167
G1 X294.366 Y131.663 E.03029
G1 X294.963 Y132.039 E.03029
G1 X295.461 Y132.537 E.03029
G1 X295.837 Y133.134 E.03029
G1 X296.069 Y133.799 E.03029
G1 X296.154 Y134.548 E.03234
G1 X296.154 Y210.452 E3.26084
G1 X296.069 Y211.201 E.03234
G1 X295.837 Y211.866 E.03029
G1 X295.461 Y212.463 E.03029
G1 X294.963 Y212.961 E.03029
G1 X294.366 Y213.337 E.03029
G1 X293.701 Y213.569 E.03029
G1 X292.952 Y213.654 E.03234
G1 X7.048 Y213.654 E12.28236
G1 X6.299 Y213.569 E.03234
G1 X5.634 Y213.337 E.03029
G1 X5.037 Y212.961 E.03029
G1 X4.539 Y212.463 E.03029
G1 X4.163 Y211.866 E.03029
G1 X3.931 Y211.201 E.03029
G1 X3.846 Y210.452 E.03234
G1 X3.846 Y134.548 E3.26084
G1 X3.931 Y133.799 E.03234
G1 X4.163 Y133.134 E.03029
G1 X4.512 Y132.579 E.02814
G1 X4.187 Y132.257 F72000
;TYPE:Outer wall
G1 F32261.712
G1 X4.757 Y131.687 E.03461
G1 X5.439 Y131.259 E.03461
G1 X6.199 Y130.993 E.03461
G1 X7.022 Y130.9 E.03558
G1 X292.993 Y130.902 E12.28518
G1 X293.801 Y130.993 E.03491
G1 X294.561 Y131.259 E.03461
G1 X295.243 Y131.687 E.03461
G1 X295.813 Y132.257 E.03461
G1 X296.241 Y132.939 E.03461
G1 X296.507 Y133.699 E.03461
G1 X296.6 Y134.522 E.03558
G1 X296.6 Y210.478 E3.263
G1 X296.507 Y211.301 E.03558
G1 X296.241 Y212.061 E.03461
G1 X295.813 Y212.743 E.03461
G1 X295.243 Y213.313 E.03461
G1 X294.561 Y213.741 E.03461
G1 X293.801 Y214.007 E.03461
G1 X292.978 Y214.1 E.03558
G1 X7.022 Y214.1 E12.28451
G1 X6.199 Y214.007 E.03558
G1 X5.439 Y213.741 E.03461
G1 X4.757 Y213.313 E.03461
G1 X4.187 Y212.743 E.03461
G1 X3.759 Y212.061 E.03461
G1 X3.493 Y211.301 E.03461
G1 X3.4 Y210.478 E.03558
G1 X3.4 Y134.522 E3.263
G1 X3.493 Y133.699 E.03558
G1 X3.759 Y132.939 E.03461
G1 X4.161 Y132.299 E.03246
G1 E-.43491 F2100
;WIPE_START
G1 F32261.712
G1 X4.757 Y131.687 E-.05562
G1 X4.88 Y131.61 E-.00948
;WIPE_END
G1 X4.362 Y170.845 F72000
G1 E.5 F2100
;TYPE:Gap infill
;WIDTH:0.638765
G1 F24610.571
G1 X4.362 Y134.577 E2.04244
G1 X4.438 Y133.915 E.03748
G1 X4.604 Y133.407 E.03012
G1 X4.942 Y132.859 E.03625
G1 X5.008 Y132.783 E.00569
G1 X5.359 Y132.442 E.02752
G1 X5.856 Y132.125 E.03322
G1 X6.415 Y131.938 E.03319
G1 X7.077 Y131.862 E.03748
M73 P5 R9
G1 X43.345 Y131.863 E2.04244
M73 P5 R9
G1 E-.41467 F2100
;WIPE_START
G1 F24610.571
G1 X42.345 Y131.863 E-.08533
;WIPE_END
G1 X46.655 Y131.863 F72000
G1 E.5 F2100
;WIDTH:0.639124
G1 F24595.455
G1 X85.345 Y131.863 E2.18012
G1 E-.41462 F2100
;WIPE_START
G1 F24595.455
G1 X84.345 Y131.863 E-.08538
;WIPE_END
G1 X46.655 Y213.138 F72000
G1 E.5 F2100
;WIDTH:0.639602
G1 F24575.393
G1 X85.345 Y213.138 E2.1819
G1 E-.41455 F2100
;WIPE_START
G1 F24575.393
G1 X84.345 Y213.138 E-.08545
;WIPE_END
G1 X88.655 Y213.138 F72000
G1 E.5 F2100
G1 F24575.393
G1 X127.345 Y213.138 E2.1819
G1 E-.41455 F2100
;WIPE_START
G1 F24575.393
G1 X126.345 Y213.138 E-.08545
;WIPE_END
G1 X130.655 Y213.138 F72000
G1 E.5 F2100
G1 F24575.393
G1 X169.345 Y213.138 E2.1819
G1 E-.41455 F2100
;WIPE_START
G1 F24575.393
G1 X168.345 Y213.138 E-.08545
;WIPE_END
G1 X172.655 Y213.138 F72000
G1 E.5 F2100
G1 F24575.393
G1 X211.345 Y213.138 E2.1819
G1 E-.41455 F2100
;WIPE_START
G1 F24575.393
G1 X210.345 Y213.138 E-.08545
;WIPE_END
G1 X214.655 Y213.138 F72000
G1 E.5 F2100
G1 F24575.393
G1 X253.345 Y213.138 E2.1819
G1 E-.41455 F2100
;WIPE_START
G1 F24575.393
G1 X252.345 Y213.138 E-.08545
;WIPE_END
G1 X256.655 Y213.138 F72000
G1 E.5 F2100
;WIDTH:0.638868
G1 F24606.242
G1 X292.923 Y213.138 E2.0428
G1 X293.585 Y213.062 E.03749
G1 X294.144 Y212.875 E.0332
G1 X294.641 Y212.558 E.03322
G1 X294.992 Y212.217 E.02752
G1 X295.058 Y212.141 E.00569
G1 X295.396 Y211.593 E.03625
G1 X295.562 Y211.085 E.03013
G1 X295.638 Y210.423 E.03749
G1 X295.638 Y174.155 E2.0428
G1 E-.41466 F2100
;WIPE_START
G1 F24606.242
G1 X295.638 Y175.155 E-.08534
;WIPE_END
G1 X295.638 Y170.845 F72000
G1 E.5 F2100
;WIDTH:0.638045
G1 F24640.886
G1 X295.638 Y134.577 E2.03993
G1 X295.562 Y133.915 E.03744
G1 X295.375 Y133.356 E.03315
G1 X295.058 Y132.859 E.03318
G1 X294.717 Y132.508 E.02749
G1 X294.641 Y132.442 E.00568
G1 X294.093 Y132.104 E.0362
G1 X293.585 Y131.938 E.03009
G1 X292.939 Y131.863 E.03656
G1 X256.655 Y131.863 E2.04081
G1 E-.41478 F2100
;WIPE_START
G1 F24640.886
G1 X257.655 Y131.863 E-.08522
;WIPE_END
G1 X253.345 Y131.863 F72000
G1 E.5 F2100
;WIDTH:0.638094
G1 F24638.803
G1 X214.655 Y131.863 E2.17628
G1 E-.41477 F2100
;WIPE_START
G1 F24638.803
G1 X215.655 Y131.863 E-.08523
;WIPE_END
G1 X211.345 Y131.863 F72000
G1 E.5 F2100
;WIDTH:0.638352
G1 F24627.929
G1 X172.655 Y131.863 E2.17725
G1 E-.41473 F2100
;WIPE_START
G1 F24627.929
G1 X173.655 Y131.863 E-.08527
;WIPE_END
G1 X169.345 Y131.863 F72000
G1 E.5 F2100
;WIDTH:0.638608
G1 F24617.151
G1 X130.655 Y131.863 E2.1782
G1 E-.41469 F2100
;WIPE_START
G1 F24617.151
G1 X131.655 Y131.863 E-.08531
;WIPE_END
G1 X127.345 Y131.863 F72000
G1 E.5 F2100
;WIDTH:0.638866
G1 F24606.3
G1 X88.655 Y131.863 E2.17916
G1 E-.41466 F2100
;WIPE_START
G1 F24606.3
G1 X89.655 Y131.863 E-.08534
;WIPE_END
G1 X88.745 Y132.735 F72000
G1 E.5 F2100
;TYPE:Bottom surface
;WIDTH:0.500583
G1 F32219.594
G1 X87.692 Y131.682 E.06405
G1 X87.06 Y131.682 E.02719
G1 X88.544 Y133.166 E.09029
G1 X88.544 Y133.798 E.02719
G1 X86.428 Y131.682 E.12874
G1 X85.796 Y131.682 E.02719
G1 X88.544 Y134.43 E.16719
G1 X88.544 Y135.062 E.02719
G1 X85.679 Y132.197 E.17426
G1 X85.679 Y132.517 E.01375
G1 X85.456 Y132.517 E.0096
G1 X85.456 Y132.606 E.00383
G1 X88.544 Y135.694 E.18784
G1 X88.544 Y136.326 E.02719
G1 X85.456 Y133.238 E.18784
G1 X85.456 Y133.87 E.02719
G1 X88.544 Y136.958 E.18784
G1 X88.544 Y137.59 E.02719
G1 X85.456 Y134.502 E.18784
G1 X85.456 Y135.134 E.02719
G1 X88.544 Y138.222 E.18784
G1 X88.544 Y138.854 E.02719
G1 X85.456 Y135.767 E.18784
G1 X85.456 Y136.399 E.02719
G1 X88.544 Y139.486 E.18784
G1 X88.544 Y140.118 E.02719
