; HEADER_BLOCK_START
; generated by OrcaSlicer 2.2.0 on 2025-10-14 at 12:46:25
; total layer number: 18
; filament_density: 1.04
; filament_diameter: 1.75
; max_z_height: 4.75
; HEADER_BLOCK_END

; THUMBNAIL_BLOCK_START

;
; THUMBNAIL_BLOCK_END

; THUMBNAIL_BLOCK_START

;
; THUMBNAIL_BLOCK_END

; external perimeters extrusion width = 0.50mm
; perimeters extrusion width = 0.50mm
; infill extrusion width = 0.50mm
; solid infill extrusion width = 0.50mm
; top infill extrusion width = 0.50mm
; first layer extrusion width = 0.50mm

; EXECUTABLE_BLOCK_START
EXCLUDE_OBJECT_DEFINE NAME=baseplate-4-2.stl_id_0_copy_0 CENTER=150,172.5 POLYGON=[[66,134.5],[66.1003,133.61],[66.3961,132.764],[66.8727,132.006],[67.506,131.373],[68.2645,130.896],[69.1099,130.6],[70,130.5],[230,130.5],[230.89,130.6],[231.736,130.896],[232.494,131.373],[233.127,132.006],[233.604,132.764],[233.9,133.61],[234,134.5],[234,210.5],[233.9,211.39],[233.604,212.236],[233.127,212.994],[232.494,213.627],[231.736,214.104],[230.89,214.4],[230,214.5],[70,214.5],[69.1099,214.4],[68.2645,214.104],[67.506,213.627],[66.8727,212.994],[66.3961,212.236],[66.1003,211.39],[66,210.5],[66,134.5]]
M73 P0 R9
;TYPE:Custom
PRINT_START EXTRUDER_TEMP=245 BED_TEMP=70
G90
G21
M83 ; use relative distances for extrusion
; Filament gcode
SET_PRESSURE_ADVANCE ADVANCE=0.014; Override pressure advance value
M106 S0
;LAYER_CHANGE
;Z:0.25
;HEIGHT:0.25
;BEFORE_LAYER_CHANGE
;0.25
G92 E0

G1 E-.5 F2100
;AFTER_LAYER_CHANGE
;0.25
;_SET_FAN_SPEED_CHANGING_LAYER
SET_VELOCITY_LIMIT ACCEL=1000 ACCEL_TO_DECEL=500
SET_VELOCITY_LIMIT SQUARE_CORNER_VELOCITY=5
; printing object baseplate-4-2.stl id:0 copy 0
EXCLUDE_OBJECT_START NAME=baseplate-4-2.stl_id_0_copy_0
G1 X151.879 Y212.175 F72000
G1 Z.25
G1 E.5 F2100
;TYPE:Inner wall
;WIDTH:0.5
G1 F21507.808
G1 X151.879 Y174.379 E1.62372
G1 X190.121 Y174.379 E1.64289
G1 X190.121 Y212.621 E1.64289
G1 X151.879 Y212.621 E1.64289
G1 X151.879 Y212.225 E.01703
G1 X152.325 Y212.175 F72000
;TYPE:Outer wall
G1 F21507.808
G1 X152.325 Y174.825 E1.60454
G1 X189.675 Y174.825 E1.60454
G1 X189.675 Y212.175 E1.60454
G1 X152.375 Y212.175 E1.60239
G1 E-.40236 F2100
;WIPE_START
G1 F21507.808
G1 X152.374 Y211.175 E-.09764
;WIPE_END
G1 X193.879 Y212.175 F72000
G1 E.5 F2100
;TYPE:Inner wall
G1 F21507.808
G1 X193.879 Y174.379 E1.62372
G1 X232.121 Y174.379 E1.64289
G1 X232.121 Y210.57 E1.55477
M73 P1 R9
G1 X232.041 Y211.074 E.02194
M73 P1 R9
G1 X231.927 Y211.4 E.01484
G1 X231.617 Y211.876 E.02437
G1 X231.376 Y212.117 E.01466
G1 X230.9 Y212.427 E.02437
G1 X230.574 Y212.541 E.01484
G1 X230.07 Y212.621 E.02194
G1 X193.879 Y212.621 E1.55477
G1 X193.879 Y212.225 E.01703
G1 X194.325 Y212.175 F72000
;TYPE:Outer wall
G1 F21507.808
G1 X194.325 Y174.825 E1.60454
G1 X231.675 Y174.825 E1.60454
G1 X231.675 Y210.535 E1.53407
G1 X231.606 Y210.965 E.01871
G1 X231.523 Y211.202 E.01082
G1 X231.269 Y211.594 E.02005
G1 X231.094 Y211.769 E.01063
G1 X230.702 Y212.023 E.02005
G1 X230.465 Y212.106 E.01082
G1 X230.035 Y212.175 E.01871
G1 X194.375 Y212.175 E1.53192
G1 E-.40236 F2100
;WIPE_START
G1 F21507.808
G1 X194.374 Y211.175 E-.09764
;WIPE_END
G1 X232.121 Y170.175 F72000
G1 E.5 F2100
;TYPE:Inner wall
G1 F21507.808
G1 X232.121 Y170.621 E.01917
G1 X193.879 Y170.621 E1.64289
G1 X193.879 Y132.379 E1.64289
G1 X230.07 Y132.379 E1.55477
G1 X230.574 Y132.459 E.02194
G1 X230.9 Y132.573 E.01484
G1 X231.376 Y132.883 E.02437
G1 X231.617 Y133.124 E.01466
G1 X231.927 Y133.6 E.02437
G1 X232.041 Y133.926 E.01484
G1 X232.121 Y134.43 E.02194
G1 X232.121 Y170.125 E1.53345
G1 X231.675 Y170.175 F72000
;TYPE:Outer wall
G1 F21507.808
G1 X194.325 Y170.175 E1.60454
G1 X194.325 Y132.825 E1.60454
M73 P1 R8
G1 X230.035 Y132.825 E1.53407
M73 P1 R8
M73 P2 R8
G1 X230.465 Y132.894 E.01871
M73 P2 R8
G1 X230.702 Y132.977 E.01082
G1 X231.094 Y133.231 E.02005
G1 X231.269 Y133.406 E.01063
G1 X231.523 Y133.798 E.02005
G1 X231.606 Y134.035 E.01082
G1 X231.675 Y134.465 E.01871
G1 X231.675 Y170.125 E1.53192
G1 E-.40236 F2100
;WIPE_START
G1 F21507.808
G1 X230.675 Y170.126 E-.09764
;WIPE_END
G1 X189.675 Y132.379 F72000
G1 E.5 F2100
;TYPE:Inner wall
G1 F21507.808
G1 X190.121 Y132.379 E.01918
G1 X190.121 Y170.621 E1.64289
G1 X151.879 Y170.621 E1.64289
G1 X151.879 Y132.379 E1.64289
G1 X189.625 Y132.379 E1.62157
G1 X189.675 Y132.825 F72000
;TYPE:Outer wall
G1 F21507.808
G1 X189.675 Y170.175 E1.60454
G1 X152.325 Y170.175 E1.60454
G1 X152.325 Y132.825 E1.60454
G1 X189.625 Y132.825 E1.60239
G1 E-.40236 F2100
;WIPE_START
G1 F21507.808
G1 X189.626 Y133.825 E-.09764
;WIPE_END
G1 X106.121 Y132.825 F72000
G1 E.5 F2100
;TYPE:Inner wall
G1 F21507.808
G1 X106.121 Y170.621 E1.62372
G1 X67.879 Y170.621 E1.64289
M73 P3 R8
G1 X67.879 Y134.43 E1.55477
M73 P3 R8
G1 X67.959 Y133.926 E.02194
G1 X68.073 Y133.6 E.01484
G1 X68.383 Y133.124 E.02437
G1 X68.624 Y132.883 E.01466
G1 X69.1 Y132.573 E.02437
G1 X69.426 Y132.459 E.01484
G1 X69.93 Y132.379 E.02194
G1 X106.121 Y132.379 E1.55477
G1 X106.121 Y132.775 E.01703
G1 X105.675 Y132.825 F72000
;TYPE:Outer wall
G1 F21507.808
G1 X105.675 Y170.175 E1.60454
G1 X68.325 Y170.175 E1.60454
G1 X68.325 Y134.465 E1.53407
G1 X68.394 Y134.035 E.01871
G1 X68.477 Y133.798 E.01082
G1 X68.731 Y133.406 E.02005
G1 X68.906 Y133.231 E.01063
G1 X69.298 Y132.977 E.02005
G1 X69.535 Y132.894 E.01082
G1 X69.965 Y132.825 E.01871
G1 X105.625 Y132.825 E1.53192
G1 E-.40236 F2100
;WIPE_START
G1 F21507.808
G1 X105.626 Y133.825 E-.09764
;WIPE_END
G1 X148.121 Y170.175 F72000
G1 E.5 F2100
;TYPE:Inner wall
G1 F21507.808
G1 X148.121 Y170.621 E.01917
G1 X109.879 Y170.621 E1.64289
G1 X109.879 Y132.379 E1.64289
G1 X148.121 Y132.379 E1.64289
G1 X148.121 Y170.125 E1.62157
G1 X147.675 Y170.175 F72000
;TYPE:Outer wall
G1 F21507.808
G1 X110.325 Y170.175 E1.60454
G1 X110.325 Y132.825 E1.60454
M73 P4 R8
G1 X147.675 Y132.825 E1.60454
M73 P4 R8
G1 X147.675 Y170.125 E1.60239
G1 E-.40236 F2100
;WIPE_START
G1 F21507.808
G1 X146.675 Y170.126 E-.09764
;WIPE_END
G1 X147.675 Y174.379 F72000
G1 E.5 F2100
;TYPE:Inner wall
G1 F21507.808
G1 X148.121 Y174.379 E.01917
G1 X148.121 Y212.621 E1.64289
G1 X109.879 Y212.621 E1.64289
G1 X109.879 Y174.379 E1.64289
G1 X147.625 Y174.379 E1.62157
G1 X147.675 Y174.825 F72000
;TYPE:Outer wall
G1 F21507.808
G1 X147.675 Y212.175 E1.60454
G1 X110.325 Y212.175 E1.60454
G1 X110.325 Y174.825 E1.60454
G1 X147.625 Y174.825 E1.60239
G1 E-.40236 F2100
;WIPE_START
G1 F21507.808
G1 X147.626 Y175.825 E-.09764
;WIPE_END
G1 X106.121 Y212.175 F72000
G1 E.5 F2100
;TYPE:Inner wall
G1 F21507.808
G1 X106.121 Y212.621 E.01918
G1 X69.93 Y212.621 E1.55477
G1 X69.426 Y212.541 E.02194
G1 X69.1 Y212.427 E.01484
G1 X68.624 Y212.117 E.02437
G1 X68.383 Y211.876 E.01466
G1 X68.073 Y211.4 E.02437
G1 X67.959 Y211.074 E.01484
G1 X67.879 Y210.57 E.02194
G1 X67.879 Y174.379 E1.55477
M73 P5 R8
G1 X106.121 Y174.379 E1.64289
M73 P5 R8
G1 X106.121 Y212.125 E1.62157
G1 X105.675 Y212.175 F72000
;TYPE:Outer wall
G1 F21507.808
G1 X69.965 Y212.175 E1.53407
G1 X69.535 Y212.106 E.01871
G1 X69.298 Y212.023 E.01082
G1 X68.906 Y211.769 E.02005
G1 X68.731 Y211.594 E.01063
G1 X68.477 Y211.202 E.02005
G1 X68.394 Y210.965 E.01082
G1 X68.325 Y210.535 E.01871
G1 X68.325 Y174.825 E1.53407
G1 X105.675 Y174.825 E1.60454
G1 X105.675 Y212.125 E1.60239
G1 E-.40236 F2100
;WIPE_START
G1 F21507.808
G1 X104.675 Y212.126 E-.09764
;WIPE_END
G1 X232.461 Y212.463 F72000
G1 E.5 F2100
;TYPE:Inner wall
G1 F21507.808
G1 X231.963 Y212.961 E.03029
G1 X231.366 Y213.337 E.03029
G1 X230.701 Y213.569 E.03029
G1 X229.952 Y213.654 E.03234
G1 X70.048 Y213.654 E6.86945
G1 X69.299 Y213.569 E.03234
G1 X68.634 Y213.337 E.03029
G1 X68.037 Y212.961 E.03029
G1 X67.539 Y212.463 E.03029
G1 X67.163 Y211.866 E.03029
G1 X66.931 Y211.201 E.03029
G1 X66.846 Y210.452 E.03234
G1 X66.846 Y134.548 E3.26084
G1 X66.931 Y133.799 E.03234
G1 X67.163 Y133.134 E.03029
G1 X67.539 Y132.537 E.03029
G1 X68.037 Y132.039 E.03029
G1 X68.634 Y131.663 E.03029
G1 X69.299 Y131.431 E.03029
G1 X70.048 Y131.346 E.03234
G1 X229.968 Y131.348 E6.87012
M73 P6 R8
G1 X230.701 Y131.431 E.03167
M73 P6 R8
G1 X231.366 Y131.663 E.03029
G1 X231.963 Y132.039 E.03029
G1 X232.461 Y132.537 E.03029
G1 X232.837 Y133.134 E.03029
G1 X233.069 Y133.799 E.03029
G1 X233.154 Y134.548 E.03234
G1 X233.154 Y210.452 E3.26084
G1 X233.069 Y211.201 E.03234
G1 X232.837 Y211.866 E.03029
G1 X232.488 Y212.421 E.02814
G1 X232.813 Y212.743 F72000
;TYPE:Outer wall
G1 F21507.808
G1 X232.243 Y213.313 E.03461
G1 X231.561 Y213.741 E.03461
G1 X230.801 Y214.007 E.03461
G1 X229.978 Y214.1 E.03558
G1 X70.022 Y214.1 E6.8716
G1 X69.199 Y214.007 E.03558
G1 X68.439 Y213.741 E.03461
G1 X67.757 Y213.313 E.03461
G1 X67.187 Y212.743 E.03461
G1 X66.759 Y212.061 E.03461
G1 X66.493 Y211.301 E.03461
G1 X66.4 Y210.478 E.03558
G1 X66.4 Y134.522 E3.263
G1 X66.493 Y133.699 E.03558
G1 X66.759 Y132.939 E.03461
G1 X67.187 Y132.257 E.03461
G1 X67.757 Y131.687 E.03461
G1 X68.439 Y131.259 E.03461
G1 X69.199 Y130.993 E.03461
G1 X70.022 Y130.9 E.03558
G1 X229.993 Y130.902 E6.87227
G1 X230.801 Y130.993 E.03491
G1 X231.561 Y131.259 E.03461
G1 X232.243 Y131.687 E.03461
G1 X232.813 Y132.257 E.03461
G1 X233.241 Y132.939 E.03461
G1 X233.507 Y133.699 E.03461
G1 X233.6 Y134.522 E.03558
G1 X233.6 Y210.478 E3.263
G1 X233.507 Y211.301 E.03558
G1 X233.241 Y212.061 E.03461
G1 X232.839 Y212.701 E.03246
G1 E-.40236 F2100
;WIPE_START
G1 F21507.808
G1 X232.243 Y213.313 E-.08342
G1 X232.12 Y213.39 E-.01422
;WIPE_END
G1 X232.638 Y174.155 F72000
G1 E.5 F2100
;TYPE:Gap infill
;WIDTH:0.638868
G1 F16404.163
G1 X232.638 Y210.423 E2.0428
G1 X232.562 Y211.085 E.03749
G1 X232.396 Y211.593 E.03013
G1 X232.058 Y212.141 E.03626
G1 X231.992 Y212.217 E.00569
G1 X231.641 Y212.558 E.02752
G1 X231.144 Y212.875 E.03322
G1 X230.585 Y213.062 E.0332
G1 X229.923 Y213.138 E.03749
M73 P7 R8
G1 X193.655 Y213.138 E2.0428
M73 P7 R8
G1 E-.37198 F2100
;WIPE_START
G1 F16404.163
G1 X194.655 Y213.138 E-.12802
;WIPE_END
G1 X190.345 Y213.138 F72000
G1 E.5 F2100
;WIDTH:0.639602
G1 F16383.595
G1 X151.655 Y213.138 E2.1819
G1 E-.37182 F2100
;WIPE_START
G1 F16383.595
G1 X152.655 Y213.138 E-.12818
;WIPE_END
G1 X151.655 Y131.863 F72000
G1 E.5 F2100
;WIDTH:0.638288
G1 F16420.417
G1 X190.345 Y131.863 E2.17701
G1 E-.37211 F2100
;WIPE_START
G1 F16420.417
G1 X189.345 Y131.863 E-.12789
;WIPE_END
G1 X193.655 Y131.863 F72000
G1 E.5 F2100
;WIDTH:0.638045
G1 F16427.259
G1 X229.939 Y131.863 E2.0408
G1 X230.585 Y131.938 E.03656
G1 X231.144 Y132.125 E.03316
G1 X231.641 Y132.442 E.03318
G1 X231.992 Y132.783 E.02749
G1 X232.058 Y132.859 E.00568
G1 X232.396 Y133.407 E.03621
G1 X232.562 Y133.915 E.03008
G1 X232.638 Y134.577 E.03744
G1 X232.638 Y170.845 E2.03993
G1 E-.37216 F2100
;WIPE_START
G1 F16427.259
G1 X232.638 Y169.845 E-.12784
;WIPE_END
G1 X233.02 Y171.881 F72000
G1 E.5 F2100
;TYPE:Bottom surface
;WIDTH:0.500003
G1 F21507.641
G1 X232.318 Y171.179 E.04262
G1 X231.984 Y171.179 E.01437
G1 X231.984 Y170.956 E.00959
G1 X231.464 Y170.956 E.02233
G1 X232.819 Y172.311 E.08232
G1 X232.819 Y172.942 E.02712
G1 X230.833 Y170.956 E.12067
G1 X230.201 Y170.956 E.02712
G1 X232.819 Y173.574 E.15902
G1 X232.819 Y173.821 E.01062
G1 X232.435 Y173.821 E.0165
G1 X229.57 Y170.956 E.17404
G1 X228.939 Y170.956 E.02712
G1 X231.983 Y174 E.18496
G1 X231.983 Y174.044 E.00187
G1 X231.396 Y174.044 E.02525
G1 X228.308 Y170.956 E.1876
G1 X227.676 Y170.956 E.02712
G1 X230.764 Y174.044 E.1876
G1 X230.133 Y174.044 E.02712
G1 X227.045 Y170.956 E.1876
G1 X226.414 Y170.956 E.02712
G1 X229.502 Y174.044 E.1876
G1 X228.871 Y174.044 E.02712
G1 X225.783 Y170.956 E.1876
G1 X225.152 Y170.956 E.02712
G1 X228.239 Y174.044 E.1876
G1 X227.608 Y174.044 E.02712
G1 X224.52 Y170.956 E.1876
G1 X223.889 Y170.956 E.02712
G1 X226.977 Y174.044 E.1876
G1 X226.346 Y174.044 E.02712
M73 P8 R8
G1 X223.258 Y170.956 E.1876
M73 P8 R8
G1 X222.627 Y170.956 E.02712
G1 X225.714 Y174.044 E.1876
G1 X225.083 Y174.044 E.02712
G1 X221.995 Y170.956 E.1876
G1 X221.364 Y170.956 E.02712
G1 X224.452 Y174.044 E.1876
G1 X223.821 Y174.044 E.02712
G1 X220.733 Y170.956 E.1876
G1 X220.102 Y170.956 E.02712
G1 X223.189 Y174.044 E.1876
G1 X222.558 Y174.044 E.02712
G1 X219.47 Y170.956 E.1876
G1 X218.839 Y170.956 E.02712
G1 X221.927 Y174.044 E.1876
G1 X221.296 Y174.044 E.02712
G1 X218.208 Y170.956 E.1876
G1 X217.577 Y170.956 E.02712
G1 X220.664 Y174.044 E.1876
G1 X220.033 Y174.044 E.02712
G1 X216.945 Y170.956 E.1876
G1 X216.314 Y170.956 E.02712
G1 X219.402 Y174.044 E.1876
G1 X218.771 Y174.044 E.02712
G1 X215.683 Y170.956 E.1876
G1 X215.052 Y170.956 E.02712
G1 X218.139 Y174.044 E.1876
G1 X217.508 Y174.044 E.02712
G1 X214.42 Y170.956 E.1876
G1 X213.789 Y170.956 E.02712
G1 X216.877 Y174.044 E.1876
G1 X216.246 Y174.044 E.02712
G1 X213.158 Y170.956 E.1876
G1 X212.527 Y170.956 E.02712
G1 X215.615 Y174.044 E.1876
G1 X214.983 Y174.044 E.02712
G1 X211.896 Y170.956 E.1876
G1 X211.264 Y170.956 E.02712
G1 X214.352 Y174.044 E.1876
G1 X213.721 Y174.044 E.02712
G1 X210.633 Y170.956 E.1876
G1 X210.002 Y170.956 E.02712
G1 X213.09 Y174.044 E.1876
G1 X212.458 Y174.044 E.02712
G1 X209.371 Y170.956 E.1876
G1 X208.739 Y170.956 E.02712
G1 X211.827 Y174.044 E.1876
G1 X211.196 Y174.044 E.02712
G1 X208.108 Y170.956 E.1876
G1 X207.477 Y170.956 E.02712
G1 X210.565 Y174.044 E.1876
G1 X209.933 Y174.044 E.02712
G1 X206.846 Y170.956 E.1876
G1 X206.214 Y170.956 E.02712
G1 X209.302 Y174.044 E.1876
G1 X208.671 Y174.044 E.02712
G1 X205.583 Y170.956 E.1876
G1 X204.952 Y170.956 E.02712
G1 X208.04 Y174.044 E.1876
G1 X207.408 Y174.044 E.02712
G1 X204.321 Y170.956 E.1876
G1 X203.689 Y170.956 E.02712
G1 X206.777 Y174.044 E.1876
G1 X206.146 Y174.044 E.02712
G1 X203.058 Y170.956 E.1876
G1 X202.427 Y170.956 E.02712
G1 X205.515 Y174.044 E.1876
M73 P9 R8
G1 X204.883 Y174.044 E.02712
M73 P9 R8
G1 X201.796 Y170.956 E.1876
G1 X201.164 Y170.956 E.02712
G1 X204.252 Y174.044 E.1876
G1 X203.621 Y174.044 E.02712
G1 X200.533 Y170.956 E.1876
G1 X199.902 Y170.956 E.02712
G1 X202.99 Y174.044 E.1876
G1 X202.359 Y174.044 E.02712
G1 X199.271 Y170.956 E.1876
G1 X198.64 Y170.956 E.02712
G1 X201.727 Y174.044 E.1876
G1 X201.096 Y174.044 E.02712
G1 X198.008 Y170.956 E.1876
G1 X197.377 Y170.956 E.02712
G1 X200.465 Y174.044 E.1876
G1 X199.834 Y174.044 E.02712
G1 X196.746 Y170.956 E.1876
G1 X196.115 Y170.956 E.02712
G1 X199.202 Y174.044 E.1876
G1 X198.571 Y174.044 E.02712
G1 X195.483 Y170.956 E.1876
G1 X194.852 Y170.956 E.02712
G1 X197.94 Y174.044 E.1876
G1 X197.309 Y174.044 E.02712
G1 X194.02 Y170.755 E.1998
G1 E-.40236 F2100
;WIPE_START
G1 F21507.641
G1 X194.727 Y171.462 E-.09764
;WIPE_END
G1 X193.745 Y132.606 F72000
G1 E.5 F2100
G1 F21507.641
G1 X192.821 Y131.682 E.05609
G1 X192.19 Y131.682 E.02712
G1 X193.544 Y133.036 E.08224
G1 X193.544 Y133.667 E.02712
G1 X191.559 Y131.682 E.12059
G1 X190.928 Y131.682 E.02712
G1 X193.544 Y134.299 E.15894
G1 X193.544 Y134.93 E.02712
G1 X190.679 Y132.065 E.17404
G1 X190.679 Y132.517 E.01941
G1 X190.5 Y132.517 E.0077
G1 X193.544 Y135.561 E.18493
G1 X193.544 Y136.192 E.02712
G1 X190.456 Y133.105 E.1876
G1 X190.456 Y133.736 E.02712
G1 X193.544 Y136.824 E.1876
G1 X193.544 Y137.455 E.02712
G1 X190.456 Y134.367 E.1876
G1 X190.456 Y134.998 E.02712
G1 X193.544 Y138.086 E.1876
G1 X193.544 Y138.717 E.02712
G1 X190.456 Y135.629 E.1876
G1 X190.456 Y136.261 E.02712
G1 X193.544 Y139.348 E.1876
G1 X193.544 Y139.98 E.02712
G1 X190.456 Y136.892 E.1876
G1 X190.456 Y137.523 E.02712
G1 X193.544 Y140.611 E.1876
G1 X193.544 Y141.242 E.02712
G1 X190.456 Y138.154 E.1876
G1 X190.456 Y138.786 E.02712
G1 X193.544 Y141.873 E.1876
G1 X193.544 Y142.505 E.02712
G1 X190.456 Y139.417 E.1876
G1 X190.456 Y140.048 E.02712
G1 X193.544 Y143.136 E.1876
G1 X193.544 Y143.767 E.02712
M73 P10 R8
G1 X190.456 Y140.679 E.1876
M73 P10 R8
G1 X190.456 Y141.311 E.02712
G1 X193.544 Y144.398 E.1876
G1 X193.544 Y145.03 E.02712
G1 X190.456 Y141.942 E.1876
G1 X190.456 Y142.573 E.02712
G1 X193.544 Y145.661 E.1876
G1 X193.544 Y146.292 E.02712
G1 X190.456 Y143.204 E.1876
G1 X190.456 Y143.836 E.02712
G1 X193.544 Y146.923 E.1876
G1 X193.544 Y147.555 E.02712
G1 X190.456 Y144.467 E.1876
G1 X190.456 Y145.098 E.02712
G1 X193.544 Y148.186 E.1876
