; HEADER_BLOCK_START
; generated by OrcaSlicer 2.2.0 on 2025-10-14 at 13:00:33
; total layer number: 102
; filament_density: 1.04
; filament_diameter: 1.75
; max_z_height: 25.75
; HEADER_BLOCK_END

; THUMBNAIL_BLOCK_START

;
; THUMBNAIL_BLOCK_END

; THUMBNAIL_BLOCK_START

;
; THUMBNAIL_BLOCK_END

; external perimeters extrusion width = 0.50mm
; perimeters extrusion width = 0.50mm
; infill extrusion width = 0.50mm
; solid infill extrusion width = 0.50mm
; top infill extrusion width = 0.50mm
; first layer extrusion width = 0.50mm

; EXECUTABLE_BLOCK_START
EXCLUDE_OBJECT_DEFINE NAME=box-2-1-3.stl_id_0_copy_0 CENTER=150,172.5 POLYGON=[[108.31,155.56],[108.353,155.117],[108.404,154.726],[108.416,154.675],[108.493,154.46],[108.681,153.933],[108.727,153.841],[109.128,153.222],[109.227,153.103],[109.722,152.628],[109.886,152.504],[110.433,152.181],[110.668,152.078],[111.226,151.904],[111.351,151.878],[112.06,151.81],[187.94,151.81],[188.383,151.853],[188.774,151.904],[188.825,151.916],[189.04,151.993],[189.567,152.181],[189.659,152.227],[190.278,152.628],[190.397,152.727],[190.872,153.222],[190.996,153.386],[191.319,153.933],[191.422,154.168],[191.596,154.726],[191.622,154.851],[191.69,155.56],[191.69,189.44],[191.647,189.883],[191.596,190.274],[191.584,190.325],[191.507,190.54],[191.319,191.067],[191.273,191.159],[190.872,191.778],[190.773,191.897],[190.278,192.372],[190.114,192.496],[189.567,192.819],[189.332,192.922],[188.774,193.096],[188.649,193.122],[187.94,193.19],[112.06,193.19],[111.617,193.147],[111.226,193.096],[111.175,193.084],[110.96,193.007],[110.433,192.819],[110.341,192.773],[109.722,192.372],[109.603,192.273],[109.128,191.778],[109.004,191.614],[108.681,191.067],[108.578,190.832],[108.404,190.274],[108.378,190.149],[108.31,189.44],[108.31,155.56]]
M73 P0 R12
;TYPE:Custom
PRINT_START EXTRUDER_TEMP=245 BED_TEMP=70
G90
G21
M83 ; use relative distances for extrusion
; Filament gcode
SET_PRESSURE_ADVANCE ADVANCE=0.014; Override pressure advance value
M106 S0
;LAYER_CHANGE
;Z:0.25
;HEIGHT:0.25
;BEFORE_LAYER_CHANGE
;0.25
G92 E0

G1 E-.5 F2100
;AFTER_LAYER_CHANGE
;0.25
;_SET_FAN_SPEED_CHANGING_LAYER
SET_VELOCITY_LIMIT ACCEL=5000 ACCEL_TO_DECEL=2500
SET_VELOCITY_LIMIT SQUARE_CORNER_VELOCITY=5
; printing object box-2-1-3.stl id:0 copy 0
EXCLUDE_OBJECT_START NAME=box-2-1-3.stl_id_0_copy_0
G1 X187.99 Y189.49 F72000
G1 Z.25
G1 E.5 F2100
;TYPE:Inner wall
;WIDTH:0.5
G1 F21507.808
G1 X187.854 Y189.519 E.00599
G1 X154.146 Y189.519 E1.44805
G1 X154.01 Y189.49 E.00599
G1 X153.981 Y189.354 E.00599
G1 X153.981 Y155.646 E1.44805
G1 X154.01 Y155.51 E.00599
G1 X154.146 Y155.481 E.00599
G1 X187.857 Y155.481 E1.44818
G1 X187.99 Y155.508 E.00584
G1 X188.019 Y155.646 E.00608
G1 X188.019 Y189.354 E1.44805
G1 X188 Y189.441 E.00385
G1 X188.323 Y189.795 F72000
;TYPE:Outer wall
G1 F21507.808
G1 X188.159 Y189.911 E.00863
G1 X187.9 Y189.965 E.01137
G1 X154.1 Y189.965 E1.45199
G1 X153.841 Y189.911 E.01137
G1 X153.705 Y189.823 E.00698
G1 X153.589 Y189.659 E.00863
G1 X153.535 Y189.4 E.01137
G1 X153.535 Y155.6 E1.45199
G1 X153.589 Y155.341 E.01137
G1 X153.677 Y155.205 E.00698
G1 X153.841 Y155.089 E.00863
G1 X154.1 Y155.035 E.01137
G1 X187.901 Y155.035 E1.45204
G1 X188.01 Y155.057 E.00479
G1 X188.158 Y155.088 E.00651
G1 X188.323 Y155.205 E.00866
G1 X188.411 Y155.341 E.00698
G1 X188.465 Y155.6 E.01137
G1 X188.465 Y189.4 E1.45199
G1 X188.411 Y189.659 E.01137
G1 X188.35 Y189.753 E.00483
G1 E-.40236 F2100
;WIPE_START
G1 F21507.808
G1 X188.159 Y189.911 E-.02422
G1 X187.9 Y189.965 E-.02585
G1 X187.412 Y189.965 E-.04757
;WIPE_END
G1 X187.885 Y156.519 F72000
G1 E.5 F2100
;TYPE:Bottom surface
;WIDTH:0.500569
G1 F21480.403
G1 X187.182 Y155.816 E.04274
G1 X186.55 Y155.816 E.02719
G1 X187.684 Y156.95 E.06897
G1 X187.684 Y157.582 E.02719
G1 X185.918 Y155.816 E.10742
G1 X185.286 Y155.816 E.02719
G1 X187.684 Y158.214 E.14587
G1 X187.684 Y158.846 E.02719
G1 X184.654 Y155.816 E.18432
G1 X184.022 Y155.816 E.02719
G1 X187.684 Y159.478 E.22276
G1 X187.684 Y160.11 E.02719
G1 X183.39 Y155.816 E.26121
G1 X182.758 Y155.816 E.02719
G1 X187.684 Y160.742 E.29966
G1 X187.684 Y161.374 E.02719
G1 X182.126 Y155.816 E.33811
G1 X181.494 Y155.816 E.02719
G1 X187.684 Y162.006 E.37656
G1 X187.684 Y162.638 E.02719
G1 X180.862 Y155.816 E.415
G1 X180.23 Y155.816 E.02719
G1 X187.684 Y163.27 E.45345
G1 X187.684 Y163.902 E.02719
G1 X179.598 Y155.816 E.4919
G1 X178.966 Y155.816 E.02719
G1 X187.684 Y164.534 E.53035
G1 X187.684 Y165.166 E.02719
G1 X178.334 Y155.816 E.56879
G1 X177.702 Y155.816 E.02719
G1 X187.684 Y165.798 E.60724
G1 X187.684 Y166.431 E.02719
G1 X177.069 Y155.816 E.64569
G1 X176.437 Y155.816 E.02719
G1 X187.684 Y167.063 E.68414
G1 X187.684 Y167.695 E.02719
G1 X175.805 Y155.816 E.72259
G1 X175.173 Y155.816 E.02719
G1 X187.684 Y168.327 E.76103
G1 X187.684 Y168.959 E.02719
G1 X174.541 Y155.816 E.79948
G1 X173.909 Y155.816 E.02719
G1 X187.684 Y169.591 E.83793
G1 X187.684 Y170.223 E.02719
G1 X173.277 Y155.816 E.87638
G1 X172.645 Y155.816 E.02719
G1 X187.684 Y170.855 E.91483
G1 X187.684 Y171.487 E.02719
G1 X172.013 Y155.816 E.95327
G1 X171.381 Y155.816 E.02719
G1 X187.684 Y172.119 E.99172
G1 X187.684 Y172.751 E.02719
G1 X170.749 Y155.816 E1.03017
G1 X170.117 Y155.816 E.02719
G1 X187.684 Y173.383 E1.06862
G1 X187.684 Y174.015 E.02719
G1 X169.485 Y155.816 E1.10707
G1 X168.853 Y155.816 E.02719
G1 X187.684 Y174.647 E1.14551
G1 X187.684 Y175.279 E.02719
G1 X168.221 Y155.816 E1.18396
G1 X167.589 Y155.816 E.02719
G1 X187.684 Y175.911 E1.22241
G1 X187.684 Y176.543 E.02719
G1 X166.957 Y155.816 E1.26086
G1 X166.325 Y155.816 E.02719
G1 X187.684 Y177.175 E1.2993
G1 X187.684 Y177.807 E.02719
G1 X165.693 Y155.816 E1.33775
G1 X165.061 Y155.816 E.02719
G1 X187.684 Y178.439 E1.3762
G1 X187.684 Y179.071 E.02719
G1 X164.429 Y155.816 E1.41465
G1 X163.797 Y155.816 E.02719
G1 X187.684 Y179.703 E1.4531
G1 X187.684 Y180.335 E.02719
G1 X163.165 Y155.816 E1.49154
G1 X162.533 Y155.816 E.02719
G1 X187.684 Y180.967 E1.52999
G1 X187.684 Y181.599 E.02719
G1 X161.901 Y155.816 E1.56844
M73 P1 R12
G1 X161.269 Y155.816 E.02719
M73 P1 R12
G1 X187.684 Y182.231 E1.60689
G1 X187.684 Y182.864 E.02719
G1 X160.636 Y155.816 E1.64534
G1 X160.004 Y155.816 E.02719
G1 X187.684 Y183.496 E1.68378
G1 X187.684 Y184.128 E.02719
G1 X159.372 Y155.816 E1.72223
G1 X158.74 Y155.816 E.02719
G1 X187.684 Y184.76 E1.76068
G1 X187.684 Y185.392 E.02719
G1 X158.108 Y155.816 E1.79913
G1 X157.476 Y155.816 E.02719
G1 X187.684 Y186.024 E1.83758
G1 X187.684 Y186.656 E.02719
G1 X156.844 Y155.816 E1.87602
G1 X156.212 Y155.816 E.02719
G1 X187.684 Y187.288 E1.91447
G1 X187.684 Y187.92 E.02719
G1 X155.58 Y155.816 E1.95292
G1 X154.948 Y155.816 E.02719
G1 X187.684 Y188.552 E1.99137
G1 X187.684 Y189.184 E.02719
G1 X154.316 Y155.816 E2.02981
G1 X154.316 Y156.448 E.02719
G1 X187.052 Y189.184 E1.99137
G1 X186.42 Y189.184 E.02719
G1 X154.316 Y157.08 E1.95292
G1 X154.316 Y157.712 E.02719
G1 X185.788 Y189.184 E1.91447
G1 X185.156 Y189.184 E.02719
G1 X154.316 Y158.344 E1.87602
G1 X154.316 Y158.976 E.02719
G1 X184.524 Y189.184 E1.83758
G1 X183.892 Y189.184 E.02719
G1 X154.316 Y159.608 E1.79913
G1 X154.316 Y160.24 E.02719
G1 X183.26 Y189.184 E1.76068
G1 X182.628 Y189.184 E.02719
G1 X154.316 Y160.872 E1.72223
G1 X154.316 Y161.504 E.02719
G1 X181.996 Y189.184 E1.68378
G1 X181.364 Y189.184 E.02719
G1 X154.316 Y162.136 E1.64534
G1 X154.316 Y162.769 E.02719
G1 X180.731 Y189.184 E1.60689
G1 X180.099 Y189.184 E.02719
G1 X154.316 Y163.401 E1.56844
G1 X154.316 Y164.033 E.02719
G1 X179.467 Y189.184 E1.52999
G1 X178.835 Y189.184 E.02719
G1 X154.316 Y164.665 E1.49154
G1 X154.316 Y165.297 E.02719
G1 X178.203 Y189.184 E1.4531
G1 X177.571 Y189.184 E.02719
G1 X154.316 Y165.929 E1.41465
G1 X154.316 Y166.561 E.02719
G1 X176.939 Y189.184 E1.3762
G1 X176.307 Y189.184 E.02719
G1 X154.316 Y167.193 E1.33775
G1 X154.316 Y167.825 E.02719
G1 X175.675 Y189.184 E1.2993
G1 X175.043 Y189.184 E.02719
G1 X154.316 Y168.457 E1.26086
G1 X154.316 Y169.089 E.02719
G1 X174.411 Y189.184 E1.22241
G1 X173.779 Y189.184 E.02719
G1 X154.316 Y169.721 E1.18396
G1 X154.316 Y170.353 E.02719
G1 X173.147 Y189.184 E1.14551
G1 X172.515 Y189.184 E.02719
G1 X154.316 Y170.985 E1.10707
G1 X154.316 Y171.617 E.02719
G1 X171.883 Y189.184 E1.06862
G1 X171.251 Y189.184 E.02719
G1 X154.316 Y172.249 E1.03017
G1 X154.316 Y172.881 E.02719
G1 X170.619 Y189.184 E.99172
M73 P2 R12
G1 X169.987 Y189.184 E.02719
M73 P2 R12
G1 X154.316 Y173.513 E.95327
G1 X154.316 Y174.145 E.02719
G1 X169.355 Y189.184 E.91483
G1 X168.723 Y189.184 E.02719
G1 X154.316 Y174.777 E.87638
G1 X154.316 Y175.409 E.02719
G1 X168.091 Y189.184 E.83793
G1 X167.459 Y189.184 E.02719
G1 X154.316 Y176.041 E.79948
G1 X154.316 Y176.673 E.02719
G1 X166.827 Y189.184 E.76103
G1 X166.195 Y189.184 E.02719
G1 X154.316 Y177.305 E.72259
G1 X154.316 Y177.937 E.02719
G1 X165.563 Y189.184 E.68414
G1 X164.931 Y189.184 E.02719
G1 X154.316 Y178.57 E.64569
G1 X154.316 Y179.202 E.02719
G1 X164.298 Y189.184 E.60724
G1 X163.666 Y189.184 E.02719
G1 X154.316 Y179.834 E.56879
G1 X154.316 Y180.466 E.02719
G1 X163.034 Y189.184 E.53035
G1 X162.402 Y189.184 E.02719
G1 X154.316 Y181.098 E.4919
G1 X154.316 Y181.73 E.02719
G1 X161.77 Y189.184 E.45345
G1 X161.138 Y189.184 E.02719
G1 X154.316 Y182.362 E.415
G1 X154.316 Y182.994 E.02719
G1 X160.506 Y189.184 E.37656
G1 X159.874 Y189.184 E.02719
G1 X154.316 Y183.626 E.33811
G1 X154.316 Y184.258 E.02719
G1 X159.242 Y189.184 E.29966
G1 X158.61 Y189.184 E.02719
G1 X154.316 Y184.89 E.26121
G1 X154.316 Y185.522 E.02719
G1 X157.978 Y189.184 E.22276
G1 X157.346 Y189.184 E.02719
G1 X154.316 Y186.154 E.18432
G1 X154.316 Y186.786 E.02719
G1 X156.714 Y189.184 E.14587
G1 X156.082 Y189.184 E.02719
G1 X154.316 Y187.418 E.10742
G1 X154.316 Y188.05 E.02719
G1 X155.45 Y189.184 E.06897
G1 X154.818 Y189.184 E.02719
G1 X154.115 Y188.481 E.04274
G1 E-.40224 F2100
;WIPE_START
G1 F21480.403
G1 X154.818 Y189.184 E-.09715
G1 X154.824 Y189.184 E-.00062
;WIPE_END
G1 X145.99 Y189.49 F72000
G1 E.5 F2100
;TYPE:Inner wall
;WIDTH:0.5
G1 F21507.808
G1 X145.854 Y189.519 E.00599
G1 X112.146 Y189.519 E1.44805
G1 X112.01 Y189.49 E.00599
G1 X111.981 Y189.354 E.00599
G1 X111.981 Y155.646 E1.44805
G1 X112.01 Y155.51 E.00599
G1 X112.146 Y155.481 E.00599
G1 X145.857 Y155.481 E1.44818
G1 X145.99 Y155.508 E.00584
G1 X146.019 Y155.646 E.00608
G1 X146.019 Y189.354 E1.44805
G1 X146 Y189.441 E.00385
G1 X146.323 Y189.795 F72000
;TYPE:Outer wall
G1 F21507.808
G1 X146.159 Y189.911 E.00863
G1 X145.9 Y189.965 E.01137
G1 X112.1 Y189.965 E1.45199
G1 X111.841 Y189.911 E.01137
G1 X111.705 Y189.823 E.00698
G1 X111.589 Y189.659 E.00863
G1 X111.535 Y189.4 E.01137
G1 X111.535 Y155.6 E1.45199
G1 X111.589 Y155.341 E.01137
G1 X111.677 Y155.205 E.00698
G1 X111.841 Y155.089 E.00863
G1 X112.1 Y155.035 E.01137
G1 X145.901 Y155.035 E1.45204
G1 X146.01 Y155.057 E.00479
G1 X146.158 Y155.088 E.00651
G1 X146.323 Y155.205 E.00866
G1 X146.411 Y155.341 E.00698
G1 X146.465 Y155.6 E.01137
G1 X146.465 Y189.4 E1.45199
G1 X146.411 Y189.659 E.01137
G1 X146.35 Y189.753 E.00483
G1 E-.40236 F2100
;WIPE_START
G1 F21507.808
G1 X146.159 Y189.911 E-.02422
G1 X145.9 Y189.965 E-.02585
G1 X145.412 Y189.965 E-.04757
;WIPE_END
G1 X145.885 Y156.519 F72000
G1 E.5 F2100
;TYPE:Bottom surface
;WIDTH:0.500569
G1 F21480.403
G1 X145.182 Y155.816 E.04274
G1 X144.55 Y155.816 E.02719
G1 X145.684 Y156.95 E.06897
G1 X145.684 Y157.582 E.02719
G1 X143.918 Y155.816 E.10742
G1 X143.286 Y155.816 E.02719
G1 X145.684 Y158.214 E.14587
G1 X145.684 Y158.846 E.02719
G1 X142.654 Y155.816 E.18432
G1 X142.022 Y155.816 E.02719
G1 X145.684 Y159.478 E.22276
G1 X145.684 Y160.11 E.02719
G1 X141.39 Y155.816 E.26121
G1 X140.758 Y155.816 E.02719
G1 X145.684 Y160.742 E.29966
G1 X145.684 Y161.374 E.02719
G1 X140.126 Y155.816 E.33811
G1 X139.494 Y155.816 E.02719
G1 X145.684 Y162.006 E.37656
G1 X145.684 Y162.638 E.02719
G1 X138.862 Y155.816 E.415
G1 X138.23 Y155.816 E.02719
G1 X145.684 Y163.27 E.45345
G1 X145.684 Y163.902 E.02719
G1 X137.598 Y155.816 E.4919
G1 X136.966 Y155.816 E.02719
G1 X145.684 Y164.534 E.53035
G1 X145.684 Y165.166 E.02719
G1 X136.334 Y155.816 E.56879
G1 X135.702 Y155.816 E.02719
G1 X145.684 Y165.798 E.60724
G1 X145.684 Y166.431 E.02719
G1 X135.069 Y155.816 E.64569
G1 X134.437 Y155.816 E.02719
G1 X145.684 Y167.063 E.68414
G1 X145.684 Y167.695 E.02719
G1 X133.805 Y155.816 E.72259
G1 X133.173 Y155.816 E.02719
G1 X145.684 Y168.327 E.76103
G1 X145.684 Y168.959 E.02719
G1 X132.541 Y155.816 E.79948
G1 X131.909 Y155.816 E.02719
G1 X145.684 Y169.591 E.83793
G1 X145.684 Y170.223 E.02719
G1 X131.277 Y155.816 E.87638
G1 X130.645 Y155.816 E.02719
G1 X145.684 Y170.855 E.91483
G1 X145.684 Y171.487 E.02719
G1 X130.013 Y155.816 E.95327
G1 X129.381 Y155.816 E.02719
G1 X145.684 Y172.119 E.99172
G1 X145.684 Y172.751 E.02719
G1 X128.749 Y155.816 E1.03017
M73 P3 R12
G1 X128.117 Y155.816 E.02719
M73 P3 R12
G1 X145.684 Y173.383 E1.06862
G1 X145.684 Y174.015 E.02719
G1 X127.485 Y155.816 E1.10707
G1 X126.853 Y155.816 E.02719
G1 X145.684 Y174.647 E1.14551
G1 X145.684 Y175.279 E.02719
G1 X126.221 Y155.816 E1.18396
G1 X125.589 Y155.816 E.02719
G1 X145.684 Y175.911 E1.22241
G1 X145.684 Y176.543 E.02719
G1 X124.957 Y155.816 E1.26086
G1 X124.325 Y155.816 E.02719
G1 X145.684 Y177.175 E1.2993
G1 X145.684 Y177.807 E.02719
G1 X123.693 Y155.816 E1.33775
G1 X123.061 Y155.816 E.02719
G1 X145.684 Y178.439 E1.3762
G1 X145.684 Y179.071 E.02719
G1 X122.429 Y155.816 E1.41465
G1 X121.797 Y155.816 E.02719
G1 X145.684 Y179.703 E1.4531
G1 X145.684 Y180.335 E.02719
G1 X121.165 Y155.816 E1.49154
G1 X120.533 Y155.816 E.02719
G1 X145.684 Y180.967 E1.52999
G1 X145.684 Y181.599 E.02719
G1 X119.901 Y155.816 E1.56844
G1 X119.269 Y155.816 E.02719
G1 X145.684 Y182.231 E1.60689
G1 X145.684 Y182.864 E.02719
G1 X118.636 Y155.816 E1.64534
G1 X118.004 Y155.816 E.02719
G1 X145.684 Y183.496 E1.68378
G1 X145.684 Y184.128 E.02719
G1 X117.372 Y155.816 E1.72223
G1 X116.74 Y155.816 E.02719
G1 X145.684 Y184.76 E1.76068
G1 X145.684 Y185.392 E.02719
G1 X116.108 Y155.816 E1.79913
G1 X115.476 Y155.816 E.02719
G1 X145.684 Y186.024 E1.83758
G1 X145.684 Y186.656 E.02719
G1 X114.844 Y155.816 E1.87602
G1 X114.212 Y155.816 E.02719
G1 X145.684 Y187.288 E1.91447
G1 X145.684 Y187.92 E.02719
G1 X113.58 Y155.816 E1.95292
G1 X112.948 Y155.816 E.02719
G1 X145.684 Y188.552 E1.99137
G1 X145.684 Y189.184 E.02719
G1 X112.316 Y155.816 E2.02981
G1 X112.316 Y156.448 E.02719
G1 X145.052 Y189.184 E1.99137
G1 X144.42 Y189.184 E.02719
G1 X112.316 Y157.08 E1.95292
G1 X112.316 Y157.712 E.02719
G1 X143.788 Y189.184 E1.91447
G1 X143.156 Y189.184 E.02719
G1 X112.316 Y158.344 E1.87602
G1 X112.316 Y158.976 E.02719
G1 X142.524 Y189.184 E1.83758
G1 X141.892 Y189.184 E.02719
G1 X112.316 Y159.608 E1.79913
G1 X112.316 Y160.24 E.02719
G1 X141.26 Y189.184 E1.76068
G1 X140.628 Y189.184 E.02719
G1 X112.316 Y160.872 E1.72223
G1 X112.316 Y161.504 E.02719
G1 X139.996 Y189.184 E1.68378
G1 X139.364 Y189.184 E.02719
G1 X112.316 Y162.136 E1.64534
G1 X112.316 Y162.769 E.02719
G1 X138.731 Y189.184 E1.60689
G1 X138.099 Y189.184 E.02719
G1 X112.316 Y163.401 E1.56844
G1 X112.316 Y164.033 E.02719
G1 X137.467 Y189.184 E1.52999
M73 P4 R12
G1 X136.835 Y189.184 E.02719
M73 P4 R12
G1 X112.316 Y164.665 E1.49154
G1 X112.316 Y165.297 E.02719
G1 X136.203 Y189.184 E1.4531
G1 X135.571 Y189.184 E.02719
G1 X112.316 Y165.929 E1.41465
G1 X112.316 Y166.561 E.02719
G1 X134.939 Y189.184 E1.3762
G1 X134.307 Y189.184 E.02719
G1 X112.316 Y167.193 E1.33775
G1 X112.316 Y167.825 E.02719
G1 X133.675 Y189.184 E1.2993
G1 X133.043 Y189.184 E.02719
G1 X112.316 Y168.457 E1.26086
G1 X112.316 Y169.089 E.02719
G1 X132.411 Y189.184 E1.22241
G1 X131.779 Y189.184 E.02719
G1 X112.316 Y169.721 E1.18396
G1 X112.316 Y170.353 E.02719
G1 X131.147 Y189.184 E1.14551
G1 X130.515 Y189.184 E.02719
G1 X112.316 Y170.985 E1.10707
G1 X112.316 Y171.617 E.02719
G1 X129.883 Y189.184 E1.06862
G1 X129.251 Y189.184 E.02719
G1 X112.316 Y172.249 E1.03017
G1 X112.316 Y172.881 E.02719
G1 X128.619 Y189.184 E.99172
G1 X127.987 Y189.184 E.02719
G1 X112.316 Y173.513 E.95327
G1 X112.316 Y174.145 E.02719
