; HEADER_BLOCK_START
; generated by OrcaSlicer 2.2.0 on 2025-10-14 at 13:27:07
; total layer number: 78
; filament_density: 1.04
; filament_diameter: 1.75
; max_z_height: 19.50
; HEADER_BLOCK_END

; THUMBNAIL_BLOCK_START

;
; THUMBNAIL_BLOCK_END

; THUMBNAIL_BLOCK_START

;
; THUMBNAIL_BLOCK_END

; external perimeters extrusion width = 0.50mm
; perimeters extrusion width = 0.50mm
; infill extrusion width = 0.50mm
; solid infill extrusion width = 0.50mm
; top infill extrusion width = 0.50mm
; first layer extrusion width = 0.50mm

; external perimeters extrusion width = 0.50mm
; perimeters extrusion width = 0.50mm
; infill extrusion width = 0.50mm
; solid infill extrusion width = 0.50mm
; top infill extrusion width = 0.50mm
; first layer extrusion width = 0.50mm

; external perimeters extrusion width = 0.50mm
; perimeters extrusion width = 0.50mm
; infill extrusion width = 0.50mm
; solid infill extrusion width = 0.50mm
; top infill extrusion width = 0.50mm
; first layer extrusion width = 0.50mm

; external perimeters extrusion width = 0.50mm
; perimeters extrusion width = 0.50mm
; infill extrusion width = 0.50mm
; solid infill extrusion width = 0.50mm
; top infill extrusion width = 0.50mm
; first layer extrusion width = 0.50mm

; external perimeters extrusion width = 0.50mm
; perimeters extrusion width = 0.50mm
; infill extrusion width = 0.50mm
; solid infill extrusion width = 0.50mm
; top infill extrusion width = 0.50mm
; first layer extrusion width = 0.50mm

; external perimeters extrusion width = 0.50mm
; perimeters extrusion width = 0.50mm
; infill extrusion width = 0.50mm
; solid infill extrusion width = 0.50mm
; top infill extrusion width = 0.50mm
; first layer extrusion width = 0.50mm

; external perimeters extrusion width = 0.50mm
; perimeters extrusion width = 0.50mm
; infill extrusion width = 0.50mm
; solid infill extrusion width = 0.50mm
; top infill extrusion width = 0.50mm
; first layer extrusion width = 0.50mm

; external perimeters extrusion width = 0.50mm
; perimeters extrusion width = 0.50mm
; infill extrusion width = 0.50mm
; solid infill extrusion width = 0.50mm
; top infill extrusion width = 0.50mm
; first layer extrusion width = 0.50mm

; external perimeters extrusion width = 0.50mm
; perimeters extrusion width = 0.50mm
; infill extrusion width = 0.50mm
; solid infill extrusion width = 0.50mm
; top infill extrusion width = 0.50mm
; first layer extrusion width = 0.50mm

; external perimeters extrusion width = 0.50mm
; perimeters extrusion width = 0.50mm
; infill extrusion width = 0.50mm
; solid infill extrusion width = 0.50mm
; top infill extrusion width = 0.50mm
; first layer extrusion width = 0.50mm

; external perimeters extrusion width = 0.50mm
; perimeters extrusion width = 0.50mm
; infill extrusion width = 0.50mm
; solid infill extrusion width = 0.50mm
; top infill extrusion width = 0.50mm
; first layer extrusion width = 0.50mm

; external perimeters extrusion width = 0.50mm
; perimeters extrusion width = 0.50mm
; infill extrusion width = 0.50mm
; solid infill extrusion width = 0.50mm
; top infill extrusion width = 0.50mm
; first layer extrusion width = 0.50mm

; external perimeters extrusion width = 0.50mm
; perimeters extrusion width = 0.50mm
; infill extrusion width = 0.50mm
; solid infill extrusion width = 0.50mm
; top infill extrusion width = 0.50mm
; first layer extrusion width = 0.50mm

; external perimeters extrusion width = 0.50mm
; perimeters extrusion width = 0.50mm
; infill extrusion width = 0.50mm
; solid infill extrusion width = 0.50mm
; top infill extrusion width = 0.50mm
; first layer extrusion width = 0.50mm

; external perimeters extrusion width = 0.50mm
; perimeters extrusion width = 0.50mm
; infill extrusion width = 0.50mm
; solid infill extrusion width = 0.50mm
; top infill extrusion width = 0.50mm
; first layer extrusion width = 0.50mm

; external perimeters extrusion width = 0.50mm
; perimeters extrusion width = 0.50mm
; infill extrusion width = 0.50mm
; solid infill extrusion width = 0.50mm
; top infill extrusion width = 0.50mm
; first layer extrusion width = 0.50mm

; external perimeters extrusion width = 0.50mm
; perimeters extrusion width = 0.50mm
; infill extrusion width = 0.50mm
; solid infill extrusion width = 0.50mm
; top infill extrusion width = 0.50mm
; first layer extrusion width = 0.50mm

; external perimeters extrusion width = 0.50mm
; perimeters extrusion width = 0.50mm
; infill extrusion width = 0.50mm
; solid infill extrusion width = 0.50mm
; top infill extrusion width = 0.50mm
; first layer extrusion width = 0.50mm

; external perimeters extrusion width = 0.50mm
; perimeters extrusion width = 0.50mm
; infill extrusion width = 0.50mm
; solid infill extrusion width = 0.50mm
; top infill extrusion width = 0.50mm
; first layer extrusion width = 0.50mm

; external perimeters extrusion width = 0.50mm
; perimeters extrusion width = 0.50mm
; infill extrusion width = 0.50mm
; solid infill extrusion width = 0.50mm
; top infill extrusion width = 0.50mm
; first layer extrusion width = 0.50mm

; EXECUTABLE_BLOCK_START
EXCLUDE_OBJECT_DEFINE NAME=model.stl_id_0_copy_0 CENTER=172.05,181.011 POLYGON=[[169.9,179.174],[174.2,179.174],[174.2,180.824],[172.262,182.762],[172.21,182.804],[172.149,182.833],[172.084,182.848],[172.016,182.848],[171.951,182.833],[171.89,182.804],[171.838,182.762],[169.9,180.824],[169.9,179.174]]
EXCLUDE_OBJECT_DEFINE NAME=model.stl_id_1_copy_0 CENTER=165.75,181.011 POLYGON=[[163.6,179.174],[167.9,179.174],[167.9,180.824],[165.962,182.762],[165.91,182.804],[165.849,182.833],[165.784,182.848],[165.716,182.848],[165.651,182.833],[165.59,182.804],[165.538,182.762],[163.6,180.824],[163.6,179.174]]
EXCLUDE_OBJECT_DEFINE NAME=model.stl_id_2_copy_0 CENTER=159.45,181.011 POLYGON=[[157.3,179.174],[161.6,179.174],[161.6,180.824],[159.662,182.762],[159.61,182.804],[159.549,182.833],[159.484,182.848],[159.416,182.848],[159.351,182.833],[159.29,182.804],[159.238,182.762],[157.3,180.824],[157.3,179.174]]
EXCLUDE_OBJECT_DEFINE NAME=model.stl_id_3_copy_0 CENTER=153.15,181.011 POLYGON=[[151,179.174],[155.3,179.174],[155.3,180.824],[153.362,182.762],[153.31,182.804],[153.249,182.833],[153.184,182.848],[153.116,182.848],[153.051,182.833],[152.99,182.804],[152.938,182.762],[151,180.824],[151,179.174]]
EXCLUDE_OBJECT_DEFINE NAME=model.stl_id_4_copy_0 CENTER=146.85,181.011 POLYGON=[[144.7,179.174],[149,179.174],[149,180.824],[147.062,182.762],[147.01,182.804],[146.949,182.833],[146.884,182.848],[146.816,182.848],[146.751,182.833],[146.69,182.804],[146.638,182.762],[144.7,180.824],[144.7,179.174]]
EXCLUDE_OBJECT_DEFINE NAME=model.stl_id_5_copy_0 CENTER=140.55,181.011 POLYGON=[[138.4,179.174],[142.7,179.174],[142.7,180.824],[140.762,182.762],[140.71,182.804],[140.649,182.833],[140.584,182.848],[140.516,182.848],[140.451,182.833],[140.39,182.804],[140.338,182.762],[138.4,180.824],[138.4,179.174]]
EXCLUDE_OBJECT_DEFINE NAME=model.stl_id_6_copy_0 CENTER=134.25,181.011 POLYGON=[[132.1,179.174],[136.4,179.174],[136.4,180.824],[134.462,182.762],[134.41,182.804],[134.349,182.833],[134.284,182.848],[134.216,182.848],[134.151,182.833],[134.09,182.804],[134.038,182.762],[132.1,180.824],[132.1,179.174]]
EXCLUDE_OBJECT_DEFINE NAME=model.stl_id_7_copy_0 CENTER=127.95,181.011 POLYGON=[[125.8,179.174],[130.1,179.174],[130.1,180.824],[128.162,182.762],[128.11,182.804],[128.049,182.833],[127.984,182.848],[127.916,182.848],[127.851,182.833],[127.79,182.804],[127.738,182.762],[125.8,180.824],[125.8,179.174]]
EXCLUDE_OBJECT_DEFINE NAME=model.stl_id_8_copy_0 CENTER=146.85,175.337 POLYGON=[[144.7,173.5],[149,173.5],[149,175.15],[147.062,177.088],[147.01,177.13],[146.949,177.159],[146.884,177.174],[146.816,177.174],[146.751,177.159],[146.69,177.13],[146.638,177.088],[144.7,175.15],[144.7,173.5]]
EXCLUDE_OBJECT_DEFINE NAME=model.stl_id_9_copy_0 CENTER=153.15,175.337 POLYGON=[[151,173.5],[155.3,173.5],[155.3,175.15],[153.362,177.088],[153.31,177.13],[153.249,177.159],[153.184,177.174],[153.116,177.174],[153.051,177.159],[152.99,177.13],[152.938,177.088],[151,175.15],[151,173.5]]
EXCLUDE_OBJECT_DEFINE NAME=model.stl_id_10_copy_0 CENTER=159.45,175.337 POLYGON=[[157.3,173.5],[161.6,173.5],[161.6,175.15],[159.662,177.088],[159.61,177.13],[159.549,177.159],[159.484,177.174],[159.416,177.174],[159.351,177.159],[159.29,177.13],[159.238,177.088],[157.3,175.15],[157.3,173.5]]
EXCLUDE_OBJECT_DEFINE NAME=model.stl_id_11_copy_0 CENTER=153.15,169.663 POLYGON=[[151,167.826],[155.3,167.826],[155.3,169.476],[153.362,171.414],[153.31,171.456],[153.249,171.485],[153.184,171.5],[153.116,171.5],[153.051,171.485],[152.99,171.456],[152.938,171.414],[151,169.476],[151,167.826]]
EXCLUDE_OBJECT_DEFINE NAME=model.stl_id_12_copy_0 CENTER=146.85,169.663 POLYGON=[[144.7,167.826],[149,167.826],[149,169.476],[147.062,171.414],[147.01,171.456],[146.949,171.485],[146.884,171.5],[146.816,171.5],[146.751,171.485],[146.69,171.456],[146.638,171.414],[144.7,169.476],[144.7,167.826]]
EXCLUDE_OBJECT_DEFINE NAME=model.stl_id_13_copy_0 CENTER=140.55,175.337 POLYGON=[[138.4,173.5],[142.7,173.5],[142.7,175.15],[140.762,177.088],[140.71,177.13],[140.649,177.159],[140.584,177.174],[140.516,177.174],[140.451,177.159],[140.39,177.13],[140.338,177.088],[138.4,175.15],[138.4,173.5]]
EXCLUDE_OBJECT_DEFINE NAME=model.stl_id_14_copy_0 CENTER=159.45,169.663 POLYGON=[[157.3,167.826],[161.6,167.826],[161.6,169.476],[159.662,171.414],[159.61,171.456],[159.549,171.485],[159.484,171.5],[159.416,171.5],[159.351,171.485],[159.29,171.456],[159.238,171.414],[157.3,169.476],[157.3,167.826]]
EXCLUDE_OBJECT_DEFINE NAME=model.stl_id_15_copy_0 CENTER=140.55,169.663 POLYGON=[[138.4,167.826],[142.7,167.826],[142.7,169.476],[140.762,171.414],[140.71,171.456],[140.649,171.485],[140.584,171.5],[140.516,171.5],[140.451,171.485],[140.39,171.456],[140.338,171.414],[138.4,169.476],[138.4,167.826]]
EXCLUDE_OBJECT_DEFINE NAME=model.stl_id_16_copy_0 CENTER=146.85,163.989 POLYGON=[[144.7,162.152],[149,162.152],[149,163.802],[147.062,165.74],[147.01,165.782],[146.949,165.811],[146.884,165.826],[146.816,165.826],[146.751,165.811],[146.69,165.782],[146.638,165.74],[144.7,163.802],[144.7,162.152]]
EXCLUDE_OBJECT_DEFINE NAME=model.stl_id_17_copy_0 CENTER=153.15,163.989 POLYGON=[[151,162.152],[155.3,162.152],[155.3,163.802],[153.362,165.74],[153.31,165.782],[153.249,165.811],[153.184,165.826],[153.116,165.826],[153.051,165.811],[152.99,165.782],[152.938,165.74],[151,163.802],[151,162.152]]
EXCLUDE_OBJECT_DEFINE NAME=model.stl_id_18_copy_0 CENTER=159.45,163.989 POLYGON=[[157.3,162.152],[161.6,162.152],[161.6,163.802],[159.662,165.74],[159.61,165.782],[159.549,165.811],[159.484,165.826],[159.416,165.826],[159.351,165.811],[159.29,165.782],[159.238,165.74],[157.3,163.802],[157.3,162.152]]
EXCLUDE_OBJECT_DEFINE NAME=model.stl_id_19_copy_0 CENTER=140.55,163.989 POLYGON=[[138.4,162.152],[142.7,162.152],[142.7,163.802],[140.762,165.74],[140.71,165.782],[140.649,165.811],[140.584,165.826],[140.516,165.826],[140.451,165.811],[140.39,165.782],[140.338,165.74],[138.4,163.802],[138.4,162.152]]
M73 P0 R11
;TYPE:Custom
PRINT_START EXTRUDER_TEMP=245 BED_TEMP=70
G90
G21
M83 ; use relative distances for extrusion
; Filament gcode
SET_PRESSURE_ADVANCE ADVANCE=0.014; Override pressure advance value
M106 S0
;LAYER_CHANGE
;Z:0.25
;HEIGHT:0.25
;BEFORE_LAYER_CHANGE
;0.25
G92 E0

G1 E-.5 F2100
;AFTER_LAYER_CHANGE
;0.25
;_SET_FAN_SPEED_CHANGING_LAYER
SET_VELOCITY_LIMIT ACCEL=5000
SET_VELOCITY_LIMIT SQUARE_CORNER_VELOCITY=5
; printing object model.stl id:0 copy 0
EXCLUDE_OBJECT_START NAME=model.stl_id_0_copy_0
G1 X166.908 Y176.034 F72000
G1 Z.25
G1 E.5 F2100
;TYPE:Brim
;WIDTH:0.5
G1 F32261.712
G1 X167.396 Y175.629 E.02724
G1 X167.937 Y175.304 E.02713
G1 X168.73 Y174.999 E.03647
G1 X169.35 Y174.87 E.02723
G1 X169.907 Y174.834 E.02398
G1 X170.992 Y174.834 E.04658
G1 X171.632 Y174.882 E.0276
G1 X171.996 Y174.965 E.01601
G1 X172.091 Y174.965 E.00409
G1 X172.55 Y174.87 E.02016
G1 X173.107 Y174.834 E.02398
G1 X174.192 Y174.834 E.04658
G1 X174.832 Y174.882 E.0276
G1 X175.446 Y175.022 E.02706
G1 X176.339 Y175.412 E.04185
G1 X176.868 Y175.759 E.02715
G1 X177.34 Y176.181 E.02724
G1 X177.744 Y176.67 E.02724
G1 X178.07 Y177.211 E.02713
G1 X178.375 Y178.003 E.03647
G1 X178.504 Y178.624 E.02723
G1 X178.54 Y179.181 E.02399
G1 X178.54 Y180.815 E.07021
G1 X178.492 Y181.456 E.0276
G1 X178.351 Y182.077 E.02734
G1 X178.189 Y182.513 E.02
G1 X177.902 Y183.083 E.02741
G1 X177.533 Y183.603 E.02738
G1 X177.265 Y183.897 E.01707
G1 X175.336 Y185.826 E.11722
G1 X174.943 Y186.174 E.02254
G1 X174.527 Y186.472 E.02199
G1 X174.092 Y186.714 E.02139
G1 X173.572 Y186.932 E.02422
G1 X173.05 Y187.079 E.02329
G1 X172.58 Y187.159 E.02047
G1 X172.083 Y187.188 E.0214
G1 X171.519 Y187.158 E.02426
G1 X171.05 Y187.079 E.02044
G1 X170.528 Y186.932 E.02328
G1 X170.008 Y186.714 E.02424
G1 X169.591 Y186.484 E.02046
G1 X169.184 Y186.196 E.02142
G1 X168.773 Y185.834 E.02352
G1 X166.838 Y183.9 E.11755
G1 X166.418 Y183.413 E.0276
G1 X166.166 Y183.011 E.02035
G1 X168.129 Y181.052 E.11912
G1 X168.177 Y180.98 E.00374
G1 X168.223 Y180.824 E.007
G1 X168.223 Y179.174 E.07088
G1 X168.199 Y179.059 E.00504
G1 X168.093 Y178.925 E.00734
G1 X168.008 Y178.879 E.00416
G1 X167.9 Y178.851 E.00479
G1 X166.8 Y178.851 E.04726
G1 X166.685 Y178.875 E.00504
G1 X166.552 Y178.981 E.00734
G1 X166.505 Y179.066 E.00416
G1 X166.477 Y179.174 E.00479
G1 X166.477 Y179.424 E.01074
G1 X166.542 Y179.618 E.00878
G1 X166.877 Y180.065 E.024
G1 X166.877 Y180.201 E.00584
G1 X165.56 Y180.201 E.05658
G1 X165.56 Y179.182 E.04375
G1 X165.608 Y178.541 E.0276
G1 X165.748 Y177.927 E.02706
G1 X166.138 Y177.035 E.04185
G1 X166.485 Y176.506 E.02715
G1 X166.874 Y176.071 E.02509
G1 X167.207 Y176.369 F72000
G1 F32261.712
G1 X167.211 Y176.364 E.00028
G1 X167.664 Y175.99 E.02522
G1 X168.145 Y175.702 E.02408
G1 X168.867 Y175.426 E.0332
G1 X169.42 Y175.313 E.02426
G1 X169.926 Y175.28 E.0218
G1 X170.98 Y175.28 E.04527
G1 X171.556 Y175.323 E.0248
G1 X171.886 Y175.397 E.01455
G1 X172.078 Y175.411 E.00825
G1 X172.604 Y175.315 E.023
G1 X173.117 Y175.28 E.02209
G1 X174.17 Y175.28 E.04521
G1 X174.756 Y175.323 E.02523
G1 X175.318 Y175.453 E.02478
G1 X176.115 Y175.801 E.0374
G1 X176.587 Y176.108 E.02415
G1 X177.01 Y176.485 E.02436
G1 X177.384 Y176.937 E.02522
G1 X177.671 Y177.419 E.02408
G1 X177.941 Y178.12 E.03227
G1 X178.059 Y178.675 E.02438
G1 X178.094 Y179.2 E.0226
G1 X178.094 Y180.794 E.06847
G1 X178.05 Y181.379 E.02523
G1 X177.919 Y181.957 E.02546
G1 X177.776 Y182.342 E.01762
G1 X177.513 Y182.86 E.02498
G1 X177.189 Y183.316 E.02399
G1 X176.94 Y183.591 E.01594
G1 X175.033 Y185.498 E.1159
G1 X174.659 Y185.829 E.02144
G1 X174.294 Y186.09 E.01927
G1 X173.903 Y186.308 E.01924
G1 X173.433 Y186.507 E.02194
G1 X172.959 Y186.641 E.02115
G1 X172.537 Y186.713 E.01839
G1 X172.074 Y186.74 E.01992
G1 X171.576 Y186.714 E.02143
G1 X171.155 Y186.644 E.01834
G1 X170.668 Y186.507 E.02174
G1 X170.209 Y186.315 E.02135
G1 X169.835 Y186.108 E.01836
G1 X169.455 Y185.841 E.01996
G1 X169.076 Y185.505 E.02176
G1 X167.168 Y183.599 E.11584
G1 X166.806 Y183.179 E.02385
G1 X166.775 Y183.07 E.00485
G1 X166.813 Y182.997 E.00354
G1 X168.437 Y181.375 E.0986
G1 X168.544 Y181.233 E.00763
G1 X168.606 Y181.102 E.00623
G1 X168.669 Y180.81 E.01283
G1 X168.657 Y179.07 E.07476
G1 X168.639 Y178.983 E.00379
G1 X168.539 Y178.769 E.01018
G1 X168.45 Y178.658 E.0061
G1 X168.235 Y178.494 E.01162
G1 X168.015 Y178.42 E.00996
G1 X167.892 Y178.404 E.00532
G1 X166.696 Y178.416 E.0514
G1 X166.609 Y178.435 E.0038
G1 X166.395 Y178.535 E.01018
G1 X166.293 Y178.616 E.00558
G1 X166.183 Y178.643 E.00485
G1 X166.092 Y178.576 E.00485
G1 X166.079 Y178.482 E.00409
G1 X166.179 Y178.056 E.01877
G1 X166.538 Y177.239 E.03836
G1 X166.846 Y176.771 E.02404
G1 X167.174 Y176.406 E.02108
G1 X167.507 Y176.704 F72000
G1 F32261.712
G1 X167.529 Y176.68 E.00142
G1 X167.914 Y176.362 E.02144
G1 X168.331 Y176.111 E.02089
G1 X169.003 Y175.854 E.03093
G1 X169.47 Y175.758 E.0205
G1 X169.945 Y175.726 E.02043
G1 X170.968 Y175.727 E.04396
G1 X171.48 Y175.765 E.02206
