; generated by PrusaSlicer 2.9.2 on 2025-10-08 at 16:39:36 UTC


;
;

;
;
; 

; external perimeters extrusion width = 0.55mm
; perimeters extrusion width = 0.55mm
; infill extrusion width = 0.55mm
; solid infill extrusion width = 0.55mm
; top infill extrusion width = 0.55mm
; first layer extrusion width = 0.55mm


EXCLUDE_OBJECT_DEFINE NAME='VoronCube_stl' CENTER=150.000,172.500 POLYGON=[[165.000,187.500],[135.000,187.500],[135.000,157.500],[165.000,157.500]]

;TYPE:Custom
PRINT_START EXTRUDER_TEMP=245 BED_TEMP=70
G21 ; set units to millimeters
G90 ; use absolute coordinates
M83 ; use relative distances for extrusion
; Filament gcode
M107
;LAYER_CHANGE
;Z:0.2
;HEIGHT:0.2
G1 E-.5 F2100
G1 Z.2 F72000
EXCLUDE_OBJECT_START NAME='VoronCube_stl'
G1 X142.375 Y177.335
G1 Z.2
G1 E.5 F2100
SET_VELOCITY_LIMIT ACCEL=1000 MINIMUM_CRUISE_RATIO=0.5
SET_VELOCITY_LIMIT SQUARE_CORNER_VELOCITY=5
;TYPE:Perimeter
;WIDTH:0.55
G1 F24000
G1 X142.141 Y176.97 E.01693
G1 X141.722 Y176.134 E.03651
G1 X141.391 Y175.26 E.03649
G1 X141.152 Y174.357 E.03647
G1 X141.008 Y173.439 E.03628
G1 X140.966 Y172.736 E.0275
G1 X140.972 Y172.027 E.02768
G1 X141.068 Y171.103 E.03627
G1 X141.26 Y170.188 E.0365
G1 X141.545 Y169.298 E.03649
G1 X141.921 Y168.443 E.03647
G1 X142.383 Y167.63 E.03651
G1 X142.926 Y166.87 E.03647
G1 X143.545 Y166.17 E.03648
G1 X144.233 Y165.537 E.0365
G1 X144.983 Y164.979 E.0365
G1 X145.781 Y164.505 E.03624
G1 X146.422 Y164.2 E.02772
G1 X147.079 Y163.944 E.02753
G1 X147.972 Y163.69 E.03625
G1 X148.892 Y163.527 E.03648
G1 X149.824 Y163.461 E.03648
G1 X150.758 Y163.491 E.03649
G1 X151.684 Y163.618 E.03649
G1 X152.585 Y163.837 E.0362
G1 X153.257 Y164.068 E.02774
G1 X153.906 Y164.347 E.02758
G1 X154.721 Y164.79 E.03622
G1 X155.491 Y165.318 E.03645
G1 X156.203 Y165.924 E.0365
G1 X156.849 Y166.599 E.03648
G1 X157.422 Y167.338 E.03651
G1 X157.911 Y168.125 E.03618
G1 X158.229 Y168.76 E.02773
G1 X158.497 Y169.415 E.02763
G1 X158.769 Y170.301 E.03619
G1 X158.949 Y171.218 E.03649
G1 X159.033 Y172.14 E.03615
G1 X159.033 Y172.86 E.02811
G1 X158.949 Y173.782 E.03615
G1 X158.769 Y174.699 E.03649
G1 X158.495 Y175.593 E.03651
G1 X158.13 Y176.453 E.03648
G1 X157.679 Y177.272 E.0365
G1 X157.145 Y178.039 E.03649
G1 X156.535 Y178.747 E.03649
G1 X155.855 Y179.388 E.03649
G1 X155.113 Y179.956 E.03648
G1 X154.322 Y180.44 E.03621
G1 X153.688 Y180.752 E.02759
G1 X153.03 Y181.018 E.02771
G1 X152.141 Y181.283 E.03622
G1 X151.223 Y181.458 E.03649
G1 X150.292 Y181.536 E.03648
G1 X149.357 Y181.518 E.03651
G1 X148.43 Y181.403 E.03647
G1 X147.525 Y181.195 E.03626
G1 X146.855 Y180.974 E.02755
G1 X146.2 Y180.703 E.02768
G1 X145.378 Y180.27 E.03627
G1 X144.601 Y179.752 E.03646
G1 X143.881 Y179.156 E.03649
G1 X143.227 Y178.488 E.0365
G1 X142.645 Y177.757 E.03648
G1 X142.402 Y177.378 E.01758
SET_VELOCITY_LIMIT ACCEL=20000 MINIMUM_CRUISE_RATIO=0.5
SET_VELOCITY_LIMIT SQUARE_CORNER_VELOCITY=10
SET_VELOCITY_LIMIT ACCEL=30000 MINIMUM_CRUISE_RATIO=0.5
SET_VELOCITY_LIMIT SQUARE_CORNER_VELOCITY=30
G1 X142.809 Y177.073 F72000
SET_VELOCITY_LIMIT ACCEL=20000 MINIMUM_CRUISE_RATIO=0.5
SET_VELOCITY_LIMIT SQUARE_CORNER_VELOCITY=10
SET_VELOCITY_LIMIT ACCEL=1000 MINIMUM_CRUISE_RATIO=0.5
SET_VELOCITY_LIMIT SQUARE_CORNER_VELOCITY=5
G1 F24000
G1 X142.583 Y176.719 E.0164
G1 X142.187 Y175.93 E.03447
G1 X141.874 Y175.105 E.03445
G1 X141.649 Y174.253 E.03441
G1 X141.513 Y173.384 E.03434
G1 X141.473 Y172.722 E.02589
G1 X141.479 Y172.056 E.026
G1 X141.569 Y171.181 E.03434
G1 X141.751 Y170.318 E.03444
G1 X142.02 Y169.478 E.03444
G1 X142.374 Y168.67 E.03444
G1 X142.811 Y167.904 E.03443
G1 X143.324 Y167.186 E.03445
G1 X143.908 Y166.525 E.03444
G1 X144.557 Y165.928 E.03443
G1 X145.265 Y165.401 E.03446
G1 X146.02 Y164.952 E.0343
G1 X146.622 Y164.666 E.02602
G1 X147.241 Y164.425 E.02594
G1 X148.085 Y164.185 E.03426
G1 X148.954 Y164.031 E.03446
G1 X149.834 Y163.969 E.03444
G1 X150.716 Y163.997 E.03445
G1 X151.59 Y164.116 E.03444
G1 X152.442 Y164.324 E.03424
G1 X153.074 Y164.542 E.0261
G1 X153.684 Y164.804 E.02592
G1 X154.455 Y165.223 E.03426
G1 X155.183 Y165.722 E.03446
G1 X155.855 Y166.293 E.03443
G1 X156.465 Y166.931 E.03446
G1 X157.005 Y167.628 E.03443
G1 X157.468 Y168.373 E.03425
G1 X157.767 Y168.97 E.02607
G1 X158.019 Y169.586 E.02599
G1 X158.276 Y170.424 E.03422
G1 X158.446 Y171.29 E.03446
G1 X158.526 Y172.163 E.03423
G1 X158.526 Y172.837 E.02632
G1 X158.446 Y173.71 E.03423
G1 X158.276 Y174.576 E.03446
G1 X158.018 Y175.419 E.03442
G1 X157.674 Y176.231 E.03443
G1 X157.247 Y177.004 E.03448
G1 X156.744 Y177.728 E.03442
G1 X156.168 Y178.396 E.03444
G1 X155.526 Y179.001 E.03444
G1 X154.826 Y179.537 E.03442
G1 X154.077 Y179.995 E.03428
G1 X153.481 Y180.289 E.02595
G1 X152.862 Y180.538 E.02605
G1 X152.021 Y180.79 E.03428
G1 X151.154 Y180.954 E.03445
G1 X150.275 Y181.029 E.03444
G1 X149.393 Y181.011 E.03444
G1 X148.518 Y180.903 E.03442
G1 X147.662 Y180.706 E.0343
G1 X147.032 Y180.498 E.0259
G1 X146.415 Y180.243 E.02607
G1 X145.638 Y179.834 E.03428
G1 X144.904 Y179.344 E.03446
G1 X144.225 Y178.782 E.03441
G1 X143.607 Y178.152 E.03446
G1 X143.058 Y177.462 E.03443
G1 X142.836 Y177.115 E.01608
SET_VELOCITY_LIMIT ACCEL=20000 MINIMUM_CRUISE_RATIO=0.5
SET_VELOCITY_LIMIT SQUARE_CORNER_VELOCITY=10
SET_VELOCITY_LIMIT ACCEL=30000 MINIMUM_CRUISE_RATIO=0.5
SET_VELOCITY_LIMIT SQUARE_CORNER_VELOCITY=30
G1 X143.244 Y176.811 F72000
SET_VELOCITY_LIMIT ACCEL=20000 MINIMUM_CRUISE_RATIO=0.5
SET_VELOCITY_LIMIT SQUARE_CORNER_VELOCITY=10
SET_VELOCITY_LIMIT ACCEL=1000 MINIMUM_CRUISE_RATIO=0.5
SET_VELOCITY_LIMIT SQUARE_CORNER_VELOCITY=5
;TYPE:External perimeter
G1 F24000
G1 X143.024 Y176.468 E.01591
G1 X142.652 Y175.726 E.03241
G1 X142.358 Y174.95 E.0324
G1 X142.146 Y174.148 E.03239
G1 X142.018 Y173.33 E.03233
G1 X141.98 Y172.709 E.02429
G1 X141.985 Y172.084 E.0244
G1 X142.071 Y171.26 E.03235
G1 X142.241 Y170.448 E.03239
G1 X142.495 Y169.658 E.0324
G1 X142.828 Y168.898 E.0324
G1 X143.238 Y168.177 E.03238
G1 X143.721 Y167.502 E.03241
G1 X144.27 Y166.881 E.03236
G1 X144.881 Y166.319 E.03241
G1 X145.547 Y165.824 E.0324
G1 X146.258 Y165.4 E.03232
G1 X146.823 Y165.132 E.02442
G1 X147.403 Y164.907 E.02429
G1 X148.199 Y164.679 E.03233
G1 X149.016 Y164.535 E.03239
G1 X149.844 Y164.476 E.03241
G1 X150.673 Y164.503 E.03238
G1 X151.495 Y164.615 E.03239
G1 X152.3 Y164.811 E.03235
G1 X152.891 Y165.015 E.02441
G1 X153.463 Y165.261 E.02431
G1 X154.19 Y165.656 E.0323
G1 X154.875 Y166.125 E.03241
G1 X155.507 Y166.662 E.03238
G1 X156.08 Y167.262 E.03239
G1 X156.588 Y167.918 E.03239
G1 X157.025 Y168.621 E.03232
G1 X157.306 Y169.18 E.02443
G1 X157.541 Y169.756 E.02429
G1 X157.784 Y170.548 E.03235
G1 X157.944 Y171.362 E.03239
G1 X158.019 Y172.186 E.03231
G1 X158.019 Y172.814 E.02452
G1 X157.944 Y173.638 E.03231
G1 X157.784 Y174.452 E.03239
G1 X157.541 Y175.245 E.03238
G1 X157.217 Y176.009 E.0324
G1 X156.816 Y176.736 E.03242
G1 X156.342 Y177.417 E.0324
G1 X155.801 Y178.045 E.03236
G1 X155.198 Y178.614 E.03237
G1 X154.539 Y179.118 E.03239
G1 X153.832 Y179.551 E.03237
G1 X153.274 Y179.826 E.02429
G1 X152.694 Y180.059 E.0244
G1 X151.901 Y180.297 E.03233
G1 X151.086 Y180.451 E.03238
G1 X150.259 Y180.521 E.0324
G1 X149.429 Y180.505 E.03241
G1 X148.606 Y180.403 E.03238
G1 X147.799 Y180.217 E.03233
G1 X147.208 Y180.022 E.0243
G1 X146.63 Y179.783 E.02442
G1 X145.898 Y179.398 E.03229
G1 X145.207 Y178.937 E.03243
G1 X144.568 Y178.408 E.03239
G1 X143.988 Y177.816 E.03236
G1 X143.471 Y177.167 E.0324
G1 X143.271 Y176.853 E.01454
SET_VELOCITY_LIMIT ACCEL=20000 MINIMUM_CRUISE_RATIO=0.5
SET_VELOCITY_LIMIT SQUARE_CORNER_VELOCITY=10
G1 X143.009 Y176.428 F72000
G1 E-.5 F2100
SET_VELOCITY_LIMIT ACCEL=30000 MINIMUM_CRUISE_RATIO=0.5
SET_VELOCITY_LIMIT SQUARE_CORNER_VELOCITY=30
G1 X163.611 Y163.944 F72000
SET_VELOCITY_LIMIT ACCEL=20000 MINIMUM_CRUISE_RATIO=0.5
SET_VELOCITY_LIMIT SQUARE_CORNER_VELOCITY=10
G1 E.5 F2100
SET_VELOCITY_LIMIT ACCEL=1000 MINIMUM_CRUISE_RATIO=0.5
SET_VELOCITY_LIMIT SQUARE_CORNER_VELOCITY=5
;TYPE:Perimeter
G1 F24000
G1 X163.611 Y181.056 E.66812
G1 X158.556 Y186.111 E.27912
G1 X141.444 Y186.111 E.66812
G1 X136.389 Y181.056 E.27912
G1 X136.389 Y163.944 E.66812
G1 X141.444 Y158.889 E.27912
G1 X158.556 Y158.889 E.66812
G1 X160.459 Y160.792 E.10508
G1 X163.575 Y163.908 E.17205
SET_VELOCITY_LIMIT ACCEL=20000 MINIMUM_CRUISE_RATIO=0.5
SET_VELOCITY_LIMIT SQUARE_CORNER_VELOCITY=10
SET_VELOCITY_LIMIT ACCEL=30000 MINIMUM_CRUISE_RATIO=0.5
SET_VELOCITY_LIMIT SQUARE_CORNER_VELOCITY=30
G1 X164.118 Y163.734 F72000
SET_VELOCITY_LIMIT ACCEL=20000 MINIMUM_CRUISE_RATIO=0.5
SET_VELOCITY_LIMIT SQUARE_CORNER_VELOCITY=10
SET_VELOCITY_LIMIT ACCEL=1000 MINIMUM_CRUISE_RATIO=0.5
SET_VELOCITY_LIMIT SQUARE_CORNER_VELOCITY=5
G1 F24000
G1 X164.118 Y181.266 E.68451
G1 X158.766 Y186.618 E.29552
G1 X141.234 Y186.618 E.68451
G1 X135.882 Y181.266 E.29552
G1 X135.882 Y163.734 E.68451
G1 X141.234 Y158.382 E.29552
G1 X158.766 Y158.382 E.68451
G1 X160.818 Y160.433 E.11328
G1 X164.083 Y163.698 E.18028
SET_VELOCITY_LIMIT ACCEL=20000 MINIMUM_CRUISE_RATIO=0.5
SET_VELOCITY_LIMIT SQUARE_CORNER_VELOCITY=10
SET_VELOCITY_LIMIT ACCEL=30000 MINIMUM_CRUISE_RATIO=0.5
SET_VELOCITY_LIMIT SQUARE_CORNER_VELOCITY=30
G1 X164.625 Y163.524 F72000
SET_VELOCITY_LIMIT ACCEL=20000 MINIMUM_CRUISE_RATIO=0.5
SET_VELOCITY_LIMIT SQUARE_CORNER_VELOCITY=10
SET_VELOCITY_LIMIT ACCEL=1000 MINIMUM_CRUISE_RATIO=0.5
SET_VELOCITY_LIMIT SQUARE_CORNER_VELOCITY=5
;TYPE:External perimeter
G1 F24000
G1 X164.625 Y181.476 E.70091
G1 X158.976 Y187.125 E.31192
G1 X141.024 Y187.125 E.70091
G1 X135.375 Y181.476 E.31192
G1 X135.375 Y163.524 E.70091
G1 X141.024 Y157.875 E.31192
G1 X158.976 Y157.875 E.70091
G1 X161.176 Y160.075 E.12148
G1 X164.59 Y163.488 E.18848
SET_VELOCITY_LIMIT ACCEL=20000 MINIMUM_CRUISE_RATIO=0.5
SET_VELOCITY_LIMIT SQUARE_CORNER_VELOCITY=10
G1 X164.623 Y163.987 F72000
G1 E-.5 F2100
SET_VELOCITY_LIMIT ACCEL=30000 MINIMUM_CRUISE_RATIO=0.5
SET_VELOCITY_LIMIT SQUARE_CORNER_VELOCITY=30
G1 X158.169 Y159.041 F72000
SET_VELOCITY_LIMIT ACCEL=20000 MINIMUM_CRUISE_RATIO=0.5
SET_VELOCITY_LIMIT SQUARE_CORNER_VELOCITY=10
G1 E.5 F2100
SET_VELOCITY_LIMIT ACCEL=1000 MINIMUM_CRUISE_RATIO=0.5
SET_VELOCITY_LIMIT SQUARE_CORNER_VELOCITY=5
;TYPE:Solid infill
;WIDTH:0.552684
G1 F24000
G1 X163.231 Y164.103 E.28098
G1 X163.231 Y164.824 E.0283
G1 X157.676 Y159.269 E.30835
G1 X156.955 Y159.269 E.0283
G1 X163.231 Y165.545 E.34837
G1 X163.231 Y166.266 E.0283
G1 X156.234 Y159.269 E.38839
G1 X155.513 Y159.269 E.0283
G1 X163.231 Y166.987 E.42841
G1 X163.231 Y167.708 E.0283
G1 X154.792 Y159.269 E.46844
G1 X154.071 Y159.269 E.0283
G1 X163.231 Y168.429 E.50846
G1 X163.231 Y169.15 E.0283
G1 X153.35 Y159.269 E.54848
G1 X152.63 Y159.269 E.02826
G1 X163.231 Y169.87 E.58845
G1 X163.231 Y170.591 E.0283
G1 X151.909 Y159.269 E.62847
G1 X151.188 Y159.269 E.0283
G1 X163.231 Y171.312 E.66849
G1 X163.231 Y172.033 E.0283
G1 X150.467 Y159.269 E.70851
G1 X149.746 Y159.269 E.0283
G1 X154.989 Y164.513 E.29106
G1 X155.723 Y165.016 E.03493
G1 X156.465 Y165.647 E.03823
G1 X157.138 Y166.351 E.03823
G1 X157.734 Y167.12 E.03819
G1 X157.96 Y167.484 E.01682
G1 X163.231 Y172.754 E.29256
G1 X163.231 Y173.475 E.0283
G1 X158.727 Y168.971 E.25001
G1 X158.856 Y169.287 E.0134
G1 X159.092 Y170.057 E.03161
G1 X163.231 Y174.196 E.22975
G1 X163.231 Y174.917 E.0283
G1 X159.289 Y170.975 E.21881
G1 X159.326 Y171.164 E.00756
G1 X159.383 Y171.79 E.02467
G1 X163.231 Y175.638 E.2136
G1 X163.231 Y176.359 E.0283
G1 X159.413 Y172.541 E.21193
G1 X159.413 Y172.877 E.01319
G1 X159.381 Y173.23 E.01391
G1 X163.231 Y177.08 E.21371
G1 X163.231 Y177.801 E.0283
G1 X159.316 Y173.886 E.21732
G1 X159.198 Y174.489 E.02412
G1 X163.231 Y178.521 E.22384
G1 X163.231 Y179.242 E.0283
G1 X159.054 Y175.066 E.23183
G1 X158.885 Y175.618 E.02266
G1 X163.231 Y179.963 E.24121
G1 X163.231 Y180.684 E.0283
G1 X158.679 Y176.133 E.25265
G1 X158.463 Y176.637 E.02152
G1 X162.977 Y181.152 E.25059
G1 X162.617 Y181.512 E.01998
G1 X158.207 Y177.102 E.24479
G1 X157.942 Y177.559 E.02073
G1 X162.257 Y181.873 E.23949
G1 X161.896 Y182.233 E.02001
G1 X157.647 Y177.984 E.23586
G1 X157.339 Y178.397 E.02022
G1 X161.536 Y182.594 E.23297
G1 X161.175 Y182.954 E.02001
G1 X157.005 Y178.784 E.23147
G1 X156.81 Y179.01 E.01172
G1 X156.656 Y179.156 E.00833
G1 X160.815 Y183.315 E.23086
G1 X160.454 Y183.675 E.02001
G1 X156.285 Y179.506 E.23141
G1 X156.102 Y179.678 E.00986
G1 X155.895 Y179.837 E.01025
G1 X160.094 Y184.036 E.23308
G1 X159.733 Y184.396 E.02001
G1 X155.486 Y180.149 E.23574
G1 X155.328 Y180.27 E.00781
G1 X155.054 Y180.438 E.01262
G1 X159.373 Y184.757 E.23974
G1 X159.012 Y185.117 E.02001
G1 X154.607 Y180.712 E.24451
G1 X154.132 Y180.958 E.021
G1 X158.652 Y185.477 E.25087
G1 X158.399 Y185.731 E.01407
G1 X158.184 Y185.731 E.00844
G1 X153.637 Y181.183 E.25242
G1 X153.12 Y181.387 E.02182
G1 X157.463 Y185.731 E.2411
G1 X156.742 Y185.731 E.0283
G1 X152.565 Y181.554 E.23186
G1 X152.231 Y181.653 E.01367
G1 X151.99 Y181.699 E.00963
G1 X156.021 Y185.731 E.22378
G1 X155.3 Y185.731 E.0283
G1 X151.384 Y181.814 E.2174
G1 X150.73 Y181.881 E.0258
G1 X154.58 Y185.731 E.21371
G1 X153.859 Y185.731 E.0283
G1 X150.04 Y181.911 E.21201
G1 X149.301 Y181.894 E.02901
G1 X153.138 Y185.731 E.21299
G1 X152.417 Y185.731 E.0283
G1 X148.479 Y181.793 E.21859
G1 X147.558 Y181.593 E.03699
G1 X151.696 Y185.731 E.22969
G1 X150.975 Y185.731 E.0283
G1 X146.03 Y180.785 E.27452
SET_VELOCITY_LIMIT ACCEL=20000 MINIMUM_CRUISE_RATIO=0.5
SET_VELOCITY_LIMIT SQUARE_CORNER_VELOCITY=10
G1 E-.5 F2100
SET_VELOCITY_LIMIT ACCEL=30000 MINIMUM_CRUISE_RATIO=0.5
SET_VELOCITY_LIMIT SQUARE_CORNER_VELOCITY=30
G1 X153.961 Y164.205 F72000
SET_VELOCITY_LIMIT ACCEL=20000 MINIMUM_CRUISE_RATIO=0.5
SET_VELOCITY_LIMIT SQUARE_CORNER_VELOCITY=10
G1 E.5 F2100
SET_VELOCITY_LIMIT ACCEL=1000 MINIMUM_CRUISE_RATIO=0.5
SET_VELOCITY_LIMIT SQUARE_CORNER_VELOCITY=5
G1 F24000
G1 X149.025 Y159.269 E.27399
G1 X148.304 Y159.269 E.0283
G1 X152.447 Y163.412 E.22997
G1 X151.755 Y163.243 E.02796
G1 X151.526 Y163.212 E.00907
G1 X147.583 Y159.269 E.21887
G1 X146.862 Y159.269 E.0283
G1 X150.702 Y163.109 E.21315
G1 X149.957 Y163.085 E.02926
G1 X146.141 Y159.269 E.21182
G1 X145.42 Y159.269 E.0283
G1 X149.27 Y163.119 E.21371
G1 X148.845 Y163.149 E.01672
G1 X148.619 Y163.189 E.00901
G1 X144.699 Y159.269 E.21759
G1 X143.979 Y159.269 E.02826
G1 X148.007 Y163.297 E.22359
G1 X147.435 Y163.447 E.02321
G1 X143.258 Y159.269 E.23189
G1 X142.537 Y159.269 E.0283
G1 X146.881 Y163.614 E.24116
G1 X146.362 Y163.815 E.02185
G1 X141.816 Y159.269 E.25234
G1 X141.601 Y159.269 E.00844
G1 X141.348 Y159.523 E.01407
G1 X145.868 Y164.042 E.25087
G1 X145.396 Y164.291 E.02095
G1 X140.988 Y159.883 E.24468
G1 X140.627 Y160.244 E.02004
G1 X144.944 Y164.56 E.2396
G1 X144.772 Y164.662 E.00785
G1 X144.516 Y164.853 E.01254
G1 X140.267 Y160.604 E.23586
G1 X139.906 Y160.964 E.02001
G1 X144.102 Y165.161 E.23294
G1 X143.716 Y165.496 E.02006
G1 X139.546 Y161.325 E.2315
G1 X139.185 Y161.685 E.02001
G1 X143.341 Y165.841 E.23069
G1 X142.996 Y166.217 E.02003
G1 X138.825 Y162.046 E.23153
G1 X138.464 Y162.406 E.02001
G1 X142.658 Y166.599 E.23277
G1 X142.354 Y167.017 E.02029
G1 X138.104 Y162.767 E.23591
G1 X137.743 Y163.127 E.02001
G1 X142.054 Y167.438 E.2393
G1 X141.793 Y167.898 E.02076
G1 X137.383 Y163.488 E.24479
G1 X137.023 Y163.848 E.01998
G1 X141.539 Y168.365 E.2507
G1 X141.32 Y168.866 E.02146
G1 X136.769 Y164.316 E.25259
G1 X136.769 Y165.037 E.0283
G1 X141.118 Y169.385 E.24138
G1 X140.943 Y169.931 E.0225
G1 X136.769 Y165.758 E.23166
G1 X136.769 Y166.479 E.0283
G1 X140.803 Y170.512 E.22389
G1 X140.684 Y171.114 E.02409
G1 X136.769 Y167.2 E.21729
G1 X136.769 Y167.92 E.02826
G1 X140.616 Y171.767 E.21354
G1 X140.592 Y172.006 E.00943
G1 X140.588 Y172.46 E.01782
G1 X136.769 Y168.641 E.21199
G1 X136.769 Y169.362 E.0283
G1 X140.613 Y173.206 E.21337
G1 X140.63 Y173.48 E.01078
G1 X140.716 Y174.029 E.02181
G1 X136.769 Y170.083 E.21906
G1 X136.769 Y170.804 E.0283
G1 X140.915 Y174.95 E.23014
G1 X141.028 Y175.377 E.01734
G1 X141.276 Y176.032 E.02749
G1 X136.769 Y171.525 E.25018
G1 X136.769 Y172.246 E.0283
G1 X142.039 Y177.515 E.2925
G1 X142.335 Y177.978 E.02157
